shihui17/master_thesis/Trajectory/Yu_logs/Log2.csv
time,v1,v2,v3,v4,v5,v6,,a1,a2,a3,a4,a5,a6,,q1,q2,q3,q4,q5,q6,
0,7.33E-06,5.81E-07,-2.19E-06,-1.67E-06,-1.29E-10,-3.86E-10,,0.003665191,0.00029049,-0.001092757,-0.000835063,-6.46E-08,-1.93E-07,,-1.570796327,-1.570796327,1.570796327,-1.570796327,-1.570796327,0,
0.002,3.67E-05,2.90E-06,-1.09E-05,-8.35E-06,-6.46E-10,-1.93E-09,,0.014660766,0.001161961,-0.004371028,-0.003340253,-2.58E-07,-7.72E-07,,-1.570796312,-1.570796326,1.570796322,-1.57079633,-1.570796327,-7.72E-13,
0.004,0.000102625,8.13E-06,-3.06E-05,-2.34E-05,-1.81E-09,-5.40E-09,,0.032986723,0.002614413,-0.009834812,-0.007515568,-5.81E-07,-1.74E-06,,-1.570796239,-1.57079632,1.570796301,-1.570796347,-1.570796327,-4.63E-12,
0.006,0.000219911,1.74E-05,-6.56E-05,-5.01E-05,-3.87E-09,-1.16E-08,,0.058643063,0.004647845,-0.01748411,-0.01336101,-1.03E-06,-3.09E-06,,-1.570796034,-1.570796304,1.570796239,-1.570796394,-1.570796327,-1.54E-11,
0.008,0.000403171,3.20E-05,-0.000120203,-9.19E-05,-7.10E-09,-2.12E-08,,0.091629786,0.007262258,-0.027318922,-0.020876578,-1.61E-06,-4.82E-06,,-1.570795594,-1.570796269,1.570796108,-1.570796494,-1.570796327,-3.86E-11,
0.01,0.000667065,5.29E-05,-0.000198882,-0.000151981,-1.18E-08,-3.51E-08,,0.131946891,0.010457652,-0.039339248,-0.030062272,-2.32E-06,-6.95E-06,,-1.570794787,-1.570796205,1.570795868,-1.570796678,-1.570796327,-8.11E-11,
0.012,0.001026254,8.13E-05,-0.000305972,-0.000233818,-1.81E-08,-5.40E-08,,0.17959438,0.014234026,-0.053545088,-0.040918093,-3.16E-06,-9.46E-06,,-1.570793453,-1.570796099,1.57079547,-1.570796981,-1.570796327,-1.51E-10,
0.014,0.001495398,0.00011852,-0.000445845,-0.000340706,-2.63E-08,-7.87E-08,,0.234572252,0.018591381,-0.069936441,-0.05344404,-4.13E-06,-1.24E-05,,-1.570791401,-1.570795936,1.570794858,-1.570797449,-1.570796327,-2.59E-10,
0.016,0.002089159,0.000165579,-0.000622871,-0.000475986,-3.68E-08,-1.10E-07,,0.296880506,0.023529717,-0.088513308,-0.067640113,-5.23E-06,-1.56E-05,,-1.57078841,-1.570795699,1.570793966,-1.570798131,-1.570796327,-4.17E-10,
0.018,0.002822197,0.000223678,-0.000841423,-0.000642999,-4.97E-08,-1.49E-07,,0.366519143,0.029049033,-0.109275689,-0.083506312,-6.46E-06,-1.93E-05,,-1.570784232,-1.570795368,1.570792721,-1.570799083,-1.570796327,-6.37E-10,
0.02,0.003709174,0.000293976,-0.00110587,-0.000845084,-6.53E-08,-1.95E-07,,0.443488163,0.03514933,-0.132223584,-0.101042638,-7.81E-06,-2.34E-05,,-1.570778587,-1.570794921,1.570791038,-1.570800369,-1.570796327,-9.34E-10,
0.022,0.004764749,0.000377637,-0.001420584,-0.001085582,-8.39E-08,-2.51E-07,,0.527787566,0.041830608,-0.157356992,-0.12024909,-9.30E-06,-2.78E-05,,-1.570771169,-1.570794333,1.570788826,-1.570802059,-1.570796327,-1.32E-09,
0.024,0.006003584,0.000475823,-0.001789936,-0.001367833,-1.06E-07,-3.16E-07,,0.619417352,0.049092866,-0.184675915,-0.141125668,-1.09E-05,-3.26E-05,,-1.570761639,-1.570793578,1.570785985,-1.57080423,-1.570796327,-1.83E-09,
0.026,0.007440339,0.000589695,-0.002218296,-0.001695178,-1.31E-07,-3.92E-07,,0.71837752,0.056936105,-0.214180351,-0.163672372,-1.27E-05,-3.78E-05,,-1.570749632,-1.570792626,1.570782405,-1.570806966,-1.570796328,-2.46E-09,
0.028,0.009089675,0.000720416,-0.002710037,-0.002070957,-1.60E-07,-4.79E-07,,0.824668071,0.065360324,-0.245870301,-0.187889203,-1.45E-05,-4.34E-05,,-1.570734752,-1.570791447,1.570777968,-1.570810356,-1.570796328,-3.24E-09,
0.03,0.010966253,0.000869147,-0.003269529,-0.002498509,-1.93E-07,-5.77E-07,,0.938289006,0.074365524,-0.279745764,-0.213776159,-1.65E-05,-4.94E-05,,-1.570716572,-1.570790006,1.570772548,-1.570814498,-1.570796328,-4.20E-09,
0.032,0.013084733,0.00103705,-0.003901142,-0.002981175,-2.30E-07,-6.89E-07,,1.059240323,0.083951706,-0.315806742,-0.241333243,-1.87E-05,-5.58E-05,,-1.57069464,-1.570788267,1.570766009,-1.570819495,-1.570796329,-5.35E-09,
0.034,0.015459777,0.001225288,-0.004609249,-0.003522296,-2.72E-07,-8.14E-07,,1.187522023,0.094118867,-0.354053233,-0.270560452,-2.09E-05,-6.25E-05,,-1.57066847,-1.570786193,1.570758207,-1.570825457,-1.570796329,-6.73E-09,
0.036,0.018106046,0.001435022,-0.005398219,-0.004125212,-3.19E-07,-9.53E-07,,1.323134106,0.104867009,-0.394485238,-0.301457787,-2.33E-05,-6.97E-05,,-1.570637551,-1.570783743,1.570748989,-1.570832502,-1.57079633,-8.36E-09,
0.038,0.021038199,0.001667414,-0.006272425,-0.004793262,-3.71E-07,-1.11E-06,,1.466076572,0.116196132,-0.437102757,-0.334025249,-2.58E-05,-7.72E-05,,-1.570601339,-1.570780873,1.570738192,-1.570840752,-1.57079633,-1.03E-08,
0.04,0.024263567,0.001923046,-0.007234051,-0.005528118,-4.27E-07,-1.28E-06,,1.612684229,0.127815745,-0.480813032,-0.367427774,-2.84E-05,-8.49E-05,,-1.570559262,-1.570777538,1.570725647,-1.570850339,-1.570796331,-1.25E-08,
0.042,0.027782151,0.002201917,-0.008283097,-0.006329778,-4.89E-07,-1.46E-06,,1.759291886,0.139435358,-0.524523308,-0.400830299,-3.10E-05,-9.26E-05,,-1.570510735,-1.570773692,1.570711179,-1.570861395,-1.570796332,-1.50E-08,
0.044,0.03159395,0.002504027,-0.009419564,-0.007198244,-5.57E-07,-1.66E-06,,1.905899543,0.151054972,-0.568233584,-0.434232824,-3.36E-05,-0.000100356,,-1.570455171,-1.570769288,1.570694613,-1.570874054,-1.570796333,-1.80E-08,
0.046,0.035698965,0.002829376,-0.010643452,-0.008133515,-6.29E-07,-1.88E-06,,2.0525072,0.162674585,-0.611943859,-0.467635349,-3.62E-05,-0.000108075,,-1.570391983,-1.57076428,1.570675774,-1.570888451,-1.570796334,-2.13E-08,
0.048,0.040097194,0.003177964,-0.01195476,-0.009135591,-7.06E-07,-2.11E-06,,2.199114857,0.174294198,-0.655654135,-0.501037873,-3.87E-05,-0.000115795,,-1.570320585,-1.570758621,1.570654487,-1.570904718,-1.570796335,-2.51E-08,
0.05,0.044781309,0.003549211,-0.013351304,-0.010202801,-7.89E-07,-2.36E-06,,2.342057323,0.185623321,-0.698271654,-0.533605335,-4.13E-05,-0.000123322,,-1.570240391,-1.570752265,1.570630577,-1.570922989,-1.570796337,-2.93E-08,
0.052,0.049736648,0.003941954,-0.014828711,-0.011331807,-8.76E-07,-2.62E-06,,2.477669406,0.196371463,-0.738703659,-0.564502671,-4.36E-05,-0.000130462,,-1.570150828,-1.570745167,1.570603875,-1.570943395,-1.570796338,-3.40E-08,
0.054,0.05494855,0.004355031,-0.016382611,-0.012519266,-9.68E-07,-2.89E-06,,2.605951106,0.206538625,-0.77695015,-0.59372988,-4.59E-05,-0.000137217,,-1.570051355,-1.570737283,1.570574217,-1.570966058,-1.57079634,-3.92E-08,
0.056,0.060402355,0.004787281,-0.018008634,-0.01376184,-1.06E-06,-3.18E-06,,2.726902423,0.216124806,-0.813011127,-0.621286963,-4.80E-05,-0.000143586,,-1.569941458,-1.570728573,1.570541452,-1.570991097,-1.570796342,-4.50E-08,
0.058,0.066083401,0.005237541,-0.019702407,-0.015056188,-1.16E-06,-3.48E-06,,2.840523358,0.225130006,-0.846886591,-0.64717392,-5.00E-05,-0.000149569,,-1.569820653,-1.570718998,1.570505435,-1.571018621,-1.570796344,-5.14E-08,
0.06,0.071977029,0.005704649,-0.02145956,-0.01639897,-1.27E-06,-3.79E-06,,2.946813909,0.233554225,-0.878576541,-0.671390751,-5.19E-05,-0.000155165,,-1.569688486,-1.570708523,1.57046603,-1.571048733,-1.570796346,-5.83E-08,
0.062,0.078068577,0.006187444,-0.023275722,-0.017786845,-1.38E-06,-4.11E-06,,3.045774078,0.241397465,-0.908080977,-0.693937455,-5.37E-05,-0.000160376,,-1.569544532,-1.570697114,1.570423111,-1.571081531,-1.570796349,-6.59E-08,
0.064,0.084343385,0.006684763,-0.025146522,-0.019216473,-1.49E-06,-4.44E-06,,3.137403863,0.248659723,-0.935399899,-0.714814033,-5.53E-05,-0.000165201,,-1.569388395,-1.570684739,1.57037656,-1.571117105,-1.570796352,-7.41E-08,
0.066,0.090786792,0.007195445,-0.027067588,-0.020684514,-1.60E-06,-4.78E-06,,3.221703266,0.255341,-0.960533308,-0.734020485,-5.68E-05,-0.00016964,,-1.569219708,-1.570671369,1.570326266,-1.571155538,-1.570796355,-8.30E-08,
0.068,0.097384136,0.007718328,-0.029034551,-0.022187627,-1.72E-06,-5.13E-06,,3.298672286,0.261441297,-0.983481202,-0.75155681,-5.81E-05,-0.000173693,,-1.569038134,-1.570656979,1.570272131,-1.571196907,-1.570796358,-9.26E-08,
0.07,0.104120758,0.008252249,-0.031043038,-0.023722473,-1.83E-06,-5.48E-06,,3.368310924,0.266960613,-1.004243583,-0.76742301,-5.93E-05,-0.000177359,,-1.568843366,-1.570641542,1.570214062,-1.571241282,-1.570796361,-1.03E-07,
0.072,0.110981996,0.008796047,-0.033088679,-0.025285711,-1.95E-06,-5.84E-06,,3.430619178,0.271898949,-1.02282045,-0.781619083,-6.04E-05,-0.00018064,,-1.568635125,-1.570625037,1.570151976,-1.571288727,-1.570796365,-1.14E-07,
0.074,0.117953191,0.00934856,-0.035167102,-0.026874001,-2.08E-06,-6.21E-06,,3.485597049,0.276256304,-1.039211804,-0.794145029,-6.14E-05,-0.000183535,,-1.568413161,-1.570607445,1.570085799,-1.571339298,-1.570796369,-1.25E-07,
0.076,0.12501968,0.009908625,-0.037273938,-0.028484003,-2.20E-06,-6.58E-06,,3.533244538,0.280032678,-1.053417643,-0.80500085,-6.22E-05,-0.000186044,,-1.568177254,-1.570588748,1.570015465,-1.571393046,-1.570796373,-1.38E-07,
0.078,0.132166803,0.010475081,-0.039404814,-0.030112376,-2.33E-06,-6.96E-06,,3.573561643,0.283228072,-1.065437969,-0.814186544,-6.29E-05,-0.000188167,,-1.567927215,-1.570568931,1.569940917,-1.571450014,-1.570796377,-1.51E-07,
0.08,0.1393799,0.011046766,-0.041555359,-0.03175578,-2.46E-06,-7.34E-06,,3.606548366,0.285842485,-1.075272781,-0.821702113,-6.35E-05,-0.000189904,,-1.567662881,-1.570547981,1.569862107,-1.571510239,-1.570796382,-1.65E-07,
0.082,0.146644309,0.011622518,-0.043721203,-0.033410876,-2.58E-06,-7.72E-06,,3.632204706,0.287875917,-1.08292208,-0.827547554,-6.40E-05,-0.000191255,,-1.567384122,-1.570525887,1.569778996,-1.571573751,-1.570796387,-1.80E-07,
0.084,0.15394537,0.012201175,-0.045897975,-0.035074321,-2.71E-06,-8.11E-06,,3.650530663,0.289328369,-1.088385864,-0.83172287,-6.43E-05,-0.00019222,,-1.567090833,-1.570502642,1.569691554,-1.571640572,-1.570796392,-1.95E-07,
0.086,0.161268423,0.012781575,-0.048081303,-0.036742777,-2.84E-06,-8.49E-06,,3.661526238,0.29019984,-1.091664135,-0.834228059,-6.45E-05,-0.000192799,,-1.566782942,-1.57047824,1.569599758,-1.571710721,-1.570796397,-2.11E-07,
0.088,0.168598806,0.013362555,-0.050266817,-0.038412904,-2.97E-06,-8.88E-06,,3.665191429,0.29049033,-1.092756891,-0.835063123,-6.46E-05,-0.000192992,,-1.566460405,-1.570452677,1.569503595,-1.571784206,-1.570796403,-2.28E-07,
0.09,0.175929189,0.013943536,-0.052452331,-0.04008303,-3.10E-06,-9.26E-06,,3.665191429,0.29049033,-1.092756891,-0.835063122,-6.46E-05,-0.000192992,,-1.566123208,-1.570425952,1.569403062,-1.571861032,-1.570796409,-2.46E-07,
0.092,0.183259571,0.014524517,-0.054637845,-0.041753156,-3.23E-06,-9.65E-06,,3.665191429,0.29049033,-1.092756892,-0.835063122,-6.46E-05,-0.000192992,,-1.565771349,-1.570398065,1.569298157,-1.571941198,-1.570796415,-2.65E-07,
0.094,0.190589954,0.015105497,-0.056823358,-0.043423282,-3.36E-06,-1.00E-05,,3.665191429,0.29049033,-1.092756891,-0.835063123,-6.46E-05,-0.000192992,,-1.56540483,-1.570369016,1.569188881,-1.572024705,-1.570796422,-2.84E-07,
0.096,0.197920337,0.015686478,-0.059008872,-0.045093409,-3.49E-06,-1.04E-05,,3.665191429,0.29049033,-1.092756892,-0.835063122,-6.46E-05,-0.000192992,,-1.56502365,-1.570338805,1.569075235,-1.572111551,-1.570796428,-3.04E-07,
0.098,0.20525072,0.016267458,-0.061194386,-0.046763535,-3.62E-06,-1.08E-05,,3.665191429,0.29049033,-1.092756892,-0.835063123,-6.46E-05,-0.000192992,,-1.56462781,-1.570307432,1.568957217,-1.572201738,-1.570796435,-3.25E-07,
0.1,0.212581103,0.016848439,-0.0633799,-0.048433661,-3.74E-06,-1.12E-05,,3.665191429,0.29049033,-1.092756892,-0.835063122,-6.46E-05,-0.000192992,,-1.564217308,-1.570274897,1.568834828,-1.572295265,-1.570796443,-3.46E-07,
0.102,0.219911486,0.01742942,-0.065565413,-0.050103787,-3.87E-06,-1.16E-05,,3.665191429,0.29049033,-1.092756891,-0.835063122,-6.46E-05,-0.000192992,,-1.563792146,-1.5702412,1.568708068,-1.572392132,-1.57079645,-3.69E-07,
0.104,0.227241869,0.0180104,-0.067750927,-0.051773914,-4.00E-06,-1.20E-05,,3.665191429,0.29049033,-1.092756892,-0.835063123,-6.46E-05,-0.000192992,,-1.563352323,-1.570206341,1.568576938,-1.57249234,-1.570796458,-3.92E-07,
0.106,0.234572251,0.018591381,-0.069936441,-0.05344404,-4.13E-06,-1.24E-05,,3.665191429,0.29049033,-1.092756891,-0.835063122,-6.46E-05,-0.000192992,,-1.562897839,-1.57017032,1.568441436,-1.572595888,-1.570796466,-4.16E-07,
0.108,0.241902634,0.019172362,-0.072121955,-0.055114166,-4.26E-06,-1.27E-05,,3.665191429,0.29049033,-1.092756892,-0.835063123,-6.46E-05,-0.000192992,,-1.562428695,-1.570133137,1.568301563,-1.572702776,-1.570796474,-4.41E-07,
0.11,0.249233017,0.019753342,-0.074307469,-0.056784292,-4.39E-06,-1.31E-05,,3.665191429,0.29049033,-1.092756891,-0.835063123,-6.46E-05,-0.000192992,,-1.561944889,-1.570094793,1.568157319,-1.572813004,-1.570796483,-4.66E-07,
0.112,0.2565634,0.020334323,-0.076492982,-0.058454419,-4.52E-06,-1.35E-05,,3.665191429,0.29049033,-1.092756892,-0.835063122,-6.46E-05,-0.000192992,,-1.561446423,-1.570055286,1.568008704,-1.572926573,-1.570796492,-4.92E-07,
0.114,0.263893783,0.020915304,-0.078678496,-0.060124545,-4.65E-06,-1.39E-05,,3.665191429,0.29049033,-1.092756891,-0.835063123,-6.46E-05,-0.000192992,,-1.560933297,-1.570014617,1.567855718,-1.573043482,-1.570796501,-5.19E-07,
0.116,0.271224166,0.021496284,-0.08086401,-0.061794671,-4.78E-06,-1.43E-05,,3.665191429,0.29049033,-1.092756891,-0.835063122,-6.46E-05,-0.000192992,,-1.560405509,-1.569972787,1.567698361,-1.573163731,-1.57079651,-5.47E-07,
0.118,0.278554549,0.022077265,-0.083049524,-0.063464797,-4.91E-06,-1.47E-05,,3.665191429,0.29049033,-1.092756892,-0.835063123,-6.46E-05,-0.000192992,,-1.559863061,-1.569929794,1.567536633,-1.57328732,-1.570796519,-5.76E-07,
0.12,0.285884931,0.022658246,-0.085235038,-0.065134924,-5.04E-06,-1.51E-05,,3.665191429,0.29049033,-1.092756892,-0.835063122,-6.46E-05,-0.000192992,,-1.559305952,-1.56988564,1.567370534,-1.57341425,-1.570796529,-6.05E-07,
0.122,0.293215314,0.023239226,-0.087420551,-0.06680505,-5.17E-06,-1.54E-05,,3.665191429,0.29049033,-1.092756891,-0.835063122,-6.46E-05,-0.000192992,,-1.558734182,-1.569840323,1.567200064,-1.57354452,-1.570796539,-6.35E-07,
0.124,0.300545697,0.023820207,-0.089606065,-0.068475176,-5.29E-06,-1.58E-05,,3.665191429,0.29049033,-1.092756891,-0.835063123,-6.46E-05,-0.000192992,,-1.558147751,-1.569793845,1.567025223,-1.57367813,-1.57079655,-6.66E-07,
0.126,0.30787608,0.024401188,-0.091791579,-0.070145302,-5.42E-06,-1.62E-05,,3.665191429,0.29049033,-1.092756892,-0.835063122,-6.46E-05,-0.000192992,,-1.55754666,-1.569746204,1.566846011,-1.57381508,-1.57079656,-6.98E-07,
0.128,0.315206463,0.024982168,-0.093977093,-0.071815429,-5.55E-06,-1.66E-05,,3.665191429,0.29049033,-1.092756891,-0.835063123,-6.46E-05,-0.000192992,,-1.556930908,-1.569697402,1.566662427,-1.573955371,-1.570796571,-7.30E-07,
0.13,0.322536846,0.025563149,-0.096162606,-0.073485555,-5.68E-06,-1.70E-05,,3.665191429,0.29049033,-1.092756892,-0.835063122,-6.46E-05,-0.000192992,,-1.556300495,-1.569647438,1.566474473,-1.574099001,-1.570796582,-7.63E-07,
0.132,0.329867229,0.02614413,-0.09834812,-0.075155681,-5.81E-06,-1.74E-05,,3.665191429,0.29049033,-1.092756891,-0.835063123,-6.46E-05,-0.000192992,,-1.555655421,-1.569596311,1.566282148,-1.574245973,-1.570796594,-7.97E-07,
0.134,0.337197611,0.02672511,-0.100533634,-0.076825807,-5.94E-06,-1.78E-05,,3.665191429,0.29049033,-1.092756892,-0.835063123,-6.46E-05,-0.000192992,,-1.554995687,-1.569544023,1.566085452,-1.574396284,-1.570796605,-8.32E-07,
0.136,0.344527994,0.027306091,-0.102719148,-0.078495934,-6.07E-06,-1.81E-05,,3.665191429,0.29049033,-1.092756891,-0.835063122,-6.46E-05,-0.000192992,,-1.554321291,-1.569490573,1.565884385,-1.574549936,-1.570796617,-8.67E-07,
0.138,0.351858377,0.027887072,-0.104904662,-0.08016606,-6.20E-06,-1.85E-05,,3.665191429,0.29049033,-1.092756891,-0.835063123,-6.46E-05,-0.000192992,,-1.553632235,-1.569435961,1.565678946,-1.574706927,-1.570796629,-9.04E-07,
0.14,0.35918876,0.028468052,-0.107090175,-0.081836186,-6.33E-06,-1.89E-05,,3.665191429,0.29049033,-1.092756891,-0.835063122,-6.46E-05,-0.000192992,,-1.552928519,-1.569380186,1.565469137,-1.57486726,-1.570796642,-9.41E-07,
0.142,0.366519143,0.029049033,-0.109275689,-0.083506312,-6.46E-06,-1.93E-05,,3.665191429,0.29049033,-1.092756892,-0.835063123,-6.46E-05,-0.000192992,,-1.552210141,-1.56932325,1.565254957,-1.575030932,-1.570796654,-9.79E-07,
0.144,0.373849526,0.029630014,-0.111461203,-0.085176438,-6.59E-06,-1.97E-05,,3.665191429,0.29049033,-1.092756891,-0.835063122,-6.46E-05,-0.000192992,,-1.551477103,-1.569265152,1.565036405,-1.575197945,-1.570796667,-1.02E-06,
0.146,0.381179909,0.030210994,-0.113646717,-0.086846565,-6.71E-06,-2.01E-05,,3.665191429,0.29049033,-1.092756892,-0.835063122,-6.46E-05,-0.000192992,,-1.550729404,-1.569205892,1.564813483,-1.575368297,-1.57079668,-1.06E-06,
0.148,0.388510291,0.030791975,-0.11583223,-0.088516691,-6.84E-06,-2.05E-05,,3.665191429,0.29049033,-1.092756891,-0.835063123,-6.46E-05,-0.000192992,,-1.549967044,-1.56914547,1.564586189,-1.575541991,-1.570796694,-1.10E-06,
0.15,0.395840674,0.031372956,-0.118017744,-0.090186817,-6.97E-06,-2.08E-05,,3.665191429,0.29049033,-1.092756892,-0.835063122,-6.46E-05,-0.000192992,,-1.549190023,-1.569083886,1.564354525,-1.575719024,-1.570796707,-1.14E-06,
0.152,0.403171057,0.031953936,-0.120203258,-0.091856943,-7.10E-06,-2.12E-05,,3.665191429,0.29049033,-1.092756891,-0.835063123,-6.46E-05,-0.000192992,,-1.548398342,-1.56902114,1.564118489,-1.575899398,-1.570796721,-1.18E-06,
0.154,0.41050144,0.032534917,-0.122388772,-0.09352707,-7.23E-06,-2.16E-05,,3.665191429,0.29049033,-1.092756891,-0.835063123,-6.46E-05,-0.000192992,,-1.547592,-1.568957233,1.563878083,-1.576083111,-1.570796736,-1.22E-06,
0.156,0.417831823,0.033115898,-0.124574286,-0.095197196,-7.36E-06,-2.20E-05,,3.665191429,0.29049033,-1.092756892,-0.835063123,-6.46E-05,-0.000192992,,-1.546770997,-1.568892163,1.563633305,-1.576270166,-1.57079675,-1.27E-06,
0.158,0.425162206,0.033696878,-0.126759799,-0.096867322,-7.49E-06,-2.24E-05,,3.665191429,0.29049033,-1.092756891,-0.835063122,-6.46E-05,-0.000192992,,-1.545935333,-1.568825931,1.563384157,-1.57646056,-1.570796765,-1.31E-06,
0.16,0.432492589,0.034277859,-0.128945313,-0.098537448,-7.62E-06,-2.28E-05,,3.665191429,0.29049033,-1.092756891,-0.835063122,-6.46E-05,-0.000192992,,-1.545085009,-1.568758537,1.563130637,-1.576654295,-1.57079678,-1.35E-06,
0.162,0.439822972,0.03485884,-0.131130827,-0.100207575,-7.75E-06,-2.32E-05,,3.665191429,0.29049033,-1.092756892,-0.835063122,-6.46E-05,-0.000192992,,-1.544220024,-1.568689981,1.562872747,-1.57685137,-1.570796795,-1.40E-06,
0.164,0.447153354,0.03543982,-0.133316341,-0.101877701,-7.88E-06,-2.35E-05,,3.665191429,0.29049033,-1.092756891,-0.835063123,-6.46E-05,-0.000192992,,-1.543340378,-1.568620264,1.562610485,-1.577051785,-1.57079681,-1.45E-06,
0.166,0.454483737,0.036020801,-0.135501855,-0.103547827,-8.01E-06,-2.39E-05,,3.665191429,0.29049033,-1.092756891,-0.835063123,-6.46E-05,-0.000192992,,-1.542446071,-1.568549384,1.562343852,-1.57725554,-1.570796826,-1.49E-06,
0.168,0.46181412,0.036601782,-0.137687368,-0.105217953,-8.13E-06,-2.43E-05,,3.665191429,0.29049033,-1.092756891,-0.835063123,-6.46E-05,-0.000192992,,-1.541537104,-1.568477342,1.562072849,-1.577462636,-1.570796842,-1.54E-06,
0.17,0.469144503,0.037182762,-0.139872882,-0.10688808,-8.26E-06,-2.47E-05,,3.665191429,0.29049033,-1.092756891,-0.835063122,-6.46E-05,-0.000192992,,-1.540613475,-1.568404139,1.561797474,-1.577673072,-1.570796858,-1.59E-06,
0.172,0.476474886,0.037763743,-0.142058396,-0.108558206,-8.39E-06,-2.51E-05,,3.665191429,0.29049033,-1.092756892,-0.835063123,-6.46E-05,-0.000192992,,-1.539675186,-1.568329773,1.561517728,-1.577886848,-1.570796875,-1.64E-06,
0.174,0.483805269,0.038344724,-0.14424391,-0.110228332,-8.52E-06,-2.55E-05,,3.665191429,0.29049033,-1.092756891,-0.835063122,-6.46E-05,-0.000192992,,-1.538722237,-1.568254246,1.561233611,-1.578103964,-1.570796892,-1.69E-06,
0.176,0.491135652,0.038925704,-0.146429423,-0.111898458,-8.65E-06,-2.59E-05,,3.665191429,0.29049033,-1.092756891,-0.835063123,-6.46E-05,-0.000192992,,-1.537754626,-1.568177556,1.560945123,-1.578324421,-1.570796909,-1.74E-06,
0.178,0.498466034,0.039506685,-0.148614937,-0.113568585,-8.78E-06,-2.62E-05,,3.665191429,0.29049033,-1.092756891,-0.835063122,-6.46E-05,-0.000192992,,-1.536772355,-1.568099705,1.560652265,-1.578548218,-1.570796926,-1.79E-06,
0.18,0.505796417,0.040087666,-0.150800451,-0.115238711,-8.91E-06,-2.66E-05,,3.665191429,0.29049033,-1.092756892,-0.835063122,-6.46E-05,-0.000192992,,-1.535775423,-1.568020692,1.560355035,-1.578775355,-1.570796944,-1.84E-06,
0.182,0.5131268,0.040668646,-0.152985965,-0.116908837,-9.04E-06,-2.70E-05,,3.665191429,0.29049033,-1.092756891,-0.835063123,-6.46E-05,-0.000192992,,-1.53476383,-1.567940516,1.560053434,-1.579005832,-1.570796962,-1.90E-06,
0.184,0.520457183,0.041249627,-0.155171479,-0.118578963,-9.17E-06,-2.74E-05,,3.665191429,0.29049033,-1.092756892,-0.835063122,-6.46E-05,-0.000192992,,-1.533737576,-1.567859179,1.559747462,-1.57923965,-1.57079698,-1.95E-06,
0.186,0.527787566,0.041830608,-0.157356992,-0.12024909,-9.30E-06,-2.78E-05,,3.665191429,0.29049033,-1.092756891,-0.835063123,-6.46E-05,-0.000192992,,-1.532696662,-1.56777668,1.559437119,-1.579476808,-1.570796998,-2.01E-06,
0.188,0.535117949,0.042411588,-0.159542506,-0.121919216,-9.43E-06,-2.82E-05,,3.665191429,0.29049033,-1.092756892,-0.835063123,-6.46E-05,-0.000192992,,-1.531641087,-1.567693019,1.559122405,-1.579717306,-1.570797017,-2.06E-06,
0.19,0.542448332,0.042992569,-0.16172802,-0.123589342,-9.56E-06,-2.86E-05,,3.665191429,0.29049033,-1.092756891,-0.835063123,-6.46E-05,-0.000192992,,-1.530570851,-1.567608195,1.55880332,-1.579961145,-1.570797035,-2.12E-06,
0.192,0.549778714,0.04357355,-0.163913534,-0.125259468,-9.68E-06,-2.89E-05,,3.665191429,0.29049033,-1.092756892,-0.835063122,-6.46E-05,-0.000192992,,-1.529485954,-1.56752221,1.558479864,-1.580208323,-1.570797054,-2.18E-06,
0.194,0.557109097,0.04415453,-0.166099048,-0.126929595,-9.81E-06,-2.93E-05,,3.665191429,0.29049033,-1.092756891,-0.835063122,-6.46E-05,-0.000192992,,-1.528386397,-1.567435063,1.558152037,-1.580458842,-1.570797074,-2.23E-06,
0.196,0.56443948,0.044735511,-0.168284561,-0.128599721,-9.94E-06,-2.97E-05,,3.665191429,0.29049033,-1.092756892,-0.835063123,-6.46E-05,-0.000192992,,-1.527272179,-1.567346754,1.557819839,-1.580712701,-1.570797093,-2.29E-06,
0.198,0.571769863,0.045316492,-0.170470075,-0.130269847,-1.01E-05,-3.01E-05,,3.665191429,0.29049033,-1.092756891,-0.835063123,-6.46E-05,-0.000192992,,-1.5261433,-1.567257283,1.55748327,-1.580969901,-1.570797113,-2.35E-06,
0.2,0.579100246,0.045897472,-0.172655589,-0.131939973,-1.02E-05,-3.05E-05,,3.665191429,0.29049033,-1.092756891,-0.835063122,-6.46E-05,-0.000192992,,-1.52499976,-1.56716665,1.557142329,-1.581230441,-1.570797134,-2.41E-06,
0.202,0.586430629,0.046478453,-0.174841103,-0.1336101,-1.03E-05,-3.09E-05,,3.665191429,0.29049033,-1.092756892,-0.835063123,-6.46E-05,-0.000192992,,-1.523841559,-1.567074855,1.556797018,-1.58149432,-1.570797154,-2.47E-06,
0.204,0.593761012,0.047059433,-0.177026616,-0.135280226,-1.05E-05,-3.13E-05,,3.665191429,0.29049033,-1.092756892,-0.835063122,-6.46E-05,-0.000192992,,-1.522668698,-1.566981898,1.556447336,-1.581761541,-1.570797175,-2.53E-06,
0.206,0.601091394,0.047640414,-0.17921213,-0.136950352,-1.06E-05,-3.17E-05,,3.665191429,0.29049033,-1.092756891,-0.835063122,-6.46E-05,-0.000192992,,-1.521481176,-1.566887779,1.556093283,-1.582032101,-1.570797196,-2.60E-06,
0.208,0.608421777,0.048221395,-0.181397644,-0.138620478,-1.07E-05,-3.20E-05,,3.665191429,0.29049033,-1.092756891,-0.835063123,-6.46E-05,-0.000192992,,-1.520278993,-1.566792499,1.555734859,-1.582306002,-1.570797217,-2.66E-06,
0.21,0.61575216,0.048802375,-0.183583158,-0.140290605,-1.08E-05,-3.24E-05,,3.665191429,0.29049033,-1.092756892,-0.835063122,-6.46E-05,-0.000192992,,-1.51906215,-1.566696056,1.555372063,-1.582583243,-1.570797238,-2.72E-06,
0.212,0.623082543,0.049383356,-0.185768672,-0.141960731,-1.10E-05,-3.28E-05,,3.665191429,0.29049033,-1.092756891,-0.835063123,-6.46E-05,-0.000192992,,-1.517830645,-1.566598451,1.555004897,-1.582863824,-1.57079726,-2.79E-06,
0.214,0.630412926,0.049964337,-0.187954185,-0.143630857,-1.11E-05,-3.32E-05,,3.665191429,0.29049033,-1.092756892,-0.835063123,-6.46E-05,-0.000192992,,-1.51658448,-1.566499684,1.55463336,-1.583147745,-1.570797282,-2.85E-06,
0.216,0.637743309,0.050545317,-0.190139699,-0.145300983,-1.12E-05,-3.36E-05,,3.665191429,0.29049033,-1.092756891,-0.835063122,-6.46E-05,-0.000192992,,-1.515323655,-1.566399756,1.554257451,-1.583435007,-1.570797304,-2.92E-06,
0.218,0.645073692,0.051126298,-0.192325213,-0.14697111,-1.14E-05,-3.40E-05,,3.665191429,0.29049033,-1.092756891,-0.835063122,-6.46E-05,-0.000192992,,-1.514048168,-1.566298665,1.553877172,-1.583725609,-1.570797326,-2.99E-06,
0.22,0.652404074,0.051707279,-0.194510727,-0.148641236,-1.15E-05,-3.44E-05,,3.665191429,0.29049033,-1.092756892,-0.835063123,-6.46E-05,-0.000192992,,-1.512758021,-1.566196412,1.553492521,-1.584019551,-1.570797349,-3.06E-06,
0.222,0.659734457,0.052288259,-0.19669624,-0.150311362,-1.16E-05,-3.47E-05,,3.665191429,0.29049033,-1.092756891,-0.835063122,-6.46E-05,-0.000192992,,-1.511453212,-1.566092998,1.5531035,-1.584316834,-1.570797372,-3.12E-06,
0.224,0.66706484,0.05286924,-0.198881754,-0.151981488,-1.18E-05,-3.51E-05,,3.665191429,0.29049033,-1.092756891,-0.835063123,-6.46E-05,-0.000192992,,-1.510133743,-1.565988421,1.552710107,-1.584617457,-1.570797395,-3.19E-06,
0.226,0.674395223,0.053450221,-0.201067268,-0.153651615,-1.19E-05,-3.55E-05,,3.665191429,0.29049033,-1.092756892,-0.835063123,-6.46E-05,-0.000192992,,-1.508799614,-1.565882683,1.552312344,-1.58492142,-1.570797419,-3.26E-06,
0.228,0.681725606,0.054031201,-0.203252782,-0.155321741,-1.20E-05,-3.59E-05,,3.665191429,0.29049033,-1.092756891,-0.835063123,-6.46E-05,-0.000192992,,-1.507450823,-1.565775782,1.551910209,-1.585228723,-1.570797443,-3.34E-06,
0.23,0.689055989,0.054612182,-0.205438296,-0.156991867,-1.21E-05,-3.63E-05,,3.665191429,0.29049033,-1.092756891,-0.835063123,-6.46E-05,-0.000192992,,-1.506087372,-1.56566772,1.551503704,-1.585539366,-1.570797467,-3.41E-06,
0.232,0.696386372,0.055193163,-0.207623809,-0.158661993,-1.23E-05,-3.67E-05,,3.665191429,0.29049033,-1.092756891,-0.835063122,-6.46E-05,-0.000192992,,-1.50470926,-1.565558496,1.551092827,-1.58585335,-1.570797491,-3.48E-06,
0.234,0.703716754,0.055774143,-0.209809323,-0.16033212,-1.24E-05,-3.71E-05,,3.665191429,0.29049033,-1.092756891,-0.835063123,-6.46E-05,-0.000192992,,-1.503316487,-1.565448109,1.55067758,-1.586170674,-1.570797515,-3.55E-06,
0.236,0.711047137,0.056355124,-0.211994837,-0.162002246,-1.25E-05,-3.74E-05,,3.665191429,0.29049033,-1.092756892,-0.835063122,-6.46E-05,-0.000192992,,-1.501909054,-1.565336561,1.550257961,-1.586491338,-1.57079754,-3.63E-06,
0.238,0.71837752,0.056936105,-0.214180351,-0.163672372,-1.27E-05,-3.78E-05,,3.665191429,0.29049033,-1.092756891,-0.835063123,-6.46E-05,-0.000192992,,-1.50048696,-1.565223851,1.549833971,-1.586815343,-1.570797565,-3.70E-06,
0.24,0.725707903,0.057517085,-0.216365865,-0.165342498,-1.28E-05,-3.82E-05,,3.665191429,0.29049033,-1.092756892,-0.835063122,-6.46E-05,-0.000192992,,-1.499050205,-1.565109979,1.549405611,-1.587142687,-1.570797591,-3.78E-06,
0.242,0.733038286,0.058098066,-0.218551378,-0.167012625,-1.29E-05,-3.86E-05,,3.665191429,0.29049033,-1.092756891,-0.835063123,-6.46E-05,-0.000192992,,-1.497598789,-1.564994944,1.548972879,-1.587473372,-1.570797616,-3.85E-06,
0.244,0.740368669,0.058679047,-0.220736892,-0.168682751,-1.30E-05,-3.90E-05,,3.665191429,0.29049033,-1.092756892,-0.835063122,-6.46E-05,-0.000192992,,-1.496132712,-1.564878748,1.548535776,-1.587807398,-1.570797642,-3.93E-06,
0.246,0.747699052,0.059260027,-0.222922406,-0.170352877,-1.32E-05,-3.94E-05,,3.665191429,0.29049033,-1.092756891,-0.835063122,-6.46E-05,-0.000192992,,-1.494651975,-1.56476139,1.548094302,-1.588144763,-1.570797668,-4.01E-06,
0.248,0.755029434,0.059841008,-0.22510792,-0.172023003,-1.33E-05,-3.98E-05,,3.665191429,0.29049033,-1.092756892,-0.835063123,-6.46E-05,-0.000192992,,-1.493156577,-1.56464287,1.547648458,-1.588485469,-1.570797694,-4.09E-06,
0.25,0.762359817,0.060421989,-0.227293433,-0.173693129,-1.34E-05,-4.01E-05,,3.665191429,0.29049033,-1.092756891,-0.835063122,-6.46E-05,-0.000192992,,-1.491646518,-1.564523188,1.547198242,-1.588829515,-1.570797721,-4.17E-06,
0.252,0.7696902,0.061002969,-0.229478947,-0.175363256,-1.36E-05,-4.05E-05,,3.665191429,0.29049033,-1.092756891,-0.835063123,-6.46E-05,-0.000192992,,-1.490121798,-1.564402344,1.546743655,-1.589176901,-1.570797748,-4.25E-06,
0.254,0.777020583,0.06158395,-0.231664461,-0.177033382,-1.37E-05,-4.09E-05,,3.665191429,0.29049033,-1.092756891,-0.835063122,-6.46E-05,-0.000192992,,-1.488582418,-1.564280338,1.546284697,-1.589527628,-1.570797775,-4.33E-06,
0.256,0.784350966,0.062164931,-0.233849975,-0.178703508,-1.38E-05,-4.13E-05,,3.665191429,0.29049033,-1.092756892,-0.835063123,-6.46E-05,-0.000192992,,-1.487028377,-1.56415717,1.545821368,-1.589881694,-1.570797802,-4.41E-06,
0.258,0.791681349,0.062745911,-0.236035489,-0.180373634,-1.39E-05,-4.17E-05,,3.665191429,0.29049033,-1.092756891,-0.835063122,-6.46E-05,-0.000192992,,-1.485459675,-1.56403284,1.545353668,-1.590239101,-1.57079783,-4.49E-06,
0.26,0.799011732,0.063326892,-0.238221002,-0.182043761,-1.41E-05,-4.21E-05,,3.665191429,0.29049033,-1.092756892,-0.835063123,-6.46E-05,-0.000192992,,-1.483876312,-1.563907349,1.544881597,-1.590599849,-1.570797858,-4.58E-06,
0.262,0.806342114,0.063907873,-0.240406516,-0.183713887,-1.42E-05,-4.25E-05,,3.665191429,0.29049033,-1.092756891,-0.835063122,-6.46E-05,-0.000192992,,-1.482278289,-1.563780695,1.544405155,-1.590963936,-1.570797886,-4.66E-06,
0.264,0.813672497,0.064488853,-0.24259203,-0.185384013,-1.43E-05,-4.28E-05,,3.665191429,0.29049033,-1.092756891,-0.835063123,-6.46E-05,-0.000192992,,-1.480665604,-1.563652879,1.543924342,-1.591331364,-1.570797914,-4.75E-06,
0.266,0.82100288,0.065069834,-0.244777544,-0.187054139,-1.45E-05,-4.32E-05,,3.665191429,0.29049033,-1.092756891,-0.835063122,-6.46E-05,-0.000192992,,-1.479038259,-1.563523901,1.543439158,-1.591702132,-1.570797943,-4.83E-06,
0.268,0.828333263,0.065650815,-0.246963057,-0.188724266,-1.46E-05,-4.36E-05,,3.665191429,0.29049033,-1.092756892,-0.835063123,-6.46E-05,-0.000192992,,-1.477396254,-1.563393762,1.542949603,-1.59207624,-1.570797972,-4.92E-06,
0.27,0.835663646,0.066231795,-0.249148571,-0.190394392,-1.47E-05,-4.40E-05,,3.665191429,0.29049033,-1.092756891,-0.835063122,-6.46E-05,-0.000192992,,-1.475739587,-1.56326246,1.542455677,-1.592453689,-1.570798001,-5.01E-06,
0.272,0.842994029,0.066812776,-0.251334085,-0.192064518,-1.48E-05,-4.44E-05,,3.665191429,0.29049033,-1.092756892,-0.835063123,-6.46E-05,-0.000192992,,-1.47406826,-1.563129996,1.54195738,-1.592834478,-1.570798031,-5.09E-06,
0.274,0.850324412,0.067393757,-0.253519599,-0.193734644,-1.50E-05,-4.48E-05,,3.665191429,0.29049033,-1.092756891,-0.835063123,-6.46E-05,-0.000192992,,-1.472382272,-1.562996371,1.541454712,-1.593218607,-1.57079806,-5.18E-06,
0.276,0.857654794,0.067974737,-0.255705113,-0.195404771,-1.51E-05,-4.52E-05,,3.665191429,0.29049033,-1.092756892,-0.835063122,-6.46E-05,-0.000192992,,-1.470681623,-1.562861583,1.540947672,-1.593606076,-1.57079809,-5.27E-06,
0.278,0.864985177,0.068555718,-0.257890626,-0.197074897,-1.52E-05,-4.55E-05,,3.665191429,0.29049033,-1.092756891,-0.835063123,-6.46E-05,-0.000192992,,-1.468966313,-1.562725634,1.540436262,-1.593996886,-1.570798121,-5.36E-06,
0.28,0.87231556,0.069136699,-0.26007614,-0.198745023,-1.54E-05,-4.59E-05,,3.665191429,0.29049033,-1.092756891,-0.835063122,-6.46E-05,-0.000192992,,-1.467236343,-1.562588523,1.539920481,-1.594391035,-1.570798151,-5.45E-06,
0.282,0.879645943,0.069717679,-0.262261654,-0.200415149,-1.55E-05,-4.63E-05,,3.665191429,0.29049033,-1.092756892,-0.835063123,-6.46E-05,-0.000192992,,-1.465491712,-1.562450249,1.539400329,-1.594788525,-1.570798182,-5.54E-06,
0.284,0.886976326,0.07029866,-0.264447168,-0.202085276,-1.56E-05,-4.67E-05,,3.665191429,0.29049033,-1.092756891,-0.835063123,-6.46E-05,-0.000192992,,-1.46373242,-1.562310814,1.538875805,-1.595189356,-1.570798213,-5.64E-06,
0.286,0.894306709,0.070879641,-0.266632682,-0.203755402,-1.58E-05,-4.71E-05,,3.665191429,0.29049033,-1.092756892,-0.835063122,-6.46E-05,-0.000192992,,-1.461958467,-1.562170216,1.538346911,-1.595593526,-1.570798244,-5.73E-06,
0.288,0.901637092,0.071460621,-0.268818195,-0.205425528,-1.59E-05,-4.75E-05,,3.665191429,0.29049033,-1.092756891,-0.835063122,-6.46E-05,-0.000192992,,-1.460169854,-1.562028457,1.537813646,-1.596001037,-1.570798276,-5.83E-06,
0.29,0.908967474,0.072041602,-0.271003709,-0.207095654,-1.60E-05,-4.79E-05,,3.665191429,0.29049033,-1.092756892,-0.835063123,-6.46E-05,-0.000192992,,-1.45836658,-1.561885536,1.537276009,-1.596411888,-1.570798307,-5.92E-06,
0.292,0.916297857,0.072622583,-0.273189223,-0.208765781,-1.61E-05,-4.82E-05,,3.665191429,0.29049033,-1.092756891,-0.835063122,-6.46E-05,-0.000192992,,-1.456548645,-1.561741453,1.536734002,-1.596826079,-1.570798339,-6.02E-06,
0.294,0.92362824,0.073203563,-0.275374737,-0.210435907,-1.63E-05,-4.86E-05,,3.665191429,0.29049033,-1.092756891,-0.835063123,-6.46E-05,-0.000192992,,-1.454716049,-1.561596208,1.536187623,-1.597243611,-1.570798372,-6.11E-06,
0.296,0.930958623,0.073784544,-0.27756025,-0.212106033,-1.64E-05,-4.90E-05,,3.665191429,0.29049033,-1.092756892,-0.835063122,-6.46E-05,-0.000192992,,-1.452868793,-1.5614498,1.535636874,-1.597664483,-1.570798404,-6.21E-06,
0.298,0.938289006,0.074365525,-0.279745764,-0.213776159,-1.65E-05,-4.94E-05,,3.665191429,0.29049033,-1.092756892,-0.835063123,-6.46E-05,-0.000192992,,-1.451006875,-1.561302231,1.535081753,-1.598088695,-1.570798437,-6.31E-06,
0.3,0.945619389,0.074946505,-0.281931278,-0.215446286,-1.67E-05,-4.98E-05,,3.665191429,0.29049033,-1.092756891,-0.835063122,-6.46E-05,-0.000192992,,-1.449130297,-1.5611535,1.534522262,-1.598516247,-1.57079847,-6.41E-06,
0.302,0.952949772,0.075527486,-0.284116792,-0.217116412,-1.68E-05,-5.02E-05,,3.665191429,0.29049033,-1.092756891,-0.835063123,-6.46E-05,-0.000192992,,-1.447239059,-1.561003607,1.533958399,-1.59894714,-1.570798503,-6.51E-06,
0.304,0.960280154,0.076108467,-0.286302306,-0.218786538,-1.69E-05,-5.06E-05,,3.665191429,0.29049033,-1.092756891,-0.835063122,-6.46E-05,-0.000192992,,-1.445333159,-1.560852552,1.533390166,-1.599381373,-1.570798537,-6.61E-06,
0.306,0.967610537,0.076689447,-0.288487819,-0.220456664,-1.70E-05,-5.09E-05,,3.665191429,0.29049033,-1.092756892,-0.835063123,-6.46E-05,-0.000192992,,-1.443412599,-1.560700335,1.532817561,-1.599818946,-1.570798571,-6.71E-06,
0.308,0.97494092,0.077270428,-0.290673333,-0.222126791,-1.72E-05,-5.13E-05,,3.665191429,0.29049033,-1.092756891,-0.835063122,-6.46E-05,-0.000192992,,-1.441477378,-1.560546956,1.532240585,-1.600259859,-1.570798605,-6.81E-06,
0.31,0.982271303,0.077851409,-0.292858847,-0.223796917,-1.73E-05,-5.17E-05,,3.665191429,0.29049033,-1.092756892,-0.835063122,-6.46E-05,-0.000192992,,-1.439527496,-1.560392416,1.531659239,-1.600704113,-1.570798639,-6.91E-06,
0.312,0.989601686,0.078432389,-0.295044361,-0.225467043,-1.74E-05,-5.21E-05,,3.665191429,0.29049033,-1.092756891,-0.835063123,-6.46E-05,-0.000192992,,-1.437562953,-1.560236713,1.531073521,-1.601151706,-1.570798674,-7.02E-06,
0.314,0.996932069,0.07901337,-0.297229874,-0.227137169,-1.76E-05,-5.25E-05,,3.665191429,0.29049033,-1.092756892,-0.835063122,-6.46E-05,-0.000192992,,-1.43558375,-1.560079848,1.530483432,-1.60160264,-1.570798709,-7.12E-06,
0.316,1.004262452,0.07959435,-0.299415388,-0.228807296,-1.77E-05,-5.29E-05,,3.665191429,0.29049033,-1.092756891,-0.835063123,-6.46E-05,-0.000192992,,-1.433589886,-1.559921821,1.529888973,-1.602056915,-1.570798744,-7.22E-06,
0.318,1.011592834,0.080175331,-0.301600902,-0.230477422,-1.78E-05,-5.33E-05,,3.665191429,0.29049033,-1.092756891,-0.835063122,-6.46E-05,-0.000192992,,-1.431581361,-1.559762633,1.529290142,-1.602514529,-1.570798779,-7.33E-06,
0.32,1.018923217,0.080756312,-0.303786416,-0.232147548,-1.79E-05,-5.37E-05,,3.665191429,0.29049033,-1.092756892,-0.835063123,-6.46E-05,-0.000192992,,-1.429558175,-1.559602282,1.52868694,-1.602975484,-1.570798815,-7.44E-06,
0.322,1.0262536,0.081337292,-0.30597193,-0.233817674,-1.81E-05,-5.40E-05,,3.665191429,0.29049033,-1.092756891,-0.835063123,-6.46E-05,-0.000192992,,-1.427520329,-1.559440769,1.528079367,-1.603439779,-1.570798851,-7.54E-06,
0.324,1.033583983,0.081918273,-0.308157443,-0.235487801,-1.82E-05,-5.44E-05,,3.665191429,0.29049033,-1.092756891,-0.835063122,-6.46E-05,-0.000192992,,-1.425467821,-1.559278095,1.527467423,-1.603907415,-1.570798887,-7.65E-06,
0.326,1.040914366,0.082499254,-0.310342957,-0.237157927,-1.83E-05,-5.48E-05,,3.665191429,0.29049033,-1.092756892,-0.835063123,-6.46E-05,-0.000192992,,-1.423400653,-1.559114258,1.526851108,-1.60437839,-1.570798923,-7.76E-06,
0.328,1.048244749,0.083080234,-0.312528471,-0.238828053,-1.85E-05,-5.52E-05,,3.665191429,0.29049033,-1.092756891,-0.835063123,-6.46E-05,-0.000192992,,-1.421318825,-1.55894926,1.526230422,-1.604852706,-1.57079896,-7.87E-06,
0.33,1.055575132,0.083661215,-0.314713985,-0.240498179,-1.86E-05,-5.56E-05,,3.665191429,0.29049033,-1.092756891,-0.835063123,-6.46E-05,-0.000192992,,-1.419222335,-1.558783099,1.525605366,-1.605330362,-1.570798997,-7.98E-06,
0.332,1.062905514,0.084242196,-0.316899499,-0.242168306,-1.87E-05,-5.60E-05,,3.665191429,0.29049033,-1.092756892,-0.835063122,-6.46E-05,-0.000192992,,-1.417111185,-1.558615777,1.524975938,-1.605811359,-1.570799034,-8.09E-06,
0.334,1.070235897,0.084823176,-0.319085012,-0.243838432,-1.89E-05,-5.64E-05,,3.665191429,0.29049033,-1.092756892,-0.835063123,-6.46E-05,-0.000192992,,-1.414985374,-1.558447292,1.524342139,-1.606295695,-1.570799071,-8.20E-06,
0.336,1.07756628,0.085404157,-0.321270526,-0.245508558,-1.90E-05,-5.67E-05,,3.665191429,0.29049033,-1.092756891,-0.835063122,-6.46E-05,-0.000192992,,-1.412844902,-1.558277646,1.523703969,-1.606783372,-1.570799109,-8.32E-06,
0.338,1.084896663,0.085985138,-0.32345604,-0.247178684,-1.91E-05,-5.71E-05,,3.665191429,0.29049033,-1.092756892,-0.835063123,-6.46E-05,-0.000192992,,-1.41068977,-1.558106838,1.523061428,-1.607274389,-1.570799147,-8.43E-06,
0.34,1.092227046,0.086566118,-0.325641554,-0.248848811,-1.92E-05,-5.75E-05,,3.665191429,0.29049033,-1.092756891,-0.835063122,-6.46E-05,-0.000192992,,-1.408519976,-1.557934867,1.522414515,-1.607768747,-1.570799185,-8.54E-06,
0.342,1.099557429,0.087147099,-0.327827067,-0.250518937,-1.94E-05,-5.79E-05,,3.665191429,0.29049033,-1.092756891,-0.835063123,-6.46E-05,-0.000192992,,-1.406335522,-1.557761735,1.521763232,-1.608266444,-1.570799224,-8.66E-06,
0.344,1.106887812,0.08772808,-0.330012581,-0.252189063,-1.95E-05,-5.83E-05,,3.665191429,0.29049033,-1.092756891,-0.835063122,-6.46E-05,-0.000192992,,-1.404136407,-1.557587441,1.521107578,-1.608767482,-1.570799263,-8.78E-06,
0.346,1.114218194,0.08830906,-0.332198095,-0.253859189,-1.96E-05,-5.87E-05,,3.665191429,0.29049033,-1.092756891,-0.835063122,-6.46E-05,-0.000192992,,-1.401922632,-1.557411985,1.520447553,-1.60927186,-1.570799302,-8.89E-06,
0.348,1.121548577,0.088890041,-0.334383609,-0.255529315,-1.98E-05,-5.91E-05,,3.665191429,0.29049033,-1.092756892,-0.835063123,-6.46E-05,-0.000192992,,-1.399694195,-1.557235367,1.519783157,-1.609779579,-1.570799341,-9.01E-06,
0.35,1.12887896,0.089471022,-0.336569123,-0.257199442,-1.99E-05,-5.94E-05,,3.665191429,0.29049033,-1.092756891,-0.835063122,-6.46E-05,-0.000192992,,-1.397451098,-1.557057587,1.51911439,-1.610290637,-1.57079938,-9.13E-06,
0.352,1.136209343,0.090052002,-0.338754636,-0.258869568,-2.00E-05,-5.98E-05,,3.665191429,0.29049033,-1.092756891,-0.835063123,-6.46E-05,-0.000192992,,-1.39519334,-1.556878645,1.518441251,-1.610805036,-1.57079942,-9.25E-06,
0.354,1.143539726,0.090632983,-0.34094015,-0.260539694,-2.01E-05,-6.02E-05,,3.665191429,0.29049033,-1.092756892,-0.835063122,-6.46E-05,-0.000192992,,-1.392920922,-1.556698541,1.517763742,-1.611322775,-1.57079946,-9.37E-06,
0.356,1.150870109,0.091213964,-0.343125664,-0.26220982,-2.03E-05,-6.06E-05,,3.665191429,0.29049033,-1.092756891,-0.835063123,-6.46E-05,-0.000192992,,-1.390633842,-1.556517275,1.517081862,-1.611843855,-1.5707995,-9.49E-06,
0.358,1.158200492,0.091794944,-0.345311178,-0.263879947,-2.04E-05,-6.10E-05,,3.665191429,0.29049033,-1.092756891,-0.835063123,-6.46E-05,-0.000192992,,-1.388332102,-1.556334847,1.51639561,-1.612368274,-1.570799541,-9.61E-06,
0.36,1.165530874,0.092375925,-0.347496691,-0.265550073,-2.05E-05,-6.14E-05,,3.665191429,0.29049033,-1.092756892,-0.835063122,-6.46E-05,-0.000192992,,-1.386015701,-1.556151257,1.515704988,-1.612896034,-1.570799582,-9.73E-06,
0.362,1.172861257,0.092956906,-0.349682205,-0.267220199,-2.07E-05,-6.18E-05,,3.665191429,0.29049033,-1.092756891,-0.835063122,-6.46E-05,-0.000192992,,-1.383684639,-1.555966505,1.515009995,-1.613427134,-1.570799623,-9.85E-06,
0.364,1.18019164,0.093537886,-0.351867719,-0.268890325,-2.08E-05,-6.21E-05,,3.665191429,0.29049033,-1.092756891,-0.835063123,-6.46E-05,-0.000192992,,-1.381338917,-1.555780591,1.51431063,-1.613961575,-1.570799664,-9.98E-06,
0.366,1.187522023,0.094118867,-0.354053233,-0.270560452,-2.09E-05,-6.25E-05,,3.665191429,0.29049033,-1.092756892,-0.835063122,-6.46E-05,-0.000192992,,-1.378978533,-1.555593515,1.513606895,-1.614499355,-1.570799706,-1.01E-05,
0.368,1.194852406,0.094699848,-0.356238747,-0.272230578,-2.10E-05,-6.29E-05,,3.665191429,0.29049033,-1.092756891,-0.835063123,-6.46E-05,-0.000192992,,-1.376603489,-1.555405278,1.512898788,-1.615040476,-1.570799748,-1.02E-05,
0.37,1.202182789,0.095280828,-0.35842426,-0.273900704,-2.12E-05,-6.33E-05,,3.665191429,0.29049033,-1.092756891,-0.835063122,-6.46E-05,-0.000192992,,-1.374213784,-1.555215878,1.512186311,-1.615584937,-1.57079979,-1.04E-05,
0.372,1.209513172,0.095861809,-0.360609774,-0.27557083,-2.13E-05,-6.37E-05,,3.665191429,0.29049033,-1.092756892,-0.835063123,-6.46E-05,-0.000192992,,-1.371809419,-1.555025316,1.511469462,-1.616132739,-1.570799832,-1.05E-05,
0.374,1.216843554,0.09644279,-0.362795288,-0.277240957,-2.14E-05,-6.41E-05,,3.665191429,0.29049033,-1.092756891,-0.835063123,-6.46E-05,-0.000192992,,-1.369390393,-1.554833593,1.510748243,-1.61668388,-1.570799875,-1.06E-05,
0.376,1.224173937,0.09702377,-0.364980802,-0.278911083,-2.16E-05,-6.45E-05,,3.665191429,0.29049033,-1.092756892,-0.835063122,-6.46E-05,-0.000192992,,-1.366956705,-1.554640707,1.510022652,-1.617238362,-1.570799917,-1.07E-05,
0.378,1.23150432,0.097604751,-0.367166316,-0.280581209,-2.17E-05,-6.48E-05,,3.665191429,0.29049033,-1.092756891,-0.835063123,-6.46E-05,-0.000192992,,-1.364508358,-1.55444666,1.509292691,-1.617796185,-1.570799961,-1.09E-05,
0.38,1.238834703,0.098185732,-0.369351829,-0.282251335,-2.18E-05,-6.52E-05,,3.665191429,0.29049033,-1.092756892,-0.835063123,-6.46E-05,-0.000192992,,-1.362045349,-1.55425145,1.508558358,-1.618357347,-1.570800004,-1.10E-05,
0.382,1.246165086,0.098766712,-0.371537343,-0.283921462,-2.20E-05,-6.56E-05,,3.665191429,0.29049033,-1.092756891,-0.835063122,-6.46E-05,-0.000192992,,-1.35956768,-1.554055079,1.507819654,-1.61892185,-1.570800048,-1.11E-05,
0.384,1.253495469,0.099347693,-0.373722857,-0.285591588,-2.21E-05,-6.60E-05,,3.665191429,0.29049033,-1.092756891,-0.835063122,-6.46E-05,-0.000192992,,-1.357075349,-1.553857545,1.50707658,-1.619489693,-1.570800092,-1.13E-05,
0.386,1.260825852,0.099928674,-0.375908371,-0.287261714,-2.22E-05,-6.64E-05,,3.665191429,0.29049033,-1.092756891,-0.835063123,-6.46E-05,-0.000192992,,-1.354568358,-1.55365885,1.506329134,-1.620060876,-1.570800136,-1.14E-05,
0.388,1.268156235,0.100509654,-0.378093884,-0.28893184,-2.23E-05,-6.68E-05,,3.665191429,0.29049033,-1.092756892,-0.835063123,-6.46E-05,-0.000192992,,-1.352046707,-1.553458992,1.505577317,-1.620635399,-1.57080018,-1.15E-05,
0.39,1.275486617,0.101090635,-0.380279398,-0.290601967,-2.25E-05,-6.72E-05,,3.665191429,0.29049033,-1.092756891,-0.835063122,-6.46E-05,-0.000192992,,-1.349510394,-1.553257973,1.504821129,-1.621213263,-1.570800225,-1.17E-05,
0.392,1.282817,0.101671616,-0.382464912,-0.292272093,-2.26E-05,-6.75E-05,,3.665191429,0.29049033,-1.092756892,-0.835063123,-6.46E-05,-0.000192992,,-1.346959421,-1.553055792,1.504060571,-1.621794467,-1.57080027,-1.18E-05,
0.394,1.290147383,0.102252596,-0.384650426,-0.293942219,-2.27E-05,-6.79E-05,,3.665191429,0.29049033,-1.092756891,-0.835063122,-6.46E-05,-0.000192992,,-1.344393787,-1.552852449,1.503295641,-1.622379011,-1.570800315,-1.19E-05,
0.396,1.297477766,0.102833577,-0.38683594,-0.295612345,-2.29E-05,-6.83E-05,,3.665191429,0.29049033,-1.092756892,-0.835063123,-6.46E-05,-0.000192992,,-1.341813492,-1.552647943,1.50252634,-1.622966895,-1.57080036,-1.21E-05,
0.398,1.304808149,0.103414558,-0.389021453,-0.297282472,-2.30E-05,-6.87E-05,,3.665191429,0.29049033,-1.092756891,-0.835063122,-6.46E-05,-0.000192992,,-1.339218537,-1.552442276,1.501752668,-1.62355812,-1.570800406,-1.22E-05,
0.4,1.312138532,0.103995538,-0.391206967,-0.298952598,-2.31E-05,-6.91E-05,,3.665191429,0.29049033,-1.092756892,-0.835063123,-6.46E-05,-0.000192992,,-1.33660892,-1.552235447,1.500974625,-1.624152685,-1.570800452,-1.23E-05,
0.402,1.319468915,0.104576519,-0.393392481,-0.300622724,-2.32E-05,-6.95E-05,,3.665191429,0.29049033,-1.092756891,-0.835063122,-6.46E-05,-0.000192992,,-1.333984643,-1.552027456,1.500192211,-1.62475059,-1.570800498,-1.25E-05,
0.404,1.326799297,0.1051575,-0.395577995,-0.30229285,-2.34E-05,-6.99E-05,,3.665191429,0.29049033,-1.092756892,-0.835063123,-6.46E-05,-0.000192992,,-1.331345706,-1.551818303,1.499405426,-1.625351836,-1.570800545,-1.26E-05,
0.406,1.33412968,0.10573848,-0.397763509,-0.303962977,-2.35E-05,-7.02E-05,,3.665191429,0.29049033,-1.092756892,-0.835063123,-6.46E-05,-0.000192992,,-1.328692107,-1.551607988,1.49861427,-1.625956421,-1.570800592,-1.27E-05,
0.408,1.341460063,0.106319461,-0.399949022,-0.305633103,-2.36E-05,-7.06E-05,,3.665191429,0.29049033,-1.092756891,-0.835063122,-6.46E-05,-0.000192992,,-1.326023848,-1.551396511,1.497818743,-1.626564347,-1.570800639,-1.29E-05,
0.41,1.348790446,0.106900442,-0.402134536,-0.307303229,-2.38E-05,-7.10E-05,,3.665191429,0.29049033,-1.092756891,-0.835063123,-6.46E-05,-0.000192992,,-1.323340927,-1.551183872,1.497018845,-1.627175614,-1.570800686,-1.30E-05,
0.412,1.356120829,0.107481422,-0.40432005,-0.308973355,-2.39E-05,-7.14E-05,,3.665191429,0.29049033,-1.092756892,-0.835063122,-6.46E-05,-0.000192992,,-1.320643347,-1.550970071,1.496214576,-1.62779022,-1.570800733,-1.32E-05,
0.414,1.363451212,0.108062403,-0.406505564,-0.310643482,-2.40E-05,-7.18E-05,,3.665191429,0.29049033,-1.092756891,-0.835063123,-6.46E-05,-0.000192992,,-1.317931105,-1.550755108,1.495405936,-1.628408167,-1.570800781,-1.33E-05,
0.416,1.370781595,0.108643384,-0.408691077,-0.312313608,-2.41E-05,-7.22E-05,,3.665191429,0.29049033,-1.092756891,-0.835063122,-6.46E-05,-0.000192992,,-1.315204202,-1.550538984,1.494592925,-1.629029454,-1.570800829,-1.35E-05,
0.418,1.378111977,0.109224364,-0.410876591,-0.313983734,-2.43E-05,-7.26E-05,,3.665191429,0.29049033,-1.092756891,-0.835063123,-6.46E-05,-0.000192992,,-1.312462639,-1.550321697,1.493775543,-1.629654081,-1.570800877,-1.36E-05,
0.42,1.38544236,0.109805345,-0.413062105,-0.31565386,-2.44E-05,-7.30E-05,,3.665191429,0.29049033,-1.092756892,-0.835063122,-6.46E-05,-0.000192992,,-1.309706415,-1.550103248,1.49295379,-1.630282048,-1.570800926,-1.37E-05,
0.422,1.392772743,0.110386325,-0.415247619,-0.317323987,-2.45E-05,-7.33E-05,,3.665191429,0.29049033,-1.092756891,-0.835063123,-6.46E-05,-0.000192992,,-1.306935531,-1.549883637,1.492127665,-1.630913356,-1.570800975,-1.39E-05,
0.424,1.400103126,0.110967306,-0.417433133,-0.318994113,-2.47E-05,-7.37E-05,,3.665191429,0.29049033,-1.092756892,-0.835063123,-6.46E-05,-0.000192992,,-1.304149985,-1.549662865,1.49129717,-1.631548004,-1.570801024,-1.40E-05,
0.426,1.407433509,0.111548287,-0.419618646,-0.320664239,-2.48E-05,-7.41E-05,,3.665191429,0.29049033,-1.092756891,-0.835063122,-6.46E-05,-0.000192992,,-1.301349779,-1.54944093,1.490462304,-1.632185992,-1.570801073,-1.42E-05,
0.428,1.414763892,0.112129267,-0.42180416,-0.322334365,-2.49E-05,-7.45E-05,,3.665191429,0.29049033,-1.092756891,-0.835063122,-6.46E-05,-0.000192992,,-1.298534912,-1.549217834,1.489623067,-1.632827321,-1.570801123,-1.43E-05,
0.43,1.422094275,0.112710248,-0.423989674,-0.324004492,-2.51E-05,-7.49E-05,,3.665191429,0.29049033,-1.092756892,-0.835063123,-6.46E-05,-0.000192992,,-1.295705384,-1.548993575,1.488779458,-1.633471989,-1.570801173,-1.45E-05,
0.432,1.429424657,0.113291229,-0.426175188,-0.325674618,-2.52E-05,-7.53E-05,,3.665191429,0.29049033,-1.092756891,-0.835063123,-6.46E-05,-0.000192992,,-1.292861196,-1.548768155,1.487931479,-1.634119998,-1.570801223,-1.46E-05,
0.434,1.43675504,0.113872209,-0.428360701,-0.327344744,-2.53E-05,-7.57E-05,,3.665191429,0.29049033,-1.092756892,-0.835063122,-6.46E-05,-0.000192992,,-1.290002346,-1.548541572,1.487079129,-1.634771348,-1.570801273,-1.48E-05,
0.436,1.444085423,0.11445319,-0.430546215,-0.32901487,-2.54E-05,-7.60E-05,,3.665191429,0.29049033,-1.092756891,-0.835063123,-6.46E-05,-0.000192992,,-1.287128836,-1.548313828,1.486222407,-1.635426037,-1.570801324,-1.49E-05,
0.438,1.451415806,0.115034171,-0.432731729,-0.330684997,-2.56E-05,-7.64E-05,,3.665191429,0.29049033,-1.092756892,-0.835063122,-6.46E-05,-0.000192992,,-1.284240665,-1.548084921,1.485361315,-1.636084067,-1.570801375,-1.51E-05,
0.44,1.458746189,0.115615151,-0.434917243,-0.332355123,-2.57E-05,-7.68E-05,,3.665191429,0.29049033,-1.092756891,-0.835063123,-6.46E-05,-0.000192992,,-1.281337834,-1.547854853,1.484495851,-1.636745437,-1.570801426,-1.52E-05,
0.442,1.466076572,0.116196132,-0.437102757,-0.334025249,-2.58E-05,-7.72E-05,,3.665191429,0.29049033,-1.092756891,-0.835063122,-6.46E-05,-0.000192992,,-1.278420341,-1.547623623,1.483626017,-1.637410147,-1.570801477,-1.54E-05,
0.444,1.473406955,0.116777113,-0.43928827,-0.335695375,-2.60E-05,-7.76E-05,,3.665191429,0.29049033,-1.092756892,-0.835063123,-6.46E-05,-0.000192992,,-1.275488188,-1.54739123,1.482751811,-1.638078198,-1.570801529,-1.55E-05,
0.446,1.480737337,0.117358093,-0.441473784,-0.337365501,-2.61E-05,-7.80E-05,,3.665191429,0.29049033,-1.092756891,-0.835063122,-6.46E-05,-0.000192992,,-1.272541374,-1.547157676,1.481873235,-1.638749588,-1.570801581,-1.57E-05,
0.448,1.48806772,0.117939074,-0.443659298,-0.339035628,-2.62E-05,-7.84E-05,,3.665191429,0.29049033,-1.092756891,-0.835063123,-6.46E-05,-0.000192992,,-1.2695799,-1.54692296,1.480990287,-1.639424319,-1.570801633,-1.59E-05,
0.45,1.495398103,0.118520055,-0.445844812,-0.340705754,-2.63E-05,-7.87E-05,,3.665191429,0.29049033,-1.092756892,-0.835063123,-6.46E-05,-0.000192992,,-1.266603764,-1.546687082,1.480102969,-1.640102391,-1.570801685,-1.60E-05,
0.452,1.502728486,0.119101035,-0.448030326,-0.34237588,-2.65E-05,-7.91E-05,,3.665191429,0.29049033,-1.092756892,-0.835063122,-6.46E-05,-0.000192992,,-1.263612968,-1.546450042,1.479211279,-1.640783802,-1.570801738,-1.62E-05,
0.454,1.510058869,0.119682016,-0.450215839,-0.344046006,-2.66E-05,-7.95E-05,,3.665191429,0.29049033,-1.092756891,-0.835063123,-6.46E-05,-0.000192992,,-1.260607511,-1.54621184,1.478315218,-1.641468554,-1.570801791,-1.63E-05,
0.456,1.517389252,0.120262997,-0.452401353,-0.345716133,-2.67E-05,-7.99E-05,,3.665191429,0.29049033,-1.092756891,-0.835063122,-6.46E-05,-0.000192992,,-1.257587393,-1.545972476,1.477414787,-1.642156646,-1.570801844,-1.65E-05,
0.458,1.524719635,0.120843977,-0.454586867,-0.347386259,-2.69E-05,-8.03E-05,,3.665191429,0.29049033,-1.092756892,-0.835063123,-6.46E-05,-0.000192992,,-1.254552615,-1.54573195,1.476509984,-1.642848078,-1.570801898,-1.67E-05,
0.46,1.532050017,0.121424958,-0.456772381,-0.349056385,-2.70E-05,-8.07E-05,,3.665191429,0.29049033,-1.092756891,-0.835063122,-6.46E-05,-0.000192992,,-1.251503175,-1.545490262,1.47560081,-1.643542851,-1.570801951,-1.68E-05,
0.462,1.5393804,0.122005939,-0.458957894,-0.350726511,-2.71E-05,-8.11E-05,,3.665191429,0.29049033,-1.092756891,-0.835063123,-6.46E-05,-0.000192992,,-1.248439075,-1.545247412,1.474687265,-1.644240963,-1.570802005,-1.70E-05,
0.464,1.546710783,0.122586919,-0.461143408,-0.352396638,-2.72E-05,-8.14E-05,,3.665191429,0.29049033,-1.092756892,-0.835063122,-6.46E-05,-0.000192992,,-1.245360315,-1.5450034,1.47376935,-1.644942417,-1.570802059,-1.71E-05,
0.466,1.554041166,0.1231679,-0.463328922,-0.354066764,-2.74E-05,-8.18E-05,,3.665191429,0.29049033,-1.092756891,-0.835063123,-6.46E-05,-0.000192992,,-1.242266893,-1.544758226,1.472847063,-1.64564721,-1.570802114,-1.73E-05,
0.468,1.561371549,0.123748881,-0.465514436,-0.35573689,-2.75E-05,-8.22E-05,,3.665191429,0.29049033,-1.092756891,-0.835063123,-6.46E-05,-0.000192992,,-1.239158811,-1.54451189,1.471920405,-1.646355343,-1.570802169,-1.75E-05,
0.47,1.568701932,0.124329861,-0.46769995,-0.357407016,-2.76E-05,-8.26E-05,,3.665191429,0.29049033,-1.092756891,-0.835063122,-6.46E-05,-0.000192992,,-1.236036068,-1.544264392,1.470989376,-1.647066817,-1.570802224,-1.76E-05,
0.472,1.576032315,0.124910842,-0.469885463,-0.359077143,-2.78E-05,-8.30E-05,,3.665191429,0.29049033,-1.092756891,-0.835063122,-6.46E-05,-0.000192992,,-1.232898664,-1.544015733,1.470053976,-1.647781631,-1.570802279,-1.78E-05,
0.474,1.583362697,0.125491823,-0.472070977,-0.360747269,-2.79E-05,-8.34E-05,,3.665191429,0.29049033,-1.092756892,-0.835063123,-6.46E-05,-0.000192992,,-1.229746599,-1.543765911,1.469114205,-1.648499785,-1.570802334,-1.80E-05,
0.476,1.59069308,0.126072803,-0.474256491,-0.362417395,-2.80E-05,-8.38E-05,,3.665191429,0.29049033,-1.092756891,-0.835063123,-6.46E-05,-0.000192992,,-1.226579874,-1.543514927,1.468170063,-1.64922128,-1.57080239,-1.81E-05,
0.478,1.598023463,0.126653784,-0.476442005,-0.364087521,-2.81E-05,-8.41E-05,,3.665191429,0.29049033,-1.092756892,-0.835063122,-6.46E-05,-0.000192992,,-1.223398488,-1.543262782,1.46722155,-1.649946115,-1.570802446,-1.83E-05,
0.48,1.605353846,0.127234765,-0.478627518,-0.365757648,-2.83E-05,-8.45E-05,,3.665191429,0.29049033,-1.092756891,-0.835063123,-6.46E-05,-0.000192992,,-1.220202441,-1.543009474,1.466268666,-1.65067429,-1.570802503,-1.85E-05,
0.482,1.612684229,0.127815745,-0.480813032,-0.367427774,-2.84E-05,-8.49E-05,,3.665191429,0.29049033,-1.092756892,-0.835063123,-6.46E-05,-0.000192992,,-1.216991733,-1.542755005,1.465311411,-1.651405805,-1.570802559,-1.86E-05,
0.484,1.620014612,0.128396726,-0.482998546,-0.3690979,-2.85E-05,-8.53E-05,,3.665191429,0.29049033,-1.092756891,-0.835063122,-6.46E-05,-0.000192992,,-1.213766364,-1.542499373,1.464349785,-1.652140661,-1.570802616,-1.88E-05,
0.486,1.627344995,0.128977707,-0.48518406,-0.370768026,-2.87E-05,-8.57E-05,,3.665191429,0.29049033,-1.092756892,-0.835063123,-6.46E-05,-0.000192992,,-1.210526335,-1.54224258,1.463383788,-1.652878856,-1.570802673,-1.90E-05,
0.488,1.634675377,0.129558687,-0.487369574,-0.372438153,-2.88E-05,-8.61E-05,,3.665191429,0.29049033,-1.092756891,-0.835063122,-6.46E-05,-0.000192992,,-1.207271645,-1.541984624,1.46241342,-1.653620392,-1.57080273,-1.91E-05,
0.49,1.64200576,0.130139668,-0.489555087,-0.374108279,-2.89E-05,-8.65E-05,,3.665191429,0.29049033,-1.092756891,-0.835063123,-6.46E-05,-0.000192992,,-1.204002295,-1.541725507,1.461438681,-1.654365269,-1.570802788,-1.93E-05,
0.492,1.649336143,0.130720649,-0.491740601,-0.375778405,-2.91E-05,-8.68E-05,,3.665191429,0.29049033,-1.092756892,-0.835063122,-6.46E-05,-0.000192992,,-1.200718283,-1.541465228,1.460459571,-1.655113485,-1.570802846,-1.95E-05,
0.494,1.656666526,0.131301629,-0.493926115,-0.377448531,-2.92E-05,-8.72E-05,,3.665191429,0.29049033,-1.092756891,-0.835063122,-6.46E-05,-0.000192992,,-1.197419611,-1.541203786,1.45947609,-1.655865042,-1.570802904,-1.97E-05,
0.496,1.663996909,0.13188261,-0.496111629,-0.379118658,-2.93E-05,-8.76E-05,,3.665191429,0.29049033,-1.092756891,-0.835063123,-6.46E-05,-0.000192992,,-1.194106278,-1.540941183,1.458488237,-1.656619939,-1.570802962,-1.98E-05,
0.498,1.671327292,0.132463591,-0.498297143,-0.380788784,-2.94E-05,-8.80E-05,,3.665191429,0.29049033,-1.092756892,-0.835063122,-6.46E-05,-0.000192992,,-1.190778284,-1.540677418,1.457496014,-1.657378177,-1.570803021,-2.00E-05,
0.5,1.678657675,0.133044571,-0.500482656,-0.38245891,-2.96E-05,-8.84E-05,,3.665191429,0.29049033,-1.092756891,-0.835063123,-6.46E-05,-0.000192992,,-1.187435629,-1.540412491,1.45649942,-1.658139754,-1.57080308,-2.02E-05,
0.502,1.685988057,0.133625552,-0.50266817,-0.384129036,-2.97E-05,-8.88E-05,,3.665191429,0.29049033,-1.092756892,-0.835063122,-6.46E-05,-0.000192992,,-1.184078314,-1.540146402,1.455498454,-1.658904672,-1.570803139,-2.04E-05,
0.504,1.69331844,0.134206533,-0.504853684,-0.385799163,-2.98E-05,-8.92E-05,,3.665191429,0.29049033,-1.092756891,-0.835063123,-6.46E-05,-0.000192992,,-1.180706338,-1.53987915,1.454493118,-1.65967293,-1.570803198,-2.05E-05,
0.506,1.700648823,0.134787513,-0.507039198,-0.387469289,-3.00E-05,-8.95E-05,,3.665191429,0.29049033,-1.092756891,-0.835063123,-6.46E-05,-0.000192992,,-1.177319701,-1.539610737,1.453483411,-1.660444528,-1.570803258,-2.07E-05,
0.508,1.707979206,0.135368494,-0.509224711,-0.389139415,-3.01E-05,-8.99E-05,,3.665191429,0.29049033,-1.092756892,-0.835063122,-6.46E-05,-0.000192992,,-1.173918403,-1.539341162,1.452469332,-1.661219467,-1.570803318,-2.09E-05,
0.51,1.715309586,0.135949474,-0.511410224,-0.390809541,-3.02E-05,-9.03E-05,,3.665190079,0.290490223,-1.092756489,-0.835062815,-6.46E-05,-0.000192992,,-1.170502445,-1.539070425,1.451450883,-1.661997746,-1.570803378,-2.11E-05,
0.512,1.722639958,0.136530454,-0.513595735,-0.392479664,-3.03E-05,-9.07E-05,,3.665186009,0.290489901,-1.092755276,-0.835061888,-6.46E-05,-0.000192991,,-1.167071826,-1.538798526,1.450428062,-1.662779365,-1.570803439,-2.13E-05,
0.514,1.729970314,0.137111433,-0.515781241,-0.394149785,-3.05E-05,-9.11E-05,,3.665177827,0.290489252,-1.092752836,-0.835060023,-6.46E-05,-0.000192991,,-1.163626546,-1.538525466,1.449400871,-1.663564324,-1.570803499,-2.14E-05,
0.516,1.737300642,0.137692409,-0.517966738,-0.395819898,-3.06E-05,-9.15E-05,,3.665164118,0.290488166,-1.092748749,-0.8350569,-6.46E-05,-0.00019299,,-1.160166605,-1.538251243,1.448369308,-1.664352624,-1.57080356,-2.16E-05,
0.518,1.744630929,0.138273382,-0.520152223,-0.397490003,-3.07E-05,-9.19E-05,,3.665143451,0.290486528,-1.092742587,-0.835052191,-6.46E-05,-0.000192989,,-1.156692004,-1.537975858,1.447333375,-1.665144264,-1.570803621,-2.18E-05,
0.52,1.751961158,0.13885435,-0.522337691,-0.399160094,-3.09E-05,-9.23E-05,,3.665114368,0.290484223,-1.092733916,-0.835045565,-6.46E-05,-0.000192988,,-1.153202742,-1.537699311,1.446293071,-1.665939244,-1.570803683,-2.20E-05,
0.522,1.759291309,0.139435313,-0.524523136,-0.400830167,-3.10E-05,-9.26E-05,,3.665075395,0.290481134,-1.092722297,-0.835036686,-6.46E-05,-0.000192986,,-1.14969882,-1.537421602,1.445248395,-1.666737564,-1.570803745,-2.22E-05,
0.524,1.766621359,0.140016267,-0.52670855,-0.402500218,-3.11E-05,-9.30E-05,,3.665025034,0.290477142,-1.092707282,-0.835025212,-6.46E-05,-0.000192983,,-1.146180237,-1.537142732,1.444199349,-1.667539224,-1.570803807,-2.24E-05,
0.526,1.773951282,0.140597211,-0.528893927,-0.404170239,-3.12E-05,-9.34E-05,,3.664961765,0.290472128,-1.092688418,-0.835010797,-6.46E-05,-0.00019298,,-1.142646994,-1.536862699,1.443145932,-1.668344224,-1.570803869,-2.25E-05,
0.528,1.78128105,0.141178143,-0.531079258,-0.405840225,-3.14E-05,-9.38E-05,,3.664884051,0.290465968,-1.092665248,-0.834993091,-6.46E-05,-0.000192976,,-1.139099092,-1.536581505,1.442088144,-1.669152565,-1.570803931,-2.27E-05,
0.53,1.788610631,0.14175906,-0.533264532,-0.407510169,-3.15E-05,-9.42E-05,,3.66479033,0.29045854,-1.092637306,-0.834971737,-6.46E-05,-0.000192971,,-1.13553653,-1.536299149,1.441025985,-1.669964245,-1.570803994,-2.29E-05,
0.532,1.795939989,0.14233996,-0.53544974,-0.409180062,-3.16E-05,-9.46E-05,,3.66467902,0.290449718,-1.092604119,-0.834946377,-6.46E-05,-0.000192965,,-1.131959308,-1.53601563,1.439959456,-1.670779266,-1.570804057,-2.31E-05,
0.534,1.803269086,0.142920838,-0.537634871,-0.410849895,-3.18E-05,-9.50E-05,,3.664548519,0.290439375,-1.092565211,-0.834916644,-6.46E-05,-0.000192958,,-1.128367428,-1.53573095,1.438888557,-1.671597626,-1.57080412,-2.33E-05,
0.536,1.81059788,0.143501693,-0.539819911,-0.412519659,-3.19E-05,-9.53E-05,,3.664397202,0.290427383,-1.092520097,-0.834882169,-6.45E-05,-0.00019295,,-1.12476089,-1.535445109,1.437813287,-1.672419326,-1.570804184,-2.35E-05,
0.538,1.817926327,0.14408252,-0.542004848,-0.414189344,-3.20E-05,-9.57E-05,,3.664223426,0.29041361,-1.092468287,-0.834842576,-6.45E-05,-0.000192941,,-1.121139695,-1.535158105,1.436733647,-1.673244365,-1.570804248,-2.37E-05,
0.54,1.825254378,0.144663316,-0.544189666,-0.415858939,-3.22E-05,-9.61E-05,,3.664025523,0.290397925,-1.092409283,-0.834797487,-6.45E-05,-0.00019293,,-1.117503842,-1.53486994,1.435649638,-1.674072744,-1.570804312,-2.39E-05,
0.542,1.832581982,0.145244077,-0.546374351,-0.417528432,-3.23E-05,-9.65E-05,,3.663801807,0.290380194,-1.092342583,-0.834746516,-6.45E-05,-0.000192919,,-1.113853333,-1.534580614,1.434561258,-1.674904462,-1.570804376,-2.41E-05,
0.544,1.839909083,0.145824797,-0.548558887,-0.419197811,-3.24E-05,-9.69E-05,,3.66355057,0.290360281,-1.092267678,-0.834689275,-6.45E-05,-0.000192905,,-1.110188169,-1.534290126,1.43346851,-1.675739518,-1.570804441,-2.43E-05,
0.546,1.847235623,0.146405473,-0.550743255,-0.420867062,-3.25E-05,-9.73E-05,,3.663270081,0.290338051,-1.092184052,-0.83462537,-6.45E-05,-0.000192891,,-1.106508351,-1.533998476,1.432371392,-1.676577914,-1.570804505,-2.44E-05,
0.548,1.85456154,0.1469861,-0.552927437,-0.422536171,-3.27E-05,-9.77E-05,,3.662958592,0.290313363,-1.092091183,-0.834554401,-6.45E-05,-0.000192874,,-1.10281388,-1.533705665,1.431269905,-1.677419648,-1.57080457,-2.46E-05,
0.55,1.861886772,0.147566672,-0.555111415,-0.424205123,-3.28E-05,-9.80E-05,,3.662615679,0.290286185,-1.091988946,-0.834476274,-6.45E-05,-0.000192856,,-1.099104757,-1.533411693,1.43016405,-1.67826472,-1.570804636,-2.48E-05,
0.552,1.869211254,0.148147185,-0.55729517,-0.425873905,-3.29E-05,-9.84E-05,,3.662240922,0.290256483,-1.091877214,-0.83439089,-6.45E-05,-0.000192836,,-1.095380983,-1.533116559,1.429053828,-1.679113131,-1.570804701,-2.50E-05,
0.554,1.876534921,0.148727634,-0.559478681,-0.427542501,-3.31E-05,-9.88E-05,,3.661833899,0.290224224,-1.091755862,-0.834298156,-6.45E-05,-0.000192815,,-1.091642561,-1.532820265,1.427939237,-1.679964879,-1.570804767,-2.52E-05,
0.556,1.88385771,0.149308013,-0.561661931,-0.429210897,-3.32E-05,-9.92E-05,,3.661394187,0.290189374,-1.091624764,-0.834197974,-6.45E-05,-0.000192792,,-1.087889491,-1.53252281,1.42682028,-1.680819964,-1.570804833,-2.54E-05,
0.558,1.891179552,0.149888316,-0.563844898,-0.430879078,-3.33E-05,-9.96E-05,,3.660921366,0.2901519,-1.091483795,-0.834090248,-6.45E-05,-0.000192767,,-1.084121775,-1.532224194,1.425696956,-1.681678385,-1.5708049,-2.56E-05,
0.56,1.898500391,0.150468541,-0.566027567,-0.432547029,-3.34E-05,-1.00E-04,,3.660419326,0.29011211,-1.091334115,-0.833975865,-6.45E-05,-0.00019274,,-1.080339416,-1.531924417,1.424569266,-1.682540143,-1.570804966,-2.58E-05,
0.562,1.905820175,0.151048681,-0.56820992,-0.434214741,-3.36E-05,-0.000100351,,3.659892021,0.290070318,-1.091176902,-0.833855726,-6.45E-05,-0.000192713,,-1.076542415,-1.53162348,1.423437211,-1.683405238,-1.570805033,-2.60E-05,
0.564,1.913138862,0.151628735,-0.570391947,-0.435882202,-3.37E-05,-0.000100737,,3.65934347,0.290026841,-1.091013354,-0.833730746,-6.45E-05,-0.000192684,,-1.072730775,-1.531321383,1.422300791,-1.684273667,-1.5708051,-2.62E-05,
0.566,1.920456418,0.152208699,-0.572573637,-0.437549406,-3.38E-05,-0.000101122,,3.658777753,0.289982005,-1.090844689,-0.833601855,-6.45E-05,-0.000192654,,-1.068904497,-1.531018125,1.421160007,-1.685145431,-1.570805168,-2.64E-05,
0.568,1.927772816,0.152788571,-0.574754981,-0.439216346,-3.40E-05,-0.000101507,,3.658199015,0.289936136,-1.090672141,-0.833469998,-6.44E-05,-0.000192624,,-1.065063585,-1.530713708,1.42001486,-1.68602053,-1.570805235,-2.66E-05,
0.57,1.935088039,0.15336835,-0.576935975,-0.440883018,-3.41E-05,-0.000101893,,3.657611462,0.289889568,-1.090496965,-0.833336132,-6.44E-05,-0.000192593,,-1.061208039,-1.530408131,1.41886535,-1.686898963,-1.570805303,-2.68E-05,
0.572,1.942402077,0.153948036,-0.579116616,-0.442549421,-3.42E-05,-0.000102278,,3.657019365,0.289842641,-1.090320435,-0.833201231,-6.44E-05,-0.000192561,,-1.057337863,-1.530101394,1.417711478,-1.687780729,-1.570805372,-2.70E-05,
0.574,1.949714931,0.154527627,-0.581296903,-0.444215553,-3.43E-05,-0.000102663,,3.656427059,0.289795697,-1.090143842,-0.833066282,-6.44E-05,-0.00019253,,-1.053453059,-1.529793498,1.416553245,-1.688665828,-1.57080544,-2.72E-05,
0.576,1.957026609,0.155107125,-0.58347684,-0.445881418,-3.45E-05,-0.000103048,,3.65583894,0.289749085,-1.089968498,-0.832932287,-6.44E-05,-0.000192499,,-1.049553629,-1.529484443,1.415390651,-1.689554259,-1.570805509,-2.74E-05,
0.578,1.964337128,0.155686532,-0.585656432,-0.447547018,-3.46E-05,-0.000103433,,3.655259469,0.289703158,-1.089795732,-0.832800263,-6.44E-05,-0.000192469,,-1.045639576,-1.529174228,1.414223697,-1.690446022,-1.570805578,-2.77E-05,
0.58,1.971646515,0.156265848,-0.587835686,-0.449212361,-3.47E-05,-0.000103818,,3.65469317,0.289658275,-1.089626893,-0.832671239,-6.44E-05,-0.000192439,,-1.041710901,-1.528862855,1.413052385,-1.691341116,-1.570805647,-2.79E-05,
0.582,1.978954804,0.156845078,-0.590014612,-0.450877453,-3.49E-05,-0.000104202,,3.65414463,0.289614799,-1.089463348,-0.832546262,-6.44E-05,-0.00019241,,-1.037767608,-1.528550324,1.411876713,-1.692239541,-1.570805716,-2.81E-05,
0.584,1.986262041,0.157424224,-0.592193225,-0.452542306,-3.50E-05,-0.000104587,,3.653618498,0.2895731,-1.089306485,-0.83242639,-6.44E-05,-0.000192382,,-1.033809699,-1.528236634,1.410696684,-1.693141295,-1.570805786,-2.83E-05,
0.586,1.99356828,0.158003291,-0.594371541,-0.454206932,-3.51E-05,-0.000104972,,3.653119489,0.28953355,-1.089157708,-0.832312698,-6.44E-05,-0.000192356,,-1.029837175,-1.527921785,1.409512298,-1.69404638,-1.570805856,-2.85E-05,
0.588,2.000873585,0.158582284,-0.596549577,-0.455871344,-3.52E-05,-0.000105357,,3.652652378,0.289496529,-1.089018442,-0.832206273,-6.43E-05,-0.000192331,,-1.025850038,-1.527605779,1.408323554,-1.694954794,-1.570805926,-2.87E-05,
0.59,2.008178029,0.159161209,-0.598727358,-0.457535561,-3.54E-05,-0.000105741,,3.652222007,0.289462419,-1.088890129,-0.832108219,-6.43E-05,-0.000192309,,-1.021848291,-1.527288614,1.407130455,-1.695866537,-1.570805997,-2.89E-05,
0.592,2.015481695,0.159740072,-0.600904906,-0.4591996,-3.55E-05,-0.000106126,,3.651833278,0.28943161,-1.088774231,-0.832019653,-6.43E-05,-0.000192288,,-1.017831935,-1.526970292,1.405933001,-1.696781608,-1.570806067,-2.91E-05,
0.594,2.022784677,0.160318881,-0.603082251,-0.460863483,-3.56E-05,-0.00010651,,3.651491157,0.289404494,-1.08867223,-0.831941705,-6.43E-05,-0.00019227,,-1.013800971,-1.526650811,1.404731191,-1.697700007,-1.570806138,-2.93E-05,
0.596,2.030087079,0.160897644,-0.605259422,-0.462527234,-3.58E-05,-0.000106895,,3.651200675,0.289381472,-1.088585624,-0.831875523,-6.43E-05,-0.000192255,,-1.009755402,-1.526330174,1.403525026,-1.698621734,-1.57080621,-2.95E-05,
0.598,2.037389013,0.16147637,-0.607436454,-0.464190879,-3.59E-05,-0.000107279,,3.650966924,0.289362945,-1.088515933,-0.831822266,-6.43E-05,-0.000192243,,-1.005695228,-1.526008378,1.402314507,-1.699546788,-1.570806281,-2.98E-05,
0.6,2.044690594,0.162055068,-0.609613381,-0.465854443,-3.60E-05,-0.000107664,,3.650790748,0.289348982,-1.088463407,-0.831782127,-6.43E-05,-0.000192233,,-1.00162045,-1.525685426,1.401099635,-1.70047517,-1.570806353,-3.00E-05,
0.602,2.05199194,0.162633747,-0.611790237,-0.467517954,-3.61E-05,-0.000108048,,3.65067299,0.289339649,-1.088428298,-0.831755297,-6.43E-05,-0.000192227,,-0.997531069,-1.525361315,1.399880408,-1.701406879,-1.570806425,-3.02E-05,
0.604,2.059293169,0.163212417,-0.613967059,-0.469181438,-3.63E-05,-0.000108433,,3.650614494,0.289335013,-1.088410858,-0.83174197,-6.43E-05,-0.000192224,,-0.993427085,-1.525036048,1.398656827,-1.702341915,-1.570806497,-3.04E-05,
0.606,2.066591252,0.163791087,-0.616143882,-0.470844922,-3.64E-05,-0.000108817,,3.649041586,0.28933514,-1.088411337,-0.831742336,-6.43E-05,-0.000192224,,-0.989308498,-1.524709623,1.397428893,-1.703280278,-1.57080657,-3.06E-05,
0.608,2.073872532,0.164369768,-0.618320742,-0.472508435,-3.65E-05,-0.000109202,,3.640639864,0.289340099,-1.088429988,-0.831756589,-6.43E-05,-0.000192228,,-0.985175316,-1.524382041,1.396196605,-1.704221968,-1.570806643,-3.08E-05,
0.61,2.081122475,0.164948467,-0.620497673,-0.474172003,-3.67E-05,-0.000109586,,3.624971564,0.289349591,-1.088465697,-0.831783877,-6.43E-05,-0.000192234,,-0.981027571,-1.524053301,1.394959964,-1.705166984,-1.570806716,-3.11E-05,
0.612,2.088326541,0.165527194,-0.622674708,-0.47583565,-3.68E-05,-0.000109971,,3.602032888,0.289363318,-1.088517333,-0.831823336,-6.43E-05,-0.000192243,,-0.976865326,-1.523723404,1.393718969,-1.706115328,-1.570806789,-3.13E-05,
0.614,2.095470181,0.166105955,-0.624851875,-0.477499398,-3.69E-05,-0.000110355,,3.571819979,0.289380972,-1.088583745,-0.831874087,-6.43E-05,-0.000192255,,-0.972688673,-1.52339235,1.392473619,-1.707067,-1.570806863,-3.15E-05,
0.616,2.102538839,0.16668476,-0.627029203,-0.479163269,-3.70E-05,-0.00011074,,3.534328912,0.289402244,-1.088663763,-0.831935235,-6.43E-05,-0.000192269,,-0.968497733,-1.523060138,1.391223915,-1.708021999,-1.570806936,-3.17E-05,
0.618,2.10951795,0.167263614,-0.629206715,-0.48082728,-3.72E-05,-0.000111124,,3.489555702,0.289426816,-1.0887562,-0.832005873,-6.43E-05,-0.000192285,,-0.964292655,-1.522726769,1.389969857,-1.708980325,-1.570807011,-3.19E-05,
0.62,2.116392943,0.167842522,-0.631384435,-0.48249145,-3.73E-05,-0.000111509,,3.437496299,0.289454369,-1.088859846,-0.832085078,-6.43E-05,-0.000192303,,-0.960073619,-1.522392241,1.388711444,-1.70994198,-1.570807085,-3.22E-05,
0.622,2.123149236,0.168421491,-0.633562382,-0.484155794,-3.74E-05,-0.000111893,,3.378146592,0.289484576,-1.088973478,-0.832171913,-6.43E-05,-0.000192324,,-0.955840833,-1.522056556,1.387448675,-1.710906963,-1.57080716,-3.24E-05,
0.624,2.129772241,0.169000526,-0.635740573,-0.485820325,-3.76E-05,-0.000112278,,3.311502403,0.289517106,-1.089095849,-0.832265426,-6.43E-05,-0.000192345,,-0.951594535,-1.521719713,1.38618155,-1.711875274,-1.570807234,-3.26E-05,
0.626,2.13624736,0.169579629,-0.637919025,-0.487485054,-3.77E-05,-0.000112663,,3.237559495,0.289551623,-1.089225695,-0.832364652,-6.44E-05,-0.000192368,,-0.94733499,-1.521381712,1.384910069,-1.712846915,-1.57080731,-3.28E-05,
0.628,2.142559987,0.170158804,-0.640097748,-0.489149992,-3.78E-05,-0.000113048,,3.156313564,0.289587787,-1.089361734,-0.832468611,-6.44E-05,-0.000192392,,-0.943062495,-1.521042553,1.383634231,-1.713821885,-1.570807385,-3.31E-05,
0.63,2.148695507,0.170738055,-0.642276754,-0.490815144,-3.79E-05,-0.000113432,,3.067760246,0.289625251,-1.089502665,-0.832576307,-6.44E-05,-0.000192417,,-0.938777375,-1.520702236,1.382354035,-1.714800185,-1.570807461,-3.33E-05,
0.632,2.154639297,0.171317382,-0.644456048,-0.492480518,-3.81E-05,-0.000113817,,2.971895111,0.289663664,-1.089647167,-0.832686733,-6.44E-05,-0.000192442,,-0.934479984,-1.520360759,1.381069482,-1.715781815,-1.570807536,-3.35E-05,
0.634,2.160376725,0.171896788,-0.646635636,-0.494146115,-3.82E-05,-0.000114202,,2.868713667,0.289702671,-1.0897939,-0.832798864,-6.44E-05,-0.000192468,,-0.930170706,-1.520018125,1.37978057,-1.716766776,-1.570807613,-3.37E-05,
0.636,2.165893148,0.172476271,-0.648815519,-0.495811939,-3.83E-05,-0.000114587,,2.758211359,0.28974191,-1.089941507,-0.832911662,-6.44E-05,-0.000192494,,-0.925849952,-1.519674331,1.378487298,-1.717755068,-1.570807689,-3.40E-05,
0.638,2.171173915,0.173055834,-0.650995696,-0.497477987,-3.85E-05,-0.000114972,,2.640383568,0.289781014,-1.090088611,-0.833024075,-6.44E-05,-0.00019252,,-0.921518166,-1.519329379,1.377189667,-1.718746692,-1.570807766,-3.42E-05,
0.64,2.176204366,0.173635473,-0.653176164,-0.499144257,-3.86E-05,-0.000115357,,2.515225613,0.289819614,-1.090233815,-0.833135038,-6.44E-05,-0.000192546,,-0.917175818,-1.518983267,1.375887676,-1.719741648,-1.570807843,-3.44E-05,
0.642,2.180969831,0.174215187,-0.655356915,-0.500810744,-3.87E-05,-0.000115743,,2.382732749,0.289857333,-1.090375705,-0.833243467,-6.44E-05,-0.000192571,,-0.91282341,-1.518635996,1.374581324,-1.720739937,-1.57080792,-3.47E-05,
0.644,2.185455632,0.174794975,-0.657537941,-0.50247744,-3.88E-05,-0.000116128,,2.242900167,0.28989379,-1.090512848,-0.833348269,-6.44E-05,-0.000192595,,-0.90846147,-1.518287566,1.37327061,-1.721741558,-1.570807997,-3.49E-05,
0.646,2.189650227,0.175374832,-0.659719228,-0.504144337,-3.90E-05,-0.000116513,,2.097297512,0.289928599,-1.09064379,-0.833448332,-6.44E-05,-0.000192618,,-0.904090559,-1.517937976,1.371955534,-1.722746513,-1.570808075,-3.51E-05,
0.648,2.193552697,0.175954755,-0.661900762,-0.505811422,-3.91E-05,-0.000116898,,1.951235095,0.289961369,-1.090767062,-0.833542534,-6.44E-05,-0.00019264,,-0.899711258,-1.517587226,1.370636095,-1.723754802,-1.570808153,-3.54E-05,
0.65,2.19716299,0.176534739,-0.664082527,-0.507478684,-3.92E-05,-0.000117284,,1.805146527,0.289992065,-1.090882535,-0.833630777,-6.45E-05,-0.000192661,,-0.895324153,-1.517235316,1.369312294,-1.724766425,-1.570808231,-3.56E-05,
0.652,2.200481053,0.17711478,-0.666264508,-0.50914611,-3.94E-05,-0.000117669,,1.659031385,0.290020656,-1.090990087,-0.833712965,-6.45E-05,-0.00019268,,-0.890929827,-1.516882247,1.367984129,-1.725781382,-1.57080831,-3.58E-05,
0.654,2.203506831,0.177694875,-0.668446687,-0.510813688,-3.95E-05,-0.000118054,,1.512889247,0.290047107,-1.09108959,-0.833789004,-6.45E-05,-0.000192697,,-0.886528865,-1.516528017,1.3666516,-1.726799674,-1.570808388,-3.61E-05,
0.656,2.206243413,0.178275017,-0.670629047,-0.512481404,-3.96E-05,-0.00011844,,1.368291112,0.290071119,-1.091179917,-0.83385803,-6.45E-05,-0.000192713,,-0.882121851,-1.516172628,1.365314707,-1.727821302,-1.570808467,-3.63E-05,
0.658,2.208704511,0.178855202,-0.672811566,-0.514149242,-3.98E-05,-0.000118825,,1.230548706,0.290092389,-1.091259929,-0.833919174,-6.45E-05,-0.000192727,,-0.877709364,-1.515816078,1.363973448,-1.728846264,-1.570808547,-3.65E-05,
0.66,2.210904682,0.179435422,-0.674994219,-0.515817182,-3.99E-05,-0.000119211,,1.100085339,0.290109976,-1.091326088,-0.833969731,-6.45E-05,-0.000192739,,-0.873291955,-1.515458367,1.362627825,-1.729874563,-1.570808626,-3.68E-05,
0.662,2.212858462,0.180015667,-0.677176968,-0.517485196,-4.00E-05,-0.000119596,,0.976890308,0.290122929,-1.091374813,-0.834006965,-6.45E-05,-0.000192748,,-0.868870146,-1.515099496,1.361277837,-1.730906197,-1.570808706,-3.70E-05,
0.664,2.214580368,0.180595928,-0.679359773,-0.519153252,-4.01E-05,-0.000119982,,0.860952934,0.290130285,-1.091402485,-0.834028112,-6.45E-05,-0.000192752,,-0.864444429,-1.514739465,1.359923483,-1.731941168,-1.570808786,-3.72E-05,
0.666,2.216084876,0.181176189,-0.681542578,-0.520821308,-4.03E-05,-0.000120367,,0.752253815,0.290130308,-1.091402573,-0.834028179,-6.45E-05,-0.000192753,,-0.860015268,-1.514378273,1.358564763,-1.732979474,-1.570808866,-3.75E-05,
0.668,2.217386423,0.181756431,-0.683725315,-0.522489312,-4.04E-05,-0.000120753,,0.650773569,0.290121243,-1.091368473,-0.83400212,-6.45E-05,-0.000192746,,-0.855583098,-1.514015921,1.357201678,-1.734021117,-1.570808947,-3.77E-05,
0.67,2.218499391,0.182336632,-0.685907897,-0.524157198,-4.05E-05,-0.000121138,,0.556484169,0.290100553,-1.091290641,-0.833942643,-6.45E-05,-0.000192733,,-0.851148326,-1.513652408,1.355834228,-1.735066095,-1.570809027,-3.80E-05,
0.672,2.219438106,0.182916764,-0.688090215,-0.525824882,-4.07E-05,-0.000121524,,0.469357607,0.290065672,-1.091159427,-0.833842372,-6.45E-05,-0.00019271,,-0.846711327,-1.513287735,1.354462412,-1.73611441,-1.570809108,-3.82E-05,
0.674,2.220216838,0.183496792,-0.690272146,-0.52749227,-4.08E-05,-0.000121909,,0.389365898,0.290014006,-1.090965069,-0.833693847,-6.45E-05,-0.000192675,,-0.842272451,-1.512921901,1.353086231,-1.73716606,-1.57080919,-3.84E-05,
0.676,2.220849783,0.184076676,-0.692453535,-0.529159245,-4.09E-05,-0.000122294,,0.316472484,0.289942169,-1.090694836,-0.833487341,-6.44E-05,-0.000192628,,-0.837832017,-1.512554908,1.351705687,-1.738221044,-1.570809271,-3.87E-05,
0.678,2.221351065,0.184656369,-0.694634207,-0.530825671,-4.10E-05,-0.000122679,,0.250640827,0.289846739,-1.090335852,-0.833213012,-6.44E-05,-0.000192564,,-0.833390317,-1.512186754,1.35032078,-1.739279363,-1.570809353,-3.89E-05,
0.68,2.221734717,0.185235816,-0.696813952,-0.532491388,-4.12E-05,-0.000123064,,0.191825896,0.289723498,-1.089872247,-0.832858734,-6.44E-05,-0.000192482,,-0.828947615,-1.511817441,1.348931512,-1.740341014,-1.570809435,-3.92E-05,
0.682,2.222014682,0.185814953,-0.698992527,-0.534156213,-4.13E-05,-0.000123449,,0.13998268,0.289568178,-1.089287971,-0.832412243,-6.44E-05,-0.000192379,,-0.824504146,-1.51144697,1.347537884,-1.741405997,-1.570809518,-3.94E-05,
0.684,2.222204814,0.186393706,-0.701169661,-0.535819935,-4.14E-05,-0.000123834,,0.095066187,0.289376468,-1.088566803,-0.83186114,-6.43E-05,-0.000192252,,-0.820060116,-1.51107534,1.346139899,-1.742474309,-1.5708096,-3.97E-05,
0.686,2.22231886,0.186971992,-0.70334504,-0.537482316,-4.16E-05,-0.000124218,,0.057023011,0.28914325,-1.087689488,-0.831190714,-6.43E-05,-0.000192097,,-0.815615707,-1.510702552,1.344737559,-1.743545949,-1.570809683,-3.99E-05,
0.688,2.22237046,0.187549719,-0.705518313,-0.539143089,-4.17E-05,-0.000124602,,0.025799762,0.288863349,-1.086636566,-0.830386091,-6.42E-05,-0.000191911,,-0.811171069,-1.510328609,1.343330869,-1.744620914,-1.570809766,-4.02E-05,
0.69,2.222373129,0.18812678,-0.707689084,-0.540801949,-4.18E-05,-0.000124985,,0.001334711,0.28853078,-1.085385522,-0.829430068,-6.41E-05,-0.00019169,,-0.806726328,-1.509953509,1.341919833,-1.7456992,-1.57080985,-4.04E-05,
0.692,2.222340262,0.188703059,-0.709856911,-0.542458559,-4.19E-05,-0.000125368,,-0.016433849,0.288139496,-1.083913601,-0.828305255,-6.40E-05,-0.00019143,,-0.802281582,-1.509577256,1.340504454,-1.746780804,-1.570809933,-4.07E-05,
0.694,2.222285126,0.189278426,-0.712021307,-0.544112547,-4.21E-05,-0.00012575,,-0.027567605,0.287683382,-1.082197806,-0.826994079,-6.39E-05,-0.000191127,,-0.797836901,-1.509199849,1.339084741,-1.747865721,-1.570810017,-4.09E-05,
0.696,2.222217711,0.189852738,-0.714181733,-0.545763502,-4.22E-05,-0.000126132,,-0.033707926,0.287155772,-1.080213061,-0.825477376,-6.38E-05,-0.000190776,,-0.793392331,-1.508821293,1.337660698,-1.748953946,-1.570810101,-4.12E-05,
0.698,2.222137237,0.190425838,-0.716337601,-0.547410974,-4.23E-05,-0.000126512,,-0.040236889,0.28654993,-1.077934026,-0.823735783,-6.37E-05,-0.000190374,,-0.788947896,-1.508441587,1.336232335,-1.750045473,-1.570810186,-4.14E-05,
0.7,2.222041941,0.190997557,-0.718488276,-0.549054477,-4.25E-05,-0.000126892,,-0.047648132,0.285859686,-1.075337489,-0.821751561,-6.35E-05,-0.000189915,,-0.784503621,-1.508060735,1.334799659,-1.751140295,-1.57081027,-4.17E-05,
0.702,2.221929922,0.191567713,-0.720633071,-0.550693486,-4.26E-05,-0.000127271,,-0.056009468,0.285078053,-1.072397167,-0.819504625,-6.34E-05,-0.000189396,,-0.780059537,-1.50767874,1.333362683,-1.752238404,-1.570810355,-4.19E-05,
0.704,2.221799144,0.192136109,-0.722771244,-0.552327435,-4.27E-05,-0.000127649,,-0.065388708,0.284197974,-1.069086513,-0.816974689,-6.32E-05,-0.000188811,,-0.775615677,-1.507295605,1.331921417,-1.753339791,-1.57081044,-4.22E-05,
0.706,2.221647457,0.192702535,-0.724902007,-0.553955723,-4.28E-05,-0.000128025,,-0.075843753,0.283213171,-1.065381917,-0.81414371,-6.29E-05,-0.000188157,,-0.771172079,-1.506911333,1.330475874,-1.754444446,-1.570810526,-4.24E-05,
0.708,2.221472592,0.19326677,-0.727024526,-0.55557771,-4.30E-05,-0.0001284,,-0.087432507,0.28211731,-1.061259543,-0.810993474,-6.27E-05,-0.000187429,,-0.766728784,-1.506525928,1.32902607,-1.755552357,-1.570810611,-4.27E-05,
0.71,2.221272236,0.193828584,-0.729137941,-0.557192739,-4.31E-05,-0.000128773,,-0.100177751,0.280907158,-1.056707231,-0.807514688,-6.24E-05,-0.000186625,,-0.762285839,-1.506139394,1.327572021,-1.756663513,-1.570810697,-4.30E-05,
0.712,2.221044015,0.194387742,-0.731241361,-0.558800131,-4.32E-05,-0.000129144,,-0.114110315,0.279578709,-1.051709915,-0.803695838,-6.21E-05,-0.000185742,,-0.757843295,-1.505751737,1.326113745,-1.757777898,-1.570810783,-4.32E-05,
0.714,2.220785493,0.194943998,-0.733333866,-0.560399182,-4.33E-05,-0.000129514,,-0.129261026,0.278127926,-1.046252409,-0.79952532,-6.18E-05,-0.000184779,,-0.753401207,-1.505362961,1.324651262,-1.758895498,-1.57081087,-4.35E-05,
0.716,2.220494226,0.195497104,-0.735414523,-0.561989178,-4.35E-05,-0.000129881,,-0.145633855,0.276553159,-1.040328504,-0.79499839,-6.15E-05,-0.000183732,,-0.748959636,-1.504973073,1.323184595,-1.760016297,-1.570810956,-4.37E-05,
0.718,2.22016776,0.196046809,-0.737482387,-0.563569399,-4.36E-05,-0.000130247,,-0.163232772,0.274852755,-1.03393198,-0.790110292,-6.11E-05,-0.000182603,,-0.744518647,-1.504582079,1.321713766,-1.761140275,-1.570811043,-4.40E-05,
0.72,2.219803706,0.196592866,-0.739536523,-0.56513913,-4.37E-05,-0.000130609,,-0.182027225,0.273028211,-1.027068471,-0.784865336,-6.07E-05,-0.00018139,,-0.740078312,-1.504189986,1.320238801,-1.762267414,-1.57081113,-4.43E-05,
0.722,2.219399717,0.197135026,-0.741576005,-0.566697661,-4.38E-05,-0.00013097,,-0.201994545,0.271080314,-1.019740935,-0.779265778,-6.02E-05,-0.000180096,,-0.735638704,-1.5037968,1.318759728,-1.763397692,-1.570811218,-4.45E-05,
0.724,2.218953493,0.197673046,-0.74359991,-0.568244289,-4.39E-05,-0.000131327,,-0.223112062,0.269009874,-1.011952422,-0.773313951,-5.98E-05,-0.000178721,,-0.731199905,-1.50340253,1.317276576,-1.764531087,-1.570811306,-4.48E-05,
0.726,2.218462831,0.198206686,-0.74560734,-0.569778327,-4.41E-05,-0.000131682,,-0.245330687,0.266820139,-1.003715153,-0.767019193,-5.93E-05,-0.000177266,,-0.726761998,-1.503007184,1.315789376,-1.765667576,-1.570811393,-4.50E-05,
0.728,2.217925628,0.198735715,-0.747597424,-0.571299109,-4.42E-05,-0.000132033,,-0.268601332,0.264514412,-0.995041543,-0.760390993,-5.88E-05,-0.000175734,,-0.722325072,-1.50261077,1.314298161,-1.766807133,-1.570811481,-4.53E-05,
0.73,2.217339947,0.199259914,-0.749569336,-0.572806005,-4.43E-05,-0.000132381,,-0.292840994,0.262099187,-0.985956031,-0.753448025,-5.83E-05,-0.00017413,,-0.717889221,-1.502213299,1.312802967,-1.767949731,-1.57081157,-4.56E-05,
0.732,2.216703998,0.199779074,-0.751522297,-0.57429842,-4.44E-05,-0.000132726,,-0.317974389,0.259580311,-0.976480604,-0.746207092,-5.77E-05,-0.000172456,,-0.713454541,-1.501814779,1.311303828,-1.769095343,-1.570811658,-4.58E-05,
0.734,2.216016145,0.200293002,-0.753455572,-0.57577579,-4.45E-05,-0.000133068,,-0.343926231,0.256963707,-0.966637551,-0.738685226,-5.71E-05,-0.000170718,,-0.709021133,-1.501415221,1.309800783,-1.77024394,-1.570811747,-4.61E-05,
0.736,2.21527497,0.200801519,-0.755368494,-0.577237608,-4.46E-05,-0.000133406,,-0.370587631,0.254258521,-0.956461273,-0.730908717,-5.65E-05,-0.000168921,,-0.704589101,-1.501014635,1.308293872,-1.771395491,-1.570811836,-4.64E-05,
0.738,2.214479255,0.201304465,-0.757260462,-0.578683412,-4.47E-05,-0.00013374,,-0.397857331,0.251473276,-0.945983831,-0.722902063,-5.59E-05,-0.00016707,,-0.700158551,-1.500613032,1.306783135,-1.772549967,-1.570811925,-4.66E-05,
0.74,2.213628037,0.201801703,-0.759130955,-0.580112805,-4.49E-05,-0.00013407,,-0.425608989,0.248618977,-0.935246625,-0.714696904,-5.53E-05,-0.000165174,,-0.695729592,-1.500210423,1.305268614,-1.773707333,-1.570812015,-4.69E-05,
0.742,2.212720606,0.202293117,-0.760979539,-0.581525456,-4.50E-05,-0.000134397,,-0.453715603,0.245706785,-0.924291636,-0.706325318,-5.46E-05,-0.000163239,,-0.691302336,-1.49980682,1.303750352,-1.774867559,-1.570812105,-4.72E-05,
0.744,2.211756506,0.202778613,-0.762805861,-0.582921096,-4.51E-05,-0.000134719,,-0.482050171,0.242747992,-0.913161346,-0.697819772,-5.40E-05,-0.000161273,,-0.686876895,-1.499402233,1.302228393,-1.77603061,-1.570812195,-4.74E-05,
0.746,2.210735582,0.203258125,-0.764609676,-0.584299535,-4.52E-05,-0.000135038,,-0.510462006,0.23975631,-0.901907335,-0.68921968,-5.33E-05,-0.000159286,,-0.682453382,-1.498996676,1.300702781,-1.777196452,-1.570812285,-4.77E-05,
0.748,2.209657966,0.203731615,-0.766390834,-0.585660661,-4.53E-05,-0.000135352,,-0.538807884,0.236744878,-0.89057903,-0.680562814,-5.26E-05,-0.000157285,,-0.678031911,-1.49859016,1.299173562,-1.778365051,-1.570812375,-4.80E-05,
0.75,2.208524024,0.204199064,-0.768149269,-0.587004422,-4.54E-05,-0.000135663,,-0.566971031,0.233724582,-0.879217381,-0.671880468,-5.19E-05,-0.000155278,,-0.673612595,-1.498182697,1.29764078,-1.779536372,-1.570812466,-4.82E-05,
0.752,2.20733442,0.204660483,-0.76988502,-0.588330848,-4.55E-05,-0.000135969,,-0.594802013,0.23070955,-0.867875535,-0.663213254,-5.13E-05,-0.000153275,,-0.669195547,-1.497774298,1.296104482,-1.780710381,-1.570812556,-4.85E-05,
0.754,2.206090102,0.20511591,-0.771598229,-0.589640048,-4.56E-05,-0.000136272,,-0.622158772,0.227713338,-0.856604483,-0.65460014,-5.06E-05,-0.000151285,,-0.664780878,-1.497364977,1.294564712,-1.781887043,-1.570812647,-4.88E-05,
0.756,2.204792298,0.205565409,-0.773289139,-0.590932208,-4.57E-05,-0.000136571,,-0.648902432,0.224749472,-0.845455113,-0.646080013,-5.00E-05,-0.000149316,,-0.660368698,-1.496954746,1.293021515,-1.783066323,-1.570812739,-4.91E-05,
0.758,2.203442495,0.206009071,-0.774958091,-0.592207589,-4.58E-05,-0.000136865,,-0.674901406,0.221830902,-0.834476131,-0.637690093,-4.93E-05,-0.000147377,,-0.655959113,-1.496543615,1.291474937,-1.784248188,-1.57081283,-4.93E-05,
0.76,2.202042342,0.206447002,-0.776605488,-0.593466496,-4.59E-05,-0.000137156,,-0.700076562,0.218965799,-0.823698281,-0.629453874,-4.87E-05,-0.000145473,,-0.651552228,-1.496131597,1.289925021,-1.785432603,-1.570812922,-4.96E-05,
0.762,2.200593708,0.206879333,-0.778231816,-0.594709304,-4.60E-05,-0.000137443,,-0.724316753,0.216165516,-0.813164269,-0.621403991,-4.80E-05,-0.000143613,,-0.647148143,-1.495718703,1.28837181,-1.786619536,-1.570813013,-4.99E-05,
0.764,2.199098672,0.207306215,-0.779837646,-0.595936447,-4.61E-05,-0.000137727,,-0.747518031,0.213440801,-0.802914528,-0.613571343,-4.74E-05,-0.000141803,,-0.642746956,-1.495304944,1.286815346,-1.787808954,-1.570813105,-5.02E-05,
0.766,2.197559478,0.207727816,-0.781423612,-0.597148411,-4.62E-05,-0.000138007,,-0.76959677,0.210800683,-0.79298302,-0.605981881,-4.69E-05,-0.000140049,,-0.638348759,-1.494890332,1.285255671,-1.789000827,-1.570813197,-5.04E-05,
0.768,2.19597854,0.208144325,-0.78299042,-0.598345734,-4.63E-05,-0.000138284,,-0.790469341,0.208254275,-0.783404026,-0.598661804,-4.63E-05,-0.000138357,,-0.63395364,-1.494474876,1.283692824,-1.790195124,-1.57081329,-5.07E-05,
0.77,2.194358318,0.208555935,-0.784538802,-0.599528977,-4.64E-05,-0.000138557,,-0.810110784,0.205805165,-0.774191045,-0.591621427,-4.57E-05,-0.00013673,,-0.629561683,-1.494058587,1.282126843,-1.791391815,-1.570813382,-5.10E-05,
0.772,2.192701389,0.208962855,-0.78606954,-0.600698737,-4.64E-05,-0.000138828,,-0.828464777,0.203460041,-0.765369237,-0.584879977,-4.52E-05,-0.000135172,,-0.625172966,-1.493641475,1.280557765,-1.792590873,-1.570813475,-5.13E-05,
0.774,2.191010425,0.209365305,-0.787583463,-0.601855647,-4.65E-05,-0.000139095,,-0.845482027,0.201224939,-0.756961301,-0.578454799,-4.47E-05,-0.000133687,,-0.620787563,-1.49322355,1.278985626,-1.793792271,-1.570813568,-5.15E-05,
0.776,2.189288143,0.209763512,-0.789081424,-0.603000359,-4.66E-05,-0.00013936,,-0.861140937,0.199103373,-0.748980465,-0.572356002,-4.43E-05,-0.000132277,,-0.616405542,-1.492804819,1.277410459,-1.794995982,-1.570813661,-5.18E-05,
0.778,2.187537318,0.210157711,-0.790564309,-0.604133551,-4.67E-05,-0.000139621,,-0.875412282,0.197099618,-0.741442808,-0.566595874,-4.38E-05,-0.000130946,,-0.612026966,-1.492385292,1.275832297,-1.796201983,-1.570813754,-5.21E-05,
0.78,2.185760669,0.210548136,-0.792032996,-0.605255892,-4.68E-05,-0.000139881,,-0.888324406,0.195212398,-0.734343524,-0.561170743,-4.34E-05,-0.000129692,,-0.607651891,-1.491964977,1.274251168,-1.79741025,-1.570813848,-5.24E-05,
0.782,2.183960919,0.210935023,-0.793488375,-0.606368063,-4.69E-05,-0.000140138,,-0.899874961,0.193443452,-0.727689164,-0.556085613,-4.30E-05,-0.000128517,,-0.60328037,-1.49154388,1.272667102,-1.798620762,-1.570813941,-5.27E-05,
0.784,2.182140796,0.211318612,-0.794931347,-0.607470754,-4.70E-05,-0.000140393,,-0.910061598,0.191794523,-0.721486276,-0.551345489,-4.26E-05,-0.000127422,,-0.598912448,-1.49112201,1.271080125,-1.799833498,-1.570814035,-5.29E-05,
0.786,2.180302918,0.211699136,-0.796362788,-0.608564633,-4.71E-05,-0.000140646,,-0.918938984,0.190261781,-0.71572046,-0.546939367,-4.23E-05,-0.000126403,,-0.594548167,-1.490699373,1.269490262,-1.801048439,-1.570814129,-5.32E-05,
0.788,2.178449855,0.212076824,-0.797783565,-0.609650363,-4.71E-05,-0.000140896,,-0.926531429,0.18884438,-0.710388527,-0.54286481,-4.20E-05,-0.000125462,,-0.590187561,-1.490275975,1.267897537,-1.802265569,-1.570814223,-5.35E-05,
0.79,2.176584079,0.212451902,-0.799194521,-0.610728587,-4.72E-05,-0.000141146,,-0.93288833,0.187538961,-0.705477845,-0.539112164,-4.17E-05,-0.000124594,,-0.585830661,-1.489851821,1.26630197,-1.803484869,-1.570814317,-5.38E-05,
0.792,2.174707943,0.212824585,-0.800596466,-0.611799926,-4.73E-05,-0.000141393,,-0.938067813,0.186341339,-0.700972671,-0.535669399,-4.14E-05,-0.000123799,,-0.581477493,-1.489426917,1.264703581,-1.804706327,-1.570814412,-5.41E-05,
0.794,2.172823702,0.213195081,-0.801990186,-0.612864978,-4.74E-05,-0.000141639,,-0.942120624,0.185247995,-0.696859764,-0.532526397,-4.12E-05,-0.000123072,,-0.577128077,-1.489001268,1.263102388,-1.805929926,-1.570814506,-5.43E-05,
0.796,2.170933414,0.213563582,-0.803376402,-0.613924298,-4.75E-05,-0.000141884,,-0.945144111,0.184250702,-0.693108182,-0.529659513,-4.10E-05,-0.00012241,,-0.57278243,-1.488574878,1.261498407,-1.807155656,-1.570814601,-5.46E-05,
0.798,2.169039002,0.213930271,-0.804755798,-0.614978404,-4.75E-05,-0.000142128,,-0.947205947,0.183344143,-0.689697916,-0.527053455,-4.07E-05,-0.000121807,,-0.568440563,-1.488147751,1.259891655,-1.808383505,-1.570814696,-5.49E-05,
0.8,2.167142307,0.214295322,-0.806129034,-0.616027804,-4.76E-05,-0.00014237,,-0.948347353,0.182525441,-0.686618153,-0.524699961,-4.06E-05,-0.000121264,,-0.564102485,-1.48771989,1.258282143,-1.809613462,-1.570814791,-5.52E-05,
0.802,2.165244977,0.214658894,-0.807496709,-0.617072954,-4.77E-05,-0.000142612,,-0.94866487,0.181786163,-0.68383716,-0.522574782,-4.04E-05,-0.000120772,,-0.5597682,-1.4872913,1.256669885,-1.810845517,-1.570814886,-5.55E-05,
0.804,2.163348526,0.215021135,-0.808859377,-0.618114278,-4.78E-05,-0.000142853,,-0.948225711,0.181120767,-0.681334097,-0.52066199,-4.03E-05,-0.00012033,,-0.55543771,-1.486861982,1.255054892,-1.812079663,-1.570814982,-5.58E-05,
0.806,2.161454294,0.215382179,-0.810217538,-0.619152157,-4.79E-05,-0.000143092,,-0.947116027,0.180521661,-0.679080397,-0.518939758,-4.01E-05,-0.000119932,,-0.551111013,-1.48643194,1.253437173,-1.813315892,-1.570815077,-5.60E-05,
0.808,2.159563481,0.215742144,-0.811571644,-0.620186938,-4.80E-05,-0.000143332,,-0.945406581,0.179982736,-0.67705309,-0.51739053,-4.00E-05,-0.000119574,,-0.546788105,-1.486001175,1.251816738,-1.814554196,-1.570815173,-5.63E-05,
0.81,2.157677228,0.216101148,-0.812922132,-0.621218955,-4.80E-05,-0.00014357,,-0.9431262,0.179501914,-0.675244348,-0.516008326,-3.99E-05,-0.000119255,,-0.542468978,-1.485569691,1.250193594,-1.81579457,-1.570815269,-5.66E-05,
0.812,2.155796513,0.216459291,-0.814269384,-0.622248498,-4.81E-05,-0.000143808,,-0.940357876,0.179071613,-0.673625657,-0.514771354,-3.98E-05,-0.000118969,,-0.538153623,-1.485137489,1.24856775,-1.817037008,-1.570815365,-5.69E-05,
0.814,2.153922201,0.216816665,-0.815613742,-0.62327583,-4.82E-05,-0.000144045,,-0.937155968,0.178687127,-0.672179311,-0.513666085,-3.97E-05,-0.000118714,,-0.53384203,-1.48470457,1.246939211,-1.818281505,-1.570815461,-5.72E-05,
0.816,2.152055025,0.21717335,-0.816955507,-0.62430118,-4.83E-05,-0.000144282,,-0.933587603,0.178342308,-0.67088218,-0.512674843,-3.96E-05,-0.000118484,,-0.529534186,-1.484270937,1.245307984,-1.819528057,-1.570815558,-5.75E-05,
0.818,2.150195573,0.217529411,-0.818294923,-0.625324735,-4.83E-05,-0.000144519,,-0.9297262,0.178030265,-0.669708347,-0.511777823,-3.96E-05,-0.000118277,,-0.525230076,-1.48383659,1.243674073,-1.820776659,-1.570815654,-5.78E-05,
0.82,2.148344408,0.217884911,-0.819632234,-0.626346682,-4.84E-05,-0.000144755,,-0.925582679,0.177750347,-0.668655362,-0.510973153,-3.95E-05,-0.000118091,,-0.520929685,-1.483401531,1.242037483,-1.822027308,-1.570815751,-5.81E-05,
0.822,2.146501978,0.218239906,-0.82096764,-0.627367172,-4.85E-05,-0.000144991,,-0.921214756,0.177497139,-0.667702853,-0.510245265,-3.94E-05,-0.000117923,,-0.516632996,-1.482965761,1.240398219,-1.823280002,-1.570815848,-5.84E-05,
0.824,2.144668648,0.218594439,-0.822301312,-0.628386338,-4.86E-05,-0.000145227,,-0.916665265,0.177266721,-0.666836072,-0.509582888,-3.94E-05,-0.00011777,,-0.512339992,-1.482529282,1.238756283,-1.824534736,-1.570815945,-5.86E-05,
0.826,2.142844728,0.218948553,-0.823633405,-0.629404297,-4.87E-05,-0.000145462,,-0.911959682,0.177056772,-0.666046293,-0.508979354,-3.94E-05,-0.00011763,,-0.508050655,-1.482092093,1.237111681,-1.825791509,-1.570816042,-5.89E-05,
0.828,2.141030435,0.219302278,-0.824964037,-0.630421139,-4.87E-05,-0.000145697,,-0.907146376,0.176862638,-0.665316008,-0.508421285,-3.93E-05,-0.000117501,,-0.503764965,-1.481654196,1.235464414,-1.827050317,-1.570816139,-5.92E-05,
0.83,2.139225985,0.219655647,-0.826293329,-0.631436958,-4.88E-05,-0.000145932,,-0.902225407,0.176684516,-0.664645952,-0.507909242,-3.93E-05,-0.000117383,,-0.499482904,-1.481215591,1.233814486,-1.82831116,-1.570816237,-5.95E-05,
0.832,2.137431513,0.220008684,-0.827621372,-0.632451822,-4.89E-05,-0.000146166,,-0.89723587,0.176518589,-0.664021774,-0.507432258,-3.92E-05,-0.000117273,,-0.495204452,-1.48077628,1.232161899,-1.829574034,-1.570816334,-5.98E-05,
0.834,2.135647067,0.220361405,-0.828948225,-0.633465777,-4.90E-05,-0.0001464,,-0.892222862,0.176360351,-0.66342652,-0.506977376,-3.92E-05,-0.000117168,,-0.490929589,-1.480336262,1.230506656,-1.830838937,-1.570816432,-6.01E-05,
0.836,2.133872725,0.220713828,-0.830273958,-0.634478876,-4.91E-05,-0.000146635,,-0.887170991,0.176211481,-0.662866507,-0.506549425,-3.92E-05,-0.000117069,,-0.486658295,-1.47989554,1.22884876,-1.832105869,-1.57081653,-6.04E-05,
0.838,2.132108505,0.221065966,-0.831598619,-0.635491155,-4.91E-05,-0.000146869,,-0.882110144,0.176068985,-0.662330469,-0.506139795,-3.91E-05,-0.000116974,,-0.48239055,-1.479454112,1.227188212,-1.833374827,-1.570816628,-6.07E-05,
0.84,2.130354369,0.221417826,-0.832922235,-0.636502636,-4.92E-05,-0.000147102,,-0.877067755,0.175930053,-0.661807838,-0.505740412,-3.91E-05,-0.000116882,,-0.478126333,-1.47901198,1.225525015,-1.834645809,-1.570816726,-6.10E-05,
0.842,2.128610285,0.221769415,-0.834244833,-0.637513339,-4.93E-05,-0.000147336,,-0.872042446,0.175794801,-0.661299054,-0.505351609,-3.91E-05,-0.000116792,,-0.473865624,-1.478569144,1.22385917,-1.835918814,-1.570816825,-6.13E-05,
0.844,2.126876175,0.222120738,-0.835566425,-0.638523274,-4.94E-05,-0.000147569,,-0.867054972,0.175661073,-0.660795999,-0.504967184,-3.90E-05,-0.000116703,,-0.469608403,-1.478125606,1.222190681,-1.837193841,-1.570816923,-6.16E-05,
0.846,2.125152012,0.2224718,-0.836887041,-0.639532462,-4.94E-05,-0.000147803,,-0.862081509,0.175531318,-0.660307891,-0.504594181,-3.90E-05,-0.000116617,,-0.465354651,-1.477681364,1.220519548,-1.838470887,-1.570817022,-6.19E-05,
0.848,2.12343774,0.222822608,-0.838206699,-0.640540919,-4.95E-05,-0.000148036,,-0.857136011,0.175404055,-0.659829156,-0.504228342,-3.90E-05,-0.000116532,,-0.461104347,-1.47723642,1.218845774,-1.839749952,-1.570817121,-6.22E-05,
0.85,2.121733257,0.223173162,-0.839525401,-0.641548645,-4.96E-05,-0.000148269,,-0.852241249,0.175276911,-0.659350871,-0.503862846,-3.90E-05,-0.000116448,,-0.456857471,-1.476790775,1.21716936,-1.841031034,-1.57081722,-6.25E-05,
0.852,2.120038534,0.223523469,-0.840843175,-0.642555661,-4.97E-05,-0.000148501,,-0.847361556,0.175153629,-0.658887115,-0.503508453,-3.89E-05,-0.000116366,,-0.452614005,-1.476344429,1.21549031,-1.842314131,-1.570817319,-6.28E-05,
0.854,2.118353524,0.223873536,-0.842160044,-0.643561987,-4.98E-05,-0.000148734,,-0.842505,0.17503337,-0.658434729,-0.503162748,-3.89E-05,-0.000116286,,-0.448373928,-1.475897382,1.213808623,-1.843599243,-1.570817419,-6.30E-05,
0.856,2.116678211,0.224223372,-0.843476044,-0.644567647,-4.98E-05,-0.000148966,,-0.837656373,0.174917708,-0.657999635,-0.502830258,-3.89E-05,-0.000116209,,-0.444137221,-1.475449635,1.212124303,-1.844886367,-1.570817518,-6.33E-05,
0.858,2.115012618,0.224572989,-0.844791223,-0.645572681,-4.99E-05,-0.000149198,,-0.832796614,0.174808683,-0.657589505,-0.502516845,-3.89E-05,-0.000116137,,-0.439903864,-1.475001188,1.210437351,-1.846175502,-1.570817618,-6.36E-05,
0.86,2.113356745,0.224922399,-0.846105623,-0.64657712,-5.00E-05,-0.000149431,,-0.827936668,0.174705241,-0.657200382,-0.502219485,-3.88E-05,-0.000116068,,-0.435673839,-1.474552042,1.208747769,-1.847466647,-1.570817718,-6.39E-05,
0.862,2.111710671,0.225271623,-0.847419321,-0.647581021,-5.01E-05,-0.000149663,,-0.82303664,0.174611716,-0.656848563,-0.501950632,-3.88E-05,-0.000116006,,-0.431447126,-1.474102197,1.207055557,-1.848759802,-1.570817818,-6.42E-05,
0.864,2.110074485,0.22562068,-0.848732392,-0.648584445,-5.01E-05,-0.000149895,,-0.818093117,0.174528587,-0.656535851,-0.501711663,-3.88E-05,-0.000115951,,-0.427223704,-1.473651654,1.205360719,-1.850054964,-1.570817918,-6.45E-05,
0.866,2.108448325,0.225969597,-0.850044938,-0.649587466,-5.02E-05,-0.000150126,,-0.81307992,0.174458733,-0.656273078,-0.501510858,-3.88E-05,-0.000115904,,-0.423003555,-1.473200413,1.203663254,-1.851352133,-1.570818018,-6.48E-05,
0.868,2.106832421,0.226318412,-0.851357097,-0.650590192,-5.03E-05,-0.000150358,,-0.807951998,0.174407152,-0.656079042,-0.501362579,-3.88E-05,-0.00011587,,-0.418786659,-1.472748474,1.201963164,-1.852651308,-1.570818119,-6.51E-05,
0.87,2.105227004,0.22666716,-0.852669006,-0.651592727,-5.04E-05,-0.00015059,,-0.802708866,0.174374142,-0.655954867,-0.501267687,-3.88E-05,-0.000115848,,-0.414572994,-1.472295837,1.20026045,-1.853952488,-1.570818219,-6.54E-05,
0.872,2.103632366,0.227015887,-0.853980834,-0.6525952,-5.05E-05,-0.000150821,,-0.797319007,0.174363261,-0.655913934,-0.501236407,-3.88E-05,-0.000115841,,-0.41036254,-1.471842502,1.198555112,-1.855255673,-1.57081832,-6.57E-05,
0.874,2.102048871,0.227364644,-0.855292777,-0.65359776,-5.05E-05,-0.000151053,,-0.791747394,0.174378515,-0.655971314,-0.501280256,-3.88E-05,-0.000115851,,-0.406155275,-1.471388471,1.19684715,-1.856560864,-1.570818421,-6.60E-05,
0.876,2.10047691,0.227713487,-0.856605044,-0.654600569,-5.06E-05,-0.000151285,,-0.785980174,0.174421722,-0.65613385,-0.501404463,-3.88E-05,-0.00011588,,-0.401951177,-1.470933741,1.195136565,-1.857868059,-1.570818522,-6.63E-05,
0.878,2.098916949,0.228062481,-0.857917879,-0.655603812,-5.07E-05,-0.000151517,,-0.779980598,0.17449712,-0.656417481,-0.501621208,-3.88E-05,-0.00011593,,-0.397750224,-1.470478314,1.193423355,-1.85917726,-1.570818623,-6.66E-05,
0.88,2.097369515,0.228411698,-0.859231553,-0.656607695,-5.08E-05,-0.000151749,,-0.773716882,0.174608526,-0.656836565,-0.501941463,-3.88E-05,-0.000116004,,-0.39355239,-1.470022189,1.191707519,-1.860488468,-1.570818725,-6.70E-05,
0.882,2.095835221,0.22876122,-0.860546372,-0.657612453,-5.08E-05,-0.000151981,,-0.767147148,0.174760833,-0.657409507,-0.502379294,-3.88E-05,-0.000116105,,-0.389357651,-1.469565366,1.189989056,-1.861801683,-1.570818826,-6.73E-05,
0.884,2.094314798,0.229111142,-0.861862697,-0.658618363,-5.09E-05,-0.000152213,,-0.760211506,0.174961006,-0.658162509,-0.502954723,-3.89E-05,-0.000116238,,-0.38516598,-1.469107844,1.188267963,-1.863116908,-1.570818928,-6.76E-05,
0.886,2.09280901,0.229461565,-0.863180905,-0.659625711,-5.10E-05,-0.000152446,,-0.752893901,0.175211314,-0.659104111,-0.503674277,-3.89E-05,-0.000116404,,-0.380977351,-1.468649621,1.186544238,-1.864434145,-1.57081903,-6.79E-05,
