shihui17/master_thesis/Trajectory/Yu_logs/Log3.csv
time,v1,v2,v3,v4,v5,v6,,a1,a2,a3,a4,a5,a6,,q1,q2,q3,q4,q5,q6
0,0,0,0,0,0,0,,0,0,0,0,0,0,,-1.570796327,-1.570796327,1.570796327,-1.570796327,-1.570796327,-1.37E-19
0.002,7.33E-06,3.65E-07,-1.38E-06,-1.05E-06,-8.12E-11,-2.43E-10,,0.003665191,0.000182673,-0.000692218,-0.000525123,-4.06E-08,-1.21E-07,,-1.570796327,-1.570796327,1.570796327,-1.570796327,-1.570796327,0
0.004,3.67E-05,1.83E-06,-6.92E-06,-5.25E-06,-4.06E-10,-1.21E-09,,0.014660766,0.000730691,-0.002768873,-0.002100494,-1.62E-07,-4.85E-07,,-1.570796312,-1.570796326,1.570796324,-1.570796329,-1.570796327,-4.85E-13
0.006,0.000102625,5.11E-06,-1.94E-05,-1.47E-05,-1.14E-09,-3.40E-09,,0.032986723,0.001644055,-0.006229964,-0.004726111,-3.65E-07,-1.09E-06,,-1.570796239,-1.570796323,1.57079631,-1.57079634,-1.570796327,-2.91E-12
0.008,0.000219911,1.10E-05,-4.15E-05,-3.15E-05,-2.44E-09,-7.28E-09,,0.058643063,0.002922764,-0.011075492,-0.008401974,-6.50E-07,-1.94E-06,,-1.570796034,-1.570796312,1.570796272,-1.570796369,-1.570796327,-9.71E-12
0.01,0.000403171,2.01E-05,-7.61E-05,-5.78E-05,-4.47E-09,-1.33E-08,,0.091629786,0.004566819,-0.017305457,-0.013128085,-1.02E-06,-3.03E-06,,-1.570795594,-1.57079629,1.570796189,-1.570796432,-1.570796327,-2.43E-11
0.012,0.000667065,3.32E-05,-0.000125984,-9.56E-05,-7.39E-09,-2.21E-08,,0.131946891,0.006576219,-0.024919858,-0.018904442,-1.46E-06,-4.37E-06,,-1.570794788,-1.57079625,1.570796036,-1.570796548,-1.570796327,-5.10E-11
0.014,0.001026254,5.11E-05,-0.000193821,-0.000147035,-1.14E-08,-3.40E-08,,0.17959438,0.008950964,-0.033918695,-0.025731046,-1.99E-06,-5.95E-06,,-1.570793453,-1.570796184,1.570795784,-1.570796739,-1.570796327,-9.51E-11
0.016,0.001495398,7.45E-05,-0.000282425,-0.00021425,-1.66E-08,-4.95E-08,,0.234572251,0.011691055,-0.044301969,-0.033607897,-2.60E-06,-7.77E-06,,-1.570791401,-1.570796081,1.570795397,-1.570797033,-1.570796327,-1.63E-10
0.018,0.002089159,0.000104123,-0.000394564,-0.00029932,-2.31E-08,-6.92E-08,,0.296880506,0.014796492,-0.05606968,-0.042534995,-3.29E-06,-9.83E-06,,-1.57078841,-1.570795932,1.570794832,-1.570797461,-1.570796327,-2.62E-10
0.02,0.002822197,0.000140658,-0.000533008,-0.000404345,-3.13E-08,-9.34E-08,,0.366519143,0.018267274,-0.069221827,-0.052512339,-4.06E-06,-1.21E-05,,-1.570784232,-1.570795724,1.570794043,-1.57079806,-1.570796327,-4.00E-10
0.022,0.003709174,0.000184865,-0.000700525,-0.000531425,-4.11E-08,-1.23E-07,,0.443488163,0.022103401,-0.083758411,-0.063539931,-4.91E-06,-1.47E-05,,-1.570778587,-1.570795443,1.570792977,-1.570798869,-1.570796327,-5.87E-10
0.024,0.004764749,0.000237475,-0.000899884,-0.00068266,-5.28E-08,-1.58E-07,,0.527787566,0.026304875,-0.099679431,-0.075617769,-5.85E-06,-1.75E-05,,-1.570771169,-1.570795073,1.570791576,-1.570799931,-1.570796327,-8.33E-10
0.026,0.006003584,0.000299218,-0.001133854,-0.000860152,-6.65E-08,-1.99E-07,,0.619417352,0.030871693,-0.116984888,-0.088745853,-6.86E-06,-2.05E-05,,-1.57076164,-1.570794598,1.570789776,-1.570801297,-1.570796327,-1.15E-09
0.028,0.007440339,0.000370826,-0.001405203,-0.001066,-8.24E-08,-2.46E-07,,0.71837752,0.035803857,-0.135674782,-0.102924185,-7.96E-06,-2.38E-05,,-1.570749632,-1.570794,1.570787508,-1.570803017,-1.570796328,-1.55E-09
0.03,0.009089675,0.000453028,-0.001716701,-0.001302306,-1.01E-07,-3.01E-07,,0.824668072,0.041101366,-0.155749112,-0.118152764,-9.13E-06,-2.73E-05,,-1.570734752,-1.570793258,1.570784698,-1.570805149,-1.570796328,-2.04E-09
0.032,0.010966253,0.000546557,-0.002071117,-0.001571169,-1.21E-07,-3.63E-07,,0.938289006,0.046764221,-0.177207878,-0.134431589,-1.04E-05,-3.11E-05,,-1.570716572,-1.570792352,1.570781264,-1.570807754,-1.570796328,-2.64E-09
0.034,0.013084733,0.000652142,-0.002471219,-0.001874691,-1.45E-07,-4.33E-07,,1.059240323,0.052792422,-0.200051081,-0.151760661,-1.17E-05,-3.51E-05,,-1.57069464,-1.570791259,1.570777122,-1.570810896,-1.570796328,-3.37E-09
0.036,0.015459777,0.000770514,-0.002919777,-0.00221497,-1.71E-07,-5.12E-07,,1.187522023,0.059185968,-0.224278721,-0.17013998,-1.32E-05,-3.93E-05,,-1.57066847,-1.570789955,1.57077218,-1.570814645,-1.570796328,-4.23E-09
0.038,0.018106046,0.000902403,-0.003419558,-0.00259411,-2.01E-07,-6.00E-07,,1.323134106,0.065944859,-0.249890797,-0.189569545,-1.47E-05,-4.38E-05,,-1.570637551,-1.570788414,1.57076634,-1.570819075,-1.570796329,-5.26E-09
0.04,0.021038199,0.001048542,-0.003973333,-0.003014208,-2.33E-07,-6.97E-07,,1.466076572,0.073069096,-0.27688731,-0.210049357,-1.62E-05,-4.85E-05,,-1.570601339,-1.570786609,1.570759501,-1.570824264,-1.570796329,-6.46E-09
0.042,0.024263567,0.001209294,-0.004582485,-0.003476317,-2.69E-07,-8.03E-07,,1.612684229,0.080376005,-0.30457604,-0.231054293,-1.79E-05,-5.34E-05,,-1.570559262,-1.570784512,1.570751554,-1.570830292,-1.57079633,-7.85E-09
0.044,0.027782151,0.001384659,-0.005247015,-0.003980435,-3.08E-07,-9.20E-07,,1.759291886,0.087682915,-0.332264771,-0.252059229,-1.95E-05,-5.83E-05,,-1.570510735,-1.570782093,1.570742389,-1.570837245,-1.57079633,-9.46E-09
0.046,0.03159395,0.001574639,-0.005966922,-0.004526564,-3.50E-07,-1.05E-06,,1.905899543,0.094989825,-0.359953502,-0.273064165,-2.11E-05,-6.31E-05,,-1.570455171,-1.570779324,1.570731895,-1.570845205,-1.570796331,-1.13E-08
0.048,0.035698965,0.001779232,-0.006742206,-0.005114702,-3.95E-07,-1.18E-06,,2.0525072,0.102296734,-0.387642233,-0.294069101,-2.27E-05,-6.80E-05,,-1.570391983,-1.570776175,1.570719961,-1.570854259,-1.570796331,-1.34E-08
0.05,0.040097194,0.00199844,-0.007572868,-0.00574485,-4.44E-07,-1.33E-06,,2.199114858,0.109603644,-0.415330964,-0.315074036,-2.44E-05,-7.28E-05,,-1.570320585,-1.570772616,1.570706477,-1.570864488,-1.570796332,-1.58E-08
0.052,0.044781309,0.002231896,-0.008457523,-0.006415958,-4.96E-07,-1.48E-06,,2.342057323,0.116727881,-0.442327477,-0.335553849,-2.59E-05,-7.75E-05,,-1.570240391,-1.570768619,1.570691331,-1.570875978,-1.570796333,-1.84E-08
0.054,0.049736648,0.002478869,-0.009393402,-0.007125924,-5.51E-07,-1.65E-06,,2.477669406,0.123486772,-0.467939553,-0.354983414,-2.74E-05,-8.20E-05,,-1.570150828,-1.570764155,1.570674416,-1.57088881,-1.570796334,-2.14E-08
0.056,0.05494855,0.00273863,-0.010377736,-0.00787265,-6.09E-07,-1.82E-06,,2.605951106,0.129880318,-0.492167193,-0.373362733,-2.89E-05,-8.63E-05,,-1.570051355,-1.570759198,1.570655629,-1.570903061,-1.570796335,-2.47E-08
0.058,0.060402355,0.003010447,-0.011407757,-0.008654034,-6.69E-07,-2.00E-06,,2.726902423,0.135908518,-0.515010396,-0.390691805,-3.02E-05,-9.03E-05,,-1.569941458,-1.57075372,1.570634874,-1.570918807,-1.570796336,-2.83E-08
0.06,0.066083401,0.003293589,-0.012480695,-0.009467975,-7.32E-07,-2.19E-06,,2.840523358,0.141571373,-0.536469162,-0.40697063,-3.15E-05,-9.41E-05,,-1.569820653,-1.5707477,1.570612059,-1.570936115,-1.570796338,-3.23E-08
0.062,0.071977029,0.003587327,-0.013593782,-0.010312373,-7.97E-07,-2.38E-06,,2.946813909,0.146868883,-0.556543492,-0.422199209,-3.26E-05,-9.76E-05,,-1.569688486,-1.570741112,1.570587097,-1.570955051,-1.570796339,-3.67E-08
0.064,0.078068577,0.003890929,-0.014744249,-0.011185128,-8.65E-07,-2.58E-06,,3.045774078,0.151801047,-0.575233385,-0.43637754,-3.37E-05,-0.000100851,,-1.569544532,-1.570733938,1.57055991,-1.570975676,-1.570796341,-4.14E-08
0.066,0.084343385,0.004203665,-0.015929327,-0.01208414,-9.34E-07,-2.79E-06,,3.137403864,0.156367865,-0.592538842,-0.449505625,-3.48E-05,-0.000103885,,-1.569388395,-1.570726156,1.570530421,-1.570998046,-1.570796343,-4.66E-08
0.068,0.090786792,0.004524804,-0.017146247,-0.013007306,-1.01E-06,-3.01E-06,,3.221703266,0.160569338,-0.608459863,-0.461583463,-3.57E-05,-0.000106677,,-1.569219708,-1.570717748,1.570498562,-1.571022214,-1.570796344,-5.22E-08
0.07,0.097384136,0.004853615,-0.01839224,-0.013952529,-1.08E-06,-3.22E-06,,3.298672286,0.164405466,-0.622996446,-0.472611055,-3.65E-05,-0.000109225,,-1.569038135,-1.570708699,1.57046427,-1.571048229,-1.570796346,-5.82E-08
0.072,0.104120758,0.005189367,-0.019664537,-0.014917705,-1.15E-06,-3.45E-06,,3.368310924,0.167876248,-0.636148594,-0.482588399,-3.73E-05,-0.000111531,,-1.568843366,-1.570698992,1.570427485,-1.571076134,-1.570796349,-6.47E-08
0.074,0.110981996,0.005531331,-0.020960369,-0.015900736,-1.23E-06,-3.67E-06,,3.430619178,0.170981684,-0.647916304,-0.491515497,-3.80E-05,-0.000113594,,-1.568635125,-1.570688613,1.570388156,-1.571105969,-1.570796351,-7.16E-08
0.076,0.117953191,0.005878774,-0.022276968,-0.016899521,-1.31E-06,-3.91E-06,,3.485597049,0.173721775,-0.658299578,-0.499392348,-3.86E-05,-0.000115415,,-1.568413161,-1.57067755,1.570346236,-1.571137771,-1.570796353,-7.89E-08
0.078,0.12501968,0.006230967,-0.023611565,-0.017911959,-1.38E-06,-4.14E-06,,3.533244538,0.176096521,-0.667298416,-0.506218952,-3.91E-05,-0.000116992,,-1.568177255,-1.570665793,1.570301682,-1.57117157,-1.570796356,-8.67E-08
0.08,0.132166803,0.006587179,-0.024961391,-0.01893595,-1.46E-06,-4.38E-06,,3.573561643,0.178105921,-0.674912817,-0.511995309,-3.96E-05,-0.000118327,,-1.567927215,-1.570653331,1.570254459,-1.571207394,-1.570796359,-9.50E-08
0.082,0.1393799,0.006946679,-0.026323677,-0.019969392,-1.54E-06,-4.62E-06,,3.606548366,0.179749976,-0.681142781,-0.51672142,-4.00E-05,-0.00011942,,-1.567662882,-1.570640156,1.570204536,-1.571245265,-1.570796362,-1.04E-07
0.084,0.146644309,0.007308736,-0.027695653,-0.021010187,-1.62E-06,-4.86E-06,,3.632204706,0.181028685,-0.685988309,-0.520397283,-4.02E-05,-0.000120269,,-1.567384122,-1.570626263,1.570151888,-1.571285204,-1.570796365,-1.13E-07
0.086,0.15394537,0.00767262,-0.029074552,-0.022056233,-1.71E-06,-5.10E-06,,3.650530663,0.181942049,-0.689449401,-0.5230229,-4.04E-05,-0.000120876,,-1.567090833,-1.570611646,1.570096497,-1.571327225,-1.570796368,-1.23E-07
0.088,0.161268423,0.008037601,-0.030457604,-0.023105429,-1.79E-06,-5.34E-06,,3.661526238,0.182490067,-0.691526056,-0.524598271,-4.06E-05,-0.00012124,,-1.566782942,-1.5705963,1.570038348,-1.571371337,-1.570796371,-1.33E-07
0.09,0.168598806,0.008402946,-0.031842041,-0.024155676,-1.87E-06,-5.58E-06,,3.665191429,0.18267274,-0.692218274,-0.525123394,-4.06E-05,-0.000121361,,-1.566460406,-1.570580225,1.569977433,-1.571417548,-1.570796375,-1.44E-07
0.092,0.175929189,0.008768292,-0.033226477,-0.025205923,-1.95E-06,-5.83E-06,,3.665191429,0.18267274,-0.692218274,-0.525123394,-4.06E-05,-0.000121361,,-1.566123208,-1.570563419,1.569913749,-1.571465859,-1.570796379,-1.55E-07
0.094,0.183259571,0.009133637,-0.034610914,-0.02625617,-2.03E-06,-6.07E-06,,3.665191429,0.18267274,-0.692218274,-0.525123394,-4.06E-05,-0.000121361,,-1.56577135,-1.570545883,1.569847296,-1.571516271,-1.570796383,-1.66E-07
0.096,0.190589954,0.009498982,-0.03599535,-0.027306416,-2.11E-06,-6.31E-06,,3.665191429,0.18267274,-0.692218274,-0.525123394,-4.06E-05,-0.000121361,,-1.56540483,-1.570527615,1.569778074,-1.571568784,-1.570796387,-1.79E-07
0.098,0.197920337,0.009864328,-0.037379787,-0.028356663,-2.19E-06,-6.55E-06,,3.665191429,0.18267274,-0.692218274,-0.525123394,-4.06E-05,-0.000121361,,-1.565023651,-1.570508617,1.569706083,-1.571623396,-1.570796391,-1.91E-07
0.1,0.20525072,0.010229673,-0.038764223,-0.02940691,-2.27E-06,-6.80E-06,,3.665191429,0.18267274,-0.692218274,-0.525123394,-4.06E-05,-0.000121361,,-1.56462781,-1.570488889,1.569631324,-1.57168011,-1.570796395,-2.04E-07
0.102,0.212581103,0.010595019,-0.04014866,-0.030457157,-2.35E-06,-7.04E-06,,3.665191429,0.18267274,-0.692218274,-0.525123394,-4.06E-05,-0.000121361,,-1.564217308,-1.570468429,1.569553795,-1.571738923,-1.5707964,-2.18E-07
0.104,0.219911486,0.010960364,-0.041533096,-0.031507404,-2.44E-06,-7.28E-06,,3.665191429,0.18267274,-0.692218274,-0.525123394,-4.06E-05,-0.000121361,,-1.563792146,-1.570447239,1.569473498,-1.571799838,-1.570796405,-2.32E-07
0.106,0.227241869,0.01132571,-0.042917533,-0.03255765,-2.52E-06,-7.52E-06,,3.665191429,0.18267274,-0.692218274,-0.525123394,-4.06E-05,-0.000121361,,-1.563352323,-1.570425319,1.569390432,-1.571862853,-1.570796409,-2.46E-07
0.108,0.234572251,0.011691055,-0.04430197,-0.033607897,-2.60E-06,-7.77E-06,,3.665191429,0.18267274,-0.692218274,-0.525123394,-4.06E-05,-0.000121361,,-1.562897839,-1.570402667,1.569304597,-1.571927968,-1.570796414,-2.62E-07
0.11,0.241902634,0.012056401,-0.045686406,-0.034658144,-2.68E-06,-8.01E-06,,3.665191429,0.18267274,-0.692218274,-0.525123394,-4.06E-05,-0.000121361,,-1.562428695,-1.570379285,1.569215993,-1.571995184,-1.57079642,-2.77E-07
0.112,0.249233017,0.012421746,-0.047070843,-0.035708391,-2.76E-06,-8.25E-06,,3.665191429,0.18267274,-0.692218274,-0.525123394,-4.06E-05,-0.000121361,,-1.56194489,-1.570355172,1.56912462,-1.5720645,-1.570796425,-2.93E-07
0.114,0.2565634,0.012787092,-0.048455279,-0.036758638,-2.84E-06,-8.50E-06,,3.665191429,0.18267274,-0.692218274,-0.525123394,-4.06E-05,-0.000121361,,-1.561446424,-1.570330329,1.569030478,-1.572135917,-1.570796431,-3.10E-07
0.116,0.263893783,0.013152437,-0.049839716,-0.037808884,-2.92E-06,-8.74E-06,,3.665191429,0.18267274,-0.692218274,-0.525123394,-4.06E-05,-0.000121361,,-1.560933297,-1.570304755,1.568933568,-1.572209434,-1.570796436,-3.27E-07
0.118,0.271224166,0.013517783,-0.051224152,-0.038859131,-3.00E-06,-8.98E-06,,3.665191429,0.18267274,-0.692218274,-0.525123394,-4.06E-05,-0.000121361,,-1.560405509,-1.57027845,1.568833888,-1.572285052,-1.570796442,-3.44E-07
0.12,0.278554549,0.013883128,-0.052608589,-0.039909378,-3.09E-06,-9.22E-06,,3.665191429,0.18267274,-0.692218274,-0.525123394,-4.06E-05,-0.000121361,,-1.559863061,-1.570251414,1.56873144,-1.57236277,-1.570796448,-3.62E-07
0.122,0.285884931,0.014248474,-0.053993025,-0.040959625,-3.17E-06,-9.47E-06,,3.665191429,0.18267274,-0.692218274,-0.525123394,-4.06E-05,-0.000121361,,-1.559305952,-1.570223648,1.568626223,-1.572442589,-1.570796454,-3.80E-07
0.124,0.293215314,0.014613819,-0.055377462,-0.042009872,-3.25E-06,-9.71E-06,,3.665191429,0.18267274,-0.692218274,-0.525123394,-4.06E-05,-0.000121361,,-1.558734182,-1.570195151,1.568518237,-1.572524508,-1.570796461,-3.99E-07
0.126,0.300545697,0.014979165,-0.056761898,-0.043060118,-3.33E-06,-9.95E-06,,3.665191429,0.18267274,-0.692218274,-0.525123394,-4.06E-05,-0.000121361,,-1.558147751,-1.570165923,1.568407482,-1.572608528,-1.570796467,-4.19E-07
0.128,0.30787608,0.01534451,-0.058146335,-0.044110365,-3.41E-06,-1.02E-05,,3.665191429,0.18267274,-0.692218274,-0.525123394,-4.06E-05,-0.000121361,,-1.55754666,-1.570135965,1.568293958,-1.572694648,-1.570796474,-4.39E-07
0.13,0.315206463,0.015709856,-0.059530772,-0.045160612,-3.49E-06,-1.04E-05,,3.665191429,0.18267274,-0.692218274,-0.525123394,-4.06E-05,-0.000121361,,-1.556930908,-1.570105276,1.568177665,-1.572782869,-1.570796481,-4.59E-07
0.132,0.322536846,0.016075201,-0.060915208,-0.046210859,-3.57E-06,-1.07E-05,,3.665191429,0.18267274,-0.692218274,-0.525123394,-4.06E-05,-0.000121361,,-1.556300495,-1.570073856,1.568058604,-1.57287319,-1.570796488,-4.80E-07
0.134,0.329867229,0.016440547,-0.062299645,-0.047261105,-3.65E-06,-1.09E-05,,3.665191429,0.18267274,-0.692218274,-0.525123394,-4.06E-05,-0.000121361,,-1.555655421,-1.570041706,1.567936773,-1.572965612,-1.570796495,-5.01E-07
0.136,0.337197611,0.016805892,-0.063684081,-0.048311352,-3.74E-06,-1.12E-05,,3.665191429,0.18267274,-0.692218274,-0.525123394,-4.06E-05,-0.000121361,,-1.554995687,-1.570008825,1.567812174,-1.573060134,-1.570796502,-5.23E-07
0.138,0.344527994,0.017171238,-0.065068518,-0.049361599,-3.82E-06,-1.14E-05,,3.665191429,0.18267274,-0.692218274,-0.525123394,-4.06E-05,-0.000121361,,-1.554321292,-1.569975213,1.567684806,-1.573156757,-1.57079651,-5.46E-07
0.14,0.351858377,0.017536583,-0.066452954,-0.050411846,-3.90E-06,-1.17E-05,,3.665191429,0.18267274,-0.692218274,-0.525123394,-4.06E-05,-0.000121361,,-1.553632236,-1.569940871,1.567554669,-1.57325548,-1.570796517,-5.68E-07
0.142,0.35918876,0.017901928,-0.067837391,-0.051462093,-3.98E-06,-1.19E-05,,3.665191429,0.18267274,-0.692218274,-0.525123394,-4.06E-05,-0.000121361,,-1.552928519,-1.569905797,1.567421763,-1.573356304,-1.570796525,-5.92E-07
0.144,0.366519143,0.018267274,-0.069221827,-0.052512339,-4.06E-06,-1.21E-05,,3.665191429,0.18267274,-0.692218274,-0.525123394,-4.06E-05,-0.000121361,,-1.552210141,-1.569869994,1.567286088,-1.573459228,-1.570796533,-6.15E-07
0.146,0.373849526,0.018632619,-0.070606264,-0.053562586,-4.14E-06,-1.24E-05,,3.665191429,0.18267274,-0.692218274,-0.525123394,-4.06E-05,-0.000121361,,-1.551477103,-1.569833459,1.567147644,-1.573564252,-1.570796541,-6.40E-07
0.148,0.381179909,0.018997965,-0.0719907,-0.054612833,-4.22E-06,-1.26E-05,,3.665191429,0.18267274,-0.692218274,-0.525123394,-4.06E-05,-0.000121361,,-1.550729404,-1.569796194,1.567006432,-1.573671378,-1.570796549,-6.64E-07
0.15,0.388510291,0.01936331,-0.073375137,-0.05566308,-4.30E-06,-1.29E-05,,3.665191429,0.18267274,-0.692218274,-0.525123394,-4.06E-05,-0.000121361,,-1.549967044,-1.569758198,1.566862451,-1.573780603,-1.570796558,-6.90E-07
0.152,0.395840674,0.019728656,-0.074759574,-0.056713327,-4.38E-06,-1.31E-05,,3.665191429,0.18267274,-0.692218274,-0.525123394,-4.06E-05,-0.000121361,,-1.549190024,-1.569719471,1.5667157,-1.573891929,-1.570796566,-7.15E-07
0.154,0.403171057,0.020094001,-0.07614401,-0.057763573,-4.47E-06,-1.33E-05,,3.665191429,0.18267274,-0.692218274,-0.525123394,-4.06E-05,-0.000121361,,-1.548398342,-1.569680014,1.566566181,-1.574005356,-1.570796575,-7.42E-07
0.156,0.41050144,0.020459347,-0.077528447,-0.05881382,-4.55E-06,-1.36E-05,,3.665191429,0.18267274,-0.692218274,-0.525123394,-4.06E-05,-0.000121361,,-1.547592,-1.569639826,1.566413893,-1.574120883,-1.570796584,-7.68E-07
0.158,0.417831823,0.020824692,-0.078912883,-0.059864067,-4.63E-06,-1.38E-05,,3.665191429,0.18267274,-0.692218274,-0.525123394,-4.06E-05,-0.000121361,,-1.546770997,-1.569598907,1.566258836,-1.574238511,-1.570796593,-7.96E-07
0.16,0.425162206,0.021190038,-0.08029732,-0.060914314,-4.71E-06,-1.41E-05,,3.665191429,0.18267274,-0.692218274,-0.525123394,-4.06E-05,-0.000121361,,-1.545935334,-1.569557258,1.56610101,-1.574358239,-1.570796602,-8.23E-07
0.162,0.432492589,0.021555383,-0.081681756,-0.06196456,-4.79E-06,-1.43E-05,,3.665191429,0.18267274,-0.692218274,-0.525123394,-4.06E-05,-0.000121361,,-1.545085009,-1.569514878,1.565940416,-1.574480068,-1.570796612,-8.51E-07
0.164,0.439822972,0.021920729,-0.083066193,-0.063014807,-4.87E-06,-1.46E-05,,3.665191429,0.18267274,-0.692218274,-0.525123394,-4.06E-05,-0.000121361,,-1.544220024,-1.569471767,1.565777052,-1.574603997,-1.570796621,-8.80E-07
0.166,0.447153354,0.022286074,-0.084450629,-0.064065054,-4.95E-06,-1.48E-05,,3.665191429,0.18267274,-0.692218274,-0.525123394,-4.06E-05,-0.000121361,,-1.543340378,-1.569427926,1.56561092,-1.574730026,-1.570796631,-9.09E-07
0.168,0.454483737,0.02265142,-0.085835066,-0.065115301,-5.03E-06,-1.50E-05,,3.665191429,0.18267274,-0.692218274,-0.525123394,-4.06E-05,-0.000121361,,-1.542446071,-1.569383353,1.565442019,-1.574858156,-1.570796641,-9.39E-07
0.17,0.46181412,0.023016765,-0.087219502,-0.066165548,-5.12E-06,-1.53E-05,,3.665191429,0.18267274,-0.692218274,-0.525123394,-4.06E-05,-0.000121361,,-1.541537104,-1.569338051,1.565270349,-1.574988387,-1.570796651,-9.69E-07
0.172,0.469144503,0.023382111,-0.088603939,-0.067215794,-5.20E-06,-1.55E-05,,3.665191429,0.18267274,-0.692218274,-0.525123394,-4.06E-05,-0.000121361,,-1.540613476,-1.569292017,1.56509591,-1.575120718,-1.570796661,-9.99E-07
0.174,0.476474886,0.023747456,-0.089988376,-0.068266041,-5.28E-06,-1.58E-05,,3.665191429,0.18267274,-0.692218274,-0.525123394,-4.06E-05,-0.000121361,,-1.539675187,-1.569245253,1.564918702,-1.57525515,-1.570796672,-1.03E-06
0.176,0.483805269,0.024112802,-0.091372812,-0.069316288,-5.36E-06,-1.60E-05,,3.665191429,0.18267274,-0.692218274,-0.525123394,-4.06E-05,-0.000121361,,-1.538722237,-1.569197758,1.564738725,-1.575391682,-1.570796682,-1.06E-06
0.178,0.491135652,0.024478147,-0.092757249,-0.070366535,-5.44E-06,-1.63E-05,,3.665191429,0.18267274,-0.692218274,-0.525123394,-4.06E-05,-0.000121361,,-1.537754626,-1.569149532,1.564555979,-1.575530314,-1.570796693,-1.09E-06
0.18,0.498466034,0.024843493,-0.094141685,-0.071416782,-5.52E-06,-1.65E-05,,3.665191429,0.18267274,-0.692218274,-0.525123394,-4.06E-05,-0.000121361,,-1.536772355,-1.569100576,1.564370465,-1.575671047,-1.570796704,-1.13E-06
0.182,0.505796417,0.025208838,-0.095526122,-0.072467028,-5.60E-06,-1.67E-05,,3.665191429,0.18267274,-0.692218274,-0.525123394,-4.06E-05,-0.000121361,,-1.535775423,-1.569050889,1.564182181,-1.575813881,-1.570796715,-1.16E-06
0.184,0.5131268,0.025574184,-0.096910558,-0.073517275,-5.68E-06,-1.70E-05,,3.665191429,0.18267274,-0.692218274,-0.525123394,-4.06E-05,-0.000121361,,-1.53476383,-1.569000471,1.563991129,-1.575958815,-1.570796726,-1.19E-06
0.186,0.520457183,0.025939529,-0.098294995,-0.074567522,-5.77E-06,-1.72E-05,,3.665191429,0.18267274,-0.692218274,-0.525123394,-4.06E-05,-0.000121361,,-1.533737576,-1.568949323,1.563797308,-1.57610585,-1.570796738,-1.23E-06
0.188,0.527787566,0.026304875,-0.099679431,-0.075617769,-5.85E-06,-1.75E-05,,3.665191429,0.18267274,-0.692218274,-0.525123394,-4.06E-05,-0.000121361,,-1.532696662,-1.568897444,1.563600718,-1.576254985,-1.570796749,-1.26E-06
0.19,0.535117949,0.02667022,-0.101063868,-0.076668016,-5.93E-06,-1.77E-05,,3.665191429,0.18267274,-0.692218274,-0.525123394,-4.06E-05,-0.000121361,,-1.531641087,-1.568844834,1.563401359,-1.57640622,-1.570796761,-1.30E-06
0.192,0.542448332,0.027035565,-0.102448305,-0.077718262,-6.01E-06,-1.80E-05,,3.665191429,0.18267274,-0.692218274,-0.525123394,-4.06E-05,-0.000121361,,-1.530570851,-1.568791494,1.563199231,-1.576559556,-1.570796773,-1.33E-06
0.194,0.549778714,0.027400911,-0.103832741,-0.078768509,-6.09E-06,-1.82E-05,,3.665191429,0.18267274,-0.692218274,-0.525123394,-4.06E-05,-0.000121361,,-1.529485954,-1.568737423,1.562994335,-1.576714993,-1.570796785,-1.37E-06
0.196,0.557109097,0.027766256,-0.105217178,-0.079818756,-6.17E-06,-1.84E-05,,3.665191429,0.18267274,-0.692218274,-0.525123394,-4.06E-05,-0.000121361,,-1.528386397,-1.568682621,1.562786669,-1.57687253,-1.570796797,-1.40E-06
0.198,0.56443948,0.028131602,-0.106601614,-0.080869003,-6.25E-06,-1.87E-05,,3.665191429,0.18267274,-0.692218274,-0.525123394,-4.06E-05,-0.000121361,,-1.527272179,-1.568627088,1.562576235,-1.577032167,-1.570796809,-1.44E-06
0.2,0.571769863,0.028496947,-0.107986051,-0.081919249,-6.33E-06,-1.89E-05,,3.665191429,0.18267274,-0.692218274,-0.525123394,-4.06E-05,-0.000121361,,-1.5261433,-1.568570825,1.562363032,-1.577193905,-1.570796822,-1.48E-06
0.202,0.579100246,0.028862293,-0.109370487,-0.082969496,-6.41E-06,-1.92E-05,,3.665191429,0.18267274,-0.692218274,-0.525123394,-4.06E-05,-0.000121361,,-1.52499976,-1.568513831,1.56214706,-1.577357744,-1.570796834,-1.52E-06
0.204,0.586430629,0.029227638,-0.110754924,-0.084019743,-6.50E-06,-1.94E-05,,3.665191429,0.18267274,-0.692218274,-0.525123394,-4.06E-05,-0.000121361,,-1.52384156,-1.568456107,1.561928319,-1.577523683,-1.570796847,-1.55E-06
0.206,0.593761012,0.029592984,-0.11213936,-0.08506999,-6.58E-06,-1.97E-05,,3.665191429,0.18267274,-0.692218274,-0.525123394,-4.06E-05,-0.000121361,,-1.522668698,-1.568397651,1.561706809,-1.577691722,-1.57079686,-1.59E-06
0.208,0.601091394,0.029958329,-0.113523797,-0.086120237,-6.66E-06,-1.99E-05,,3.665191429,0.18267274,-0.692218274,-0.525123394,-4.06E-05,-0.000121361,,-1.521481176,-1.568338465,1.56148253,-1.577861862,-1.570796873,-1.63E-06
0.21,0.608421777,0.030323675,-0.114908233,-0.087170483,-6.74E-06,-2.01E-05,,3.665191429,0.18267274,-0.692218274,-0.525123394,-4.06E-05,-0.000121361,,-1.520278994,-1.568278549,1.561255483,-1.578034103,-1.570796887,-1.67E-06
0.212,0.61575216,0.03068902,-0.11629267,-0.08822073,-6.82E-06,-2.04E-05,,3.665191429,0.18267274,-0.692218274,-0.525123394,-4.06E-05,-0.000121361,,-1.51906215,-1.568217901,1.561025666,-1.578208444,-1.5707969,-1.71E-06
0.214,0.623082543,0.031054366,-0.117677107,-0.089270977,-6.90E-06,-2.06E-05,,3.665191429,0.18267274,-0.692218274,-0.525123394,-4.06E-05,-0.000121361,,-1.517830646,-1.568156523,1.560793081,-1.578384885,-1.570796914,-1.75E-06
0.216,0.630412926,0.031419711,-0.119061543,-0.090321224,-6.98E-06,-2.09E-05,,3.665191429,0.18267274,-0.692218274,-0.525123394,-4.06E-05,-0.000121361,,-1.516584481,-1.568094415,1.560557727,-1.578563427,-1.570796928,-1.80E-06
0.218,0.637743309,0.031785057,-0.12044598,-0.091371471,-7.06E-06,-2.11E-05,,3.665191429,0.18267274,-0.692218274,-0.525123394,-4.06E-05,-0.000121361,,-1.515323655,-1.568031575,1.560319603,-1.57874407,-1.570796941,-1.84E-06
0.22,0.645073692,0.032150402,-0.121830416,-0.092421717,-7.15E-06,-2.14E-05,,3.665191429,0.18267274,-0.692218274,-0.525123394,-4.06E-05,-0.000121361,,-1.514048168,-1.567968005,1.560078711,-1.578926813,-1.570796956,-1.88E-06
0.222,0.652404074,0.032515748,-0.123214853,-0.093471964,-7.23E-06,-2.16E-05,,3.665191429,0.18267274,-0.692218274,-0.525123394,-4.06E-05,-0.000121361,,-1.512758021,-1.567903704,1.559835051,-1.579111656,-1.57079697,-1.92E-06
0.224,0.659734457,0.032881093,-0.124599289,-0.094522211,-7.31E-06,-2.18E-05,,3.665191429,0.18267274,-0.692218274,-0.525123394,-4.06E-05,-0.000121361,,-1.511453213,-1.567838673,1.559588621,-1.5792986,-1.570796984,-1.96E-06
0.226,0.66706484,0.033246439,-0.125983726,-0.095572458,-7.39E-06,-2.21E-05,,3.665191429,0.18267274,-0.692218274,-0.525123394,-4.06E-05,-0.000121361,,-1.510133744,-1.56777291,1.559339422,-1.579487644,-1.570796999,-2.01E-06
0.228,0.674395223,0.033611784,-0.127368162,-0.096622704,-7.47E-06,-2.23E-05,,3.665191429,0.18267274,-0.692218274,-0.525123394,-4.06E-05,-0.000121361,,-1.508799614,-1.567706418,1.559087455,-1.579678789,-1.570797014,-2.05E-06
0.23,0.681725606,0.03397713,-0.128752599,-0.097672951,-7.55E-06,-2.26E-05,,3.665191429,0.18267274,-0.692218274,-0.525123394,-4.06E-05,-0.000121361,,-1.507450824,-1.567639194,1.558832719,-1.579872035,-1.570797029,-2.10E-06
0.232,0.689055989,0.034342475,-0.130137035,-0.098723198,-7.63E-06,-2.28E-05,,3.665191429,0.18267274,-0.692218274,-0.525123394,-4.06E-05,-0.000121361,,-1.506087372,-1.56757124,1.558575213,-1.580067381,-1.570797044,-2.14E-06
0.234,0.696386372,0.034707821,-0.131521472,-0.099773445,-7.71E-06,-2.31E-05,,3.665191429,0.18267274,-0.692218274,-0.525123394,-4.06E-05,-0.000121361,,-1.50470926,-1.567502555,1.558314939,-1.580264827,-1.570797059,-2.19E-06
0.236,0.703716754,0.035073166,-0.132905909,-0.100823692,-7.80E-06,-2.33E-05,,3.665191429,0.18267274,-0.692218274,-0.525123394,-4.06E-05,-0.000121361,,-1.503316488,-1.567433139,1.558051896,-1.580464374,-1.570797074,-2.23E-06
0.238,0.711047137,0.035438511,-0.134290345,-0.101873938,-7.88E-06,-2.35E-05,,3.665191429,0.18267274,-0.692218274,-0.525123394,-4.06E-05,-0.000121361,,-1.501909054,-1.567362993,1.557786085,-1.580666021,-1.57079709,-2.28E-06
0.24,0.71837752,0.035803857,-0.135674782,-0.102924185,-7.96E-06,-2.38E-05,,3.665191429,0.18267274,-0.692218274,-0.525123394,-4.06E-05,-0.000121361,,-1.50048696,-1.567292116,1.557517504,-1.580869769,-1.570797106,-2.33E-06
0.242,0.725707903,0.036169202,-0.137059218,-0.103974432,-8.04E-06,-2.40E-05,,3.665191429,0.18267274,-0.692218274,-0.525123394,-4.06E-05,-0.000121361,,-1.499050205,-1.567220508,1.557246154,-1.581075617,-1.570797122,-2.38E-06
0.244,0.733038286,0.036534548,-0.138443655,-0.105024679,-8.12E-06,-2.43E-05,,3.665191429,0.18267274,-0.692218274,-0.525123394,-4.06E-05,-0.000121361,,-1.497598789,-1.56714817,1.556972036,-1.581283566,-1.570797138,-2.42E-06
0.246,0.740368669,0.036899893,-0.139828091,-0.106074926,-8.20E-06,-2.45E-05,,3.665191429,0.18267274,-0.692218274,-0.525123394,-4.06E-05,-0.000121361,,-1.496132712,-1.567075101,1.556695149,-1.581493616,-1.570797154,-2.47E-06
0.248,0.747699052,0.037265239,-0.141212528,-0.107125172,-8.28E-06,-2.48E-05,,3.665191429,0.18267274,-0.692218274,-0.525123394,-4.06E-05,-0.000121361,,-1.494651975,-1.567001301,1.556415492,-1.581705766,-1.57079717,-2.52E-06
0.25,0.755029434,0.037630584,-0.142596964,-0.108175419,-8.36E-06,-2.50E-05,,3.665191429,0.18267274,-0.692218274,-0.525123394,-4.06E-05,-0.000121361,,-1.493156577,-1.56692677,1.556133067,-1.581920016,-1.570797187,-2.57E-06
0.252,0.762359817,0.03799593,-0.143981401,-0.109225666,-8.44E-06,-2.52E-05,,3.665191429,0.18267274,-0.692218274,-0.525123394,-4.06E-05,-0.000121361,,-1.491646518,-1.566851509,1.555847873,-1.582136367,-1.570797204,-2.62E-06
0.254,0.7696902,0.038361275,-0.145365837,-0.110275913,-8.53E-06,-2.55E-05,,3.665191429,0.18267274,-0.692218274,-0.525123394,-4.06E-05,-0.000121361,,-1.490121798,-1.566775517,1.555559911,-1.582354818,-1.570797221,-2.67E-06
0.256,0.777020583,0.038726621,-0.146750274,-0.11132616,-8.61E-06,-2.57E-05,,3.665191429,0.18267274,-0.692218274,-0.525123394,-4.06E-05,-0.000121361,,-1.488582418,-1.566698795,1.555269179,-1.58257537,-1.570797238,-2.72E-06
0.258,0.784350966,0.039091966,-0.148134711,-0.112376406,-8.69E-06,-2.60E-05,,3.665191429,0.18267274,-0.692218274,-0.525123394,-4.06E-05,-0.000121361,,-1.487028377,-1.566621342,1.554975678,-1.582798022,-1.570797255,-2.77E-06
0.26,0.791681349,0.039457312,-0.149519147,-0.113426653,-8.77E-06,-2.62E-05,,3.665191429,0.18267274,-0.692218274,-0.525123394,-4.06E-05,-0.000121361,,-1.485459675,-1.566543158,1.554679409,-1.583022775,-1.570797272,-2.83E-06
0.262,0.799011732,0.039822657,-0.150903584,-0.1144769,-8.85E-06,-2.65E-05,,3.665191429,0.18267274,-0.692218274,-0.525123394,-4.06E-05,-0.000121361,,-1.483876312,-1.566464243,1.554380371,-1.583249628,-1.57079729,-2.88E-06
0.264,0.806342114,0.040188003,-0.15228802,-0.115527147,-8.93E-06,-2.67E-05,,3.665191429,0.18267274,-0.692218274,-0.525123394,-4.06E-05,-0.000121361,,-1.482278289,-1.566384598,1.554078563,-1.583478582,-1.570797308,-2.93E-06
0.266,0.813672497,0.040553348,-0.153672457,-0.116577393,-9.01E-06,-2.69E-05,,3.665191429,0.18267274,-0.692218274,-0.525123394,-4.06E-05,-0.000121361,,-1.480665605,-1.566304222,1.553773987,-1.583709636,-1.570797325,-2.98E-06
0.268,0.82100288,0.040918694,-0.155056893,-0.11762764,-9.09E-06,-2.72E-05,,3.665191429,0.18267274,-0.692218274,-0.525123394,-4.06E-05,-0.000121361,,-1.47903826,-1.566223115,1.553466643,-1.583942791,-1.570797343,-3.04E-06
0.27,0.828333263,0.041284039,-0.15644133,-0.118677887,-9.18E-06,-2.74E-05,,3.665191429,0.18267274,-0.692218274,-0.525123394,-4.06E-05,-0.000121361,,-1.477396254,-1.566141278,1.553156529,-1.584178046,-1.570797362,-3.09E-06
0.272,0.835663646,0.041649385,-0.157825766,-0.119728134,-9.26E-06,-2.77E-05,,3.665191429,0.18267274,-0.692218274,-0.525123394,-4.06E-05,-0.000121361,,-1.475739587,-1.56605871,1.552843646,-1.584415402,-1.57079738,-3.15E-06
0.274,0.842994029,0.04201473,-0.159210203,-0.120778381,-9.34E-06,-2.79E-05,,3.665191429,0.18267274,-0.692218274,-0.525123394,-4.06E-05,-0.000121361,,-1.47406826,-1.565975411,1.552527995,-1.584654858,-1.570797398,-3.20E-06
0.276,0.850324412,0.042380076,-0.16059464,-0.121828627,-9.42E-06,-2.82E-05,,3.665191429,0.18267274,-0.692218274,-0.525123394,-4.06E-05,-0.000121361,,-1.472382272,-1.565891381,1.552209574,-1.584896415,-1.570797417,-3.26E-06
0.278,0.857654794,0.042745421,-0.161979076,-0.122878874,-9.50E-06,-2.84E-05,,3.665191429,0.18267274,-0.692218274,-0.525123394,-4.06E-05,-0.000121361,,-1.470681623,-1.565806621,1.551888385,-1.585140073,-1.570797436,-3.31E-06
0.28,0.864985177,0.043110767,-0.163363513,-0.123929121,-9.58E-06,-2.86E-05,,3.665191429,0.18267274,-0.692218274,-0.525123394,-4.06E-05,-0.000121361,,-1.468966314,-1.56572113,1.551564427,-1.58538583,-1.570797455,-3.37E-06
0.282,0.87231556,0.043476112,-0.164747949,-0.124979368,-9.66E-06,-2.89E-05,,3.665191429,0.18267274,-0.692218274,-0.525123394,-4.06E-05,-0.000121361,,-1.467236343,-1.565634909,1.5512377,-1.585633688,-1.570797474,-3.43E-06
0.284,0.879645943,0.043841458,-0.166132386,-0.126029615,-9.74E-06,-2.91E-05,,3.665191429,0.18267274,-0.692218274,-0.525123394,-4.06E-05,-0.000121361,,-1.465491712,-1.565547957,1.550908204,-1.585883647,-1.570797493,-3.49E-06
0.286,0.886976326,0.044206803,-0.167516822,-0.127079861,-9.83E-06,-2.94E-05,,3.665191429,0.18267274,-0.692218274,-0.525123394,-4.06E-05,-0.000121361,,-1.46373242,-1.565460274,1.550575939,-1.586135706,-1.570797513,-3.55E-06
0.288,0.894306709,0.044572148,-0.168901259,-0.128130108,-9.91E-06,-2.96E-05,,3.665191429,0.18267274,-0.692218274,-0.525123394,-4.06E-05,-0.000121361,,-1.461958468,-1.56537186,1.550240905,-1.586389866,-1.570797533,-3.60E-06
0.29,0.901637092,0.044937494,-0.170285695,-0.129180355,-9.99E-06,-2.99E-05,,3.665191429,0.18267274,-0.692218274,-0.525123394,-4.06E-05,-0.000121361,,-1.460169854,-1.565282716,1.549903103,-1.586646126,-1.570797552,-3.66E-06
0.292,0.908967474,0.045302839,-0.171670132,-0.130230602,-1.01E-05,-3.01E-05,,3.665191429,0.18267274,-0.692218274,-0.525123394,-4.06E-05,-0.000121361,,-1.45836658,-1.565192841,1.549562531,-1.586904487,-1.570797572,-3.72E-06
0.294,0.916297857,0.045668185,-0.173054568,-0.131280848,-1.01E-05,-3.03E-05,,3.665191429,0.18267274,-0.692218274,-0.525123394,-4.06E-05,-0.000121361,,-1.456548645,-1.565102235,1.549219191,-1.587164948,-1.570797593,-3.78E-06
0.296,0.92362824,0.04603353,-0.174439005,-0.132331095,-1.02E-05,-3.06E-05,,3.665191429,0.18267274,-0.692218274,-0.525123394,-4.06E-05,-0.000121361,,-1.454716049,-1.565010899,1.548873082,-1.58742751,-1.570797613,-3.84E-06
0.298,0.930958623,0.046398876,-0.175823442,-0.133381342,-1.03E-05,-3.08E-05,,3.665191429,0.18267274,-0.692218274,-0.525123394,-4.06E-05,-0.000121361,,-1.452868793,-1.564918832,1.548524204,-1.587692172,-1.570797633,-3.90E-06
0.3,0.938289006,0.046764221,-0.177207878,-0.134431589,-1.04E-05,-3.11E-05,,3.665191429,0.18267274,-0.692218274,-0.525123394,-4.06E-05,-0.000121361,,-1.451006876,-1.564826034,1.548172557,-1.587958935,-1.570797654,-3.97E-06
0.302,0.945619389,0.047129567,-0.178592315,-0.135481836,-1.05E-05,-3.13E-05,,3.665191429,0.18267274,-0.692218274,-0.525123394,-4.06E-05,-0.000121361,,-1.449130298,-1.564732505,1.547818141,-1.588227798,-1.570797675,-4.03E-06
0.304,0.952949772,0.047494912,-0.179976751,-0.136532082,-1.06E-05,-3.16E-05,,3.665191429,0.18267274,-0.692218274,-0.525123394,-4.06E-05,-0.000121361,,-1.447239059,-1.564638246,1.547460957,-1.588498762,-1.570797696,-4.09E-06
0.306,0.960280154,0.047860258,-0.181361188,-0.137582329,-1.06E-05,-3.18E-05,,3.665191429,0.18267274,-0.692218274,-0.525123394,-4.06E-05,-0.000121361,,-1.445333159,-1.564543256,1.547101003,-1.588771826,-1.570797717,-4.15E-06
0.308,0.967610537,0.048225603,-0.182745624,-0.138632576,-1.07E-05,-3.20E-05,,3.665191429,0.18267274,-0.692218274,-0.525123394,-4.06E-05,-0.000121361,,-1.443412599,-1.564447536,1.546738281,-1.589046991,-1.570797738,-4.22E-06
0.31,0.97494092,0.048590949,-0.184130061,-0.139682823,-1.08E-05,-3.23E-05,,3.665191429,0.18267274,-0.692218274,-0.525123394,-4.06E-05,-0.000121361,,-1.441477378,-1.564351085,1.54637279,-1.589324256,-1.570797759,-4.28E-06
0.312,0.982271303,0.048956294,-0.185514497,-0.14073307,-1.09E-05,-3.25E-05,,3.665191429,0.18267274,-0.692218274,-0.525123394,-4.06E-05,-0.000121361,,-1.439527496,-1.564253903,1.54600453,-1.589603621,-1.570797781,-4.35E-06
0.314,0.989601686,0.04932164,-0.186898934,-0.141783316,-1.10E-05,-3.28E-05,,3.665191429,0.18267274,-0.692218274,-0.525123394,-4.06E-05,-0.000121361,,-1.437562953,-1.56415599,1.545633501,-1.589885087,-1.570797803,-4.41E-06
0.316,0.996932069,0.049686985,-0.18828337,-0.142833563,-1.10E-05,-3.30E-05,,3.665191429,0.18267274,-0.692218274,-0.525123394,-4.06E-05,-0.000121361,,-1.43558375,-1.564057347,1.545259703,-1.590168654,-1.570797825,-4.48E-06
0.318,1.004262452,0.050052331,-0.189667807,-0.14388381,-1.11E-05,-3.33E-05,,3.665191429,0.18267274,-0.692218274,-0.525123394,-4.06E-05,-0.000121361,,-1.433589886,-1.563957973,1.544883136,-1.590454321,-1.570797847,-4.54E-06
0.32,1.011592834,0.050417676,-0.191052244,-0.144934057,-1.12E-05,-3.35E-05,,3.665191429,0.18267274,-0.692218274,-0.525123394,-4.06E-05,-0.000121361,,-1.431581361,-1.563857868,1.5445038,-1.590742089,-1.570797869,-4.61E-06
0.322,1.018923217,0.050783022,-0.19243668,-0.145984304,-1.13E-05,-3.37E-05,,3.665191429,0.18267274,-0.692218274,-0.525123394,-4.06E-05,-0.000121361,,-1.429558175,-1.563757033,1.544121696,-1.591031957,-1.570797892,-4.68E-06
0.324,1.0262536,0.051148367,-0.193821117,-0.14703455,-1.14E-05,-3.40E-05,,3.665191429,0.18267274,-0.692218274,-0.525123394,-4.06E-05,-0.000121361,,-1.427520329,-1.563655467,1.543736822,-1.591323926,-1.570797914,-4.74E-06
0.326,1.033583983,0.051513713,-0.195205553,-0.148084797,-1.14E-05,-3.42E-05,,3.665191429,0.18267274,-0.692218274,-0.525123394,-4.06E-05,-0.000121361,,-1.425467822,-1.56355317,1.54334918,-1.591617995,-1.570797937,-4.81E-06
0.328,1.040914366,0.051879058,-0.19658999,-0.149135044,-1.15E-05,-3.45E-05,,3.665191429,0.18267274,-0.692218274,-0.525123394,-4.06E-05,-0.000121361,,-1.423400654,-1.563450143,1.542958769,-1.591914164,-1.57079796,-4.88E-06
0.33,1.048244749,0.052244404,-0.197974426,-0.150185291,-1.16E-05,-3.47E-05,,3.665191429,0.18267274,-0.692218274,-0.525123394,-4.06E-05,-0.000121361,,-1.421318825,-1.563346385,1.542565589,-1.592212434,-1.570797983,-4.95E-06
0.332,1.055575132,0.052609749,-0.199358863,-0.151235537,-1.17E-05,-3.50E-05,,3.665191429,0.18267274,-0.692218274,-0.525123394,-4.06E-05,-0.000121361,,-1.419222335,-1.563241896,1.54216964,-1.592512805,-1.570798006,-5.02E-06
0.334,1.062905514,0.052975094,-0.200743299,-0.152285784,-1.18E-05,-3.52E-05,,3.665191429,0.18267274,-0.692218274,-0.525123394,-4.06E-05,-0.000121361,,-1.417111185,-1.563136676,1.541770923,-1.592815276,-1.570798029,-5.09E-06
0.336,1.070235897,0.05334044,-0.202127736,-0.153336031,-1.19E-05,-3.54E-05,,3.665191429,0.18267274,-0.692218274,-0.525123394,-4.06E-05,-0.000121361,,-1.414985374,-1.563030726,1.541369436,-1.593119848,-1.570798053,-5.16E-06
0.338,1.07756628,0.053705785,-0.203512172,-0.154386278,-1.19E-05,-3.57E-05,,3.665191429,0.18267274,-0.692218274,-0.525123394,-4.06E-05,-0.000121361,,-1.412844902,-1.562924045,1.54096518,-1.59342652,-1.570798077,-5.23E-06
0.34,1.084896663,0.054071131,-0.204896609,-0.155436525,-1.20E-05,-3.59E-05,,3.665191429,0.18267274,-0.692218274,-0.525123394,-4.06E-05,-0.000121361,,-1.41068977,-1.562816634,1.540558156,-1.593735292,-1.570798101,-5.30E-06
0.342,1.092227046,0.054436476,-0.206281046,-0.156486771,-1.21E-05,-3.62E-05,,3.665191429,0.18267274,-0.692218274,-0.525123394,-4.06E-05,-0.000121361,,-1.408519976,-1.562708491,1.540148363,-1.594046165,-1.570798125,-5.37E-06
0.344,1.099557429,0.054801822,-0.207665482,-0.157537018,-1.22E-05,-3.64E-05,,3.665191429,0.18267274,-0.692218274,-0.525123394,-4.06E-05,-0.000121361,,-1.406335522,-1.562599619,1.539735801,-1.594359139,-1.570798149,-5.45E-06
0.346,1.106887812,0.055167167,-0.209049919,-0.158587265,-1.23E-05,-3.67E-05,,3.665191429,0.18267274,-0.692218274,-0.525123394,-4.06E-05,-0.000121361,,-1.404136408,-1.562490015,1.53932047,-1.594674213,-1.570798173,-5.52E-06
0.348,1.114218194,0.055532513,-0.210434355,-0.159637512,-1.23E-05,-3.69E-05,,3.665191429,0.18267274,-0.692218274,-0.525123394,-4.06E-05,-0.000121361,,-1.401922632,-1.562379681,1.53890237,-1.594991387,-1.570798198,-5.59E-06
0.35,1.121548577,0.055897858,-0.211818792,-0.160687759,-1.24E-05,-3.71E-05,,3.665191429,0.18267274,-0.692218274,-0.525123394,-4.06E-05,-0.000121361,,-1.399694196,-1.562268615,1.538481501,-1.595310662,-1.570798222,-5.67E-06
0.352,1.12887896,0.056263204,-0.213203228,-0.161738005,-1.25E-05,-3.74E-05,,3.665191429,0.18267274,-0.692218274,-0.525123394,-4.06E-05,-0.000121361,,-1.397451098,-1.56215682,1.538057864,-1.595632038,-1.570798247,-5.74E-06
0.354,1.136209343,0.056628549,-0.214587665,-0.162788252,-1.26E-05,-3.76E-05,,3.665191429,0.18267274,-0.692218274,-0.525123394,-4.06E-05,-0.000121361,,-1.39519334,-1.562044293,1.537631457,-1.595955514,-1.570798272,-5.81E-06
0.356,1.143539726,0.056993895,-0.215972101,-0.163838499,-1.27E-05,-3.79E-05,,3.665191429,0.18267274,-0.692218274,-0.525123394,-4.06E-05,-0.000121361,,-1.392920922,-1.561931036,1.537202282,-1.59628109,-1.570798297,-5.89E-06
0.358,1.150870109,0.05735924,-0.217356538,-0.164888746,-1.27E-05,-3.81E-05,,3.665191429,0.18267274,-0.692218274,-0.525123394,-4.06E-05,-0.000121361,,-1.390633842,-1.561817048,1.536770338,-1.596608767,-1.570798323,-5.97E-06
0.36,1.158200492,0.057724586,-0.218740974,-0.165938992,-1.28E-05,-3.84E-05,,3.665191429,0.18267274,-0.692218274,-0.525123394,-4.06E-05,-0.000121361,,-1.388332102,-1.56170233,1.536335625,-1.596938545,-1.570798348,-6.04E-06
0.362,1.165530874,0.058089931,-0.220125411,-0.166989239,-1.29E-05,-3.86E-05,,3.665191429,0.18267274,-0.692218274,-0.525123394,-4.06E-05,-0.000121361,,-1.386015701,-1.561586881,1.535898143,-1.597270423,-1.570798374,-6.12E-06
0.364,1.172861257,0.058455277,-0.221509848,-0.168039486,-1.30E-05,-3.88E-05,,3.665191429,0.18267274,-0.692218274,-0.525123394,-4.06E-05,-0.000121361,,-1.383684639,-1.561470701,1.535457892,-1.597604401,-1.5707984,-6.20E-06
0.366,1.18019164,0.058820622,-0.222894284,-0.169089733,-1.31E-05,-3.91E-05,,3.665191429,0.18267274,-0.692218274,-0.525123394,-4.06E-05,-0.000121361,,-1.381338917,-1.56135379,1.535014872,-1.59794048,-1.570798426,-6.27E-06
0.368,1.187522023,0.059185968,-0.224278721,-0.17013998,-1.32E-05,-3.93E-05,,3.665191429,0.18267274,-0.692218274,-0.525123394,-4.06E-05,-0.000121361,,-1.378978534,-1.561236149,1.534569084,-1.59827866,-1.570798452,-6.35E-06
0.37,1.194852406,0.059551313,-0.225663157,-0.171190226,-1.32E-05,-3.96E-05,,3.665191429,0.18267274,-0.692218274,-0.525123394,-4.06E-05,-0.000121361,,-1.37660349,-1.561117777,1.534120526,-1.59861894,-1.570798478,-6.43E-06
0.372,1.202182789,0.059916659,-0.227047594,-0.172240473,-1.33E-05,-3.98E-05,,3.665191429,0.18267274,-0.692218274,-0.525123394,-4.06E-05,-0.000121361,,-1.374213785,-1.560998675,1.5336692,-1.59896132,-1.570798505,-6.51E-06
0.374,1.209513172,0.060282004,-0.22843203,-0.17329072,-1.34E-05,-4.00E-05,,3.665191429,0.18267274,-0.692218274,-0.525123394,-4.06E-05,-0.000121361,,-1.371809419,-1.560878841,1.533215105,-1.599305801,-1.570798531,-6.59E-06
0.376,1.216843554,0.06064735,-0.229816467,-0.174340967,-1.35E-05,-4.03E-05,,3.665191429,0.18267274,-0.692218274,-0.525123394,-4.06E-05,-0.000121361,,-1.369390393,-1.560758277,1.532758241,-1.599652383,-1.570798558,-6.67E-06
0.378,1.224173937,0.061012695,-0.231200903,-0.175391214,-1.36E-05,-4.05E-05,,3.665191429,0.18267274,-0.692218274,-0.525123394,-4.06E-05,-0.000121361,,-1.366956706,-1.560636983,1.532298608,-1.600001065,-1.570798585,-6.75E-06
0.38,1.23150432,0.061378041,-0.23258534,-0.17644146,-1.36E-05,-4.08E-05,,3.665191429,0.18267274,-0.692218274,-0.525123394,-4.06E-05,-0.000121361,,-1.364508358,-1.560514957,1.531836206,-1.600351847,-1.570798612,-6.83E-06
0.382,1.238834703,0.061743386,-0.233969777,-0.177491707,-1.37E-05,-4.10E-05,,3.665191429,0.18267274,-0.692218274,-0.525123394,-4.06E-05,-0.000121361,,-1.362045349,-1.560392201,1.531371035,-1.60070473,-1.570798639,-6.91E-06
0.384,1.246165086,0.062108731,-0.235354213,-0.178541954,-1.38E-05,-4.13E-05,,3.665191429,0.18267274,-0.692218274,-0.525123394,-4.06E-05,-0.000121361,,-1.35956768,-1.560268714,1.530903096,-1.601059713,-1.570798667,-6.99E-06
0.386,1.253495469,0.062474077,-0.23673865,-0.179592201,-1.39E-05,-4.15E-05,,3.665191429,0.18267274,-0.692218274,-0.525123394,-4.06E-05,-0.000121361,,-1.35707535,-1.560144497,1.530432387,-1.601416797,-1.570798694,-7.08E-06
0.388,1.260825852,0.062839422,-0.238123086,-0.180642447,-1.40E-05,-4.17E-05,,3.665191429,0.18267274,-0.692218274,-0.525123394,-4.06E-05,-0.000121361,,-1.354568359,-1.560019549,1.52995891,-1.601775982,-1.570798722,-7.16E-06
0.39,1.268152228,0.063204768,-0.239507523,-0.181692694,-1.40E-05,-4.20E-05,,3.663187985,0.18267274,-0.692218274,-0.525123394,-4.06E-05,-0.000121361,,-1.352046707,-1.55989387,1.529482664,-1.602137267,-1.57079875,-7.24E-06
0.392,1.275460434,0.063570113,-0.240891959,-0.182742941,-1.41E-05,-4.22E-05,,3.654103197,0.18267274,-0.692218274,-0.525123394,-4.06E-05,-0.000121361,,-1.349510402,-1.55976746,1.529003649,-1.602500652,-1.570798778,-7.33E-06
0.394,1.28273581,0.063935459,-0.242276396,-0.183793188,-1.42E-05,-4.25E-05,,3.637688027,0.18267274,-0.692218274,-0.525123394,-4.06E-05,-0.000121361,,-1.346959482,-1.55964032,1.528521865,-1.602866138,-1.570798806,-7.41E-06
0.396,1.289963695,0.064300804,-0.243660832,-0.184843435,-1.43E-05,-4.27E-05,,3.613942473,0.18267274,-0.692218274,-0.525123394,-4.06E-05,-0.000121361,,-1.34439401,-1.559512449,1.528037312,-1.603233724,-1.570798835,-7.50E-06
0.398,1.297129428,0.06466615,-0.245045269,-0.185893681,-1.44E-05,-4.30E-05,,3.582866537,0.18267274,-0.692218274,-0.525123394,-4.06E-05,-0.000121361,,-1.341814083,-1.559383848,1.52754999,-1.603603411,-1.570798863,-7.58E-06
0.4,1.304218349,0.065031495,-0.246429705,-0.186943928,-1.45E-05,-4.32E-05,,3.544460217,0.18267274,-0.692218274,-0.525123394,-4.06E-05,-0.000121361,,-1.339219824,-1.559254515,1.5270599,-1.603975198,-1.570798892,-7.67E-06
0.402,1.311215796,0.065396841,-0.247814142,-0.187994175,-1.45E-05,-4.34E-05,,3.498723515,0.18267274,-0.692218274,-0.525123394,-4.06E-05,-0.000121361,,-1.336611387,-1.559124452,1.52656704,-1.604349086,-1.570798921,-7.75E-06
0.404,1.318107108,0.065762186,-0.249198579,-0.189044422,-1.46E-05,-4.37E-05,,3.44565643,0.18267274,-0.692218274,-0.525123394,-4.06E-05,-0.000121361,,-1.333988955,-1.558993659,1.526071412,-1.604725075,-1.57079895,-7.84E-06
0.406,1.324877626,0.066127532,-0.250583015,-0.190094669,-1.47E-05,-4.39E-05,,3.385258962,0.18267274,-0.692218274,-0.525123394,-4.06E-05,-0.000121361,,-1.331352741,-1.558862134,1.525573015,-1.605103163,-1.570798979,-7.93E-06
0.408,1.331512689,0.066492877,-0.251967452,-0.191144915,-1.48E-05,-4.42E-05,,3.317531112,0.18267274,-0.692218274,-0.525123394,-4.06E-05,-0.000121361,,-1.328702986,-1.558729879,1.525071849,-1.605483353,-1.570799009,-8.02E-06
0.41,1.337997634,0.066858223,-0.253351888,-0.192195162,-1.49E-05,-4.44E-05,,3.242472878,0.18267274,-0.692218274,-0.525123394,-4.06E-05,-0.000121361,,-1.326039961,-1.558596893,1.524567914,-1.605865643,-1.570799038,-8.10E-06
0.412,1.344317803,0.067223568,-0.254736325,-0.193245409,-1.49E-05,-4.47E-05,,3.160084262,0.18267274,-0.692218274,-0.525123394,-4.06E-05,-0.000121361,,-1.323363965,-1.558463177,1.52406121,-1.606250033,-1.570799068,-8.19E-06
0.414,1.350458533,0.067588914,-0.256120761,-0.194295656,-1.50E-05,-4.49E-05,,3.070365263,0.18267274,-0.692218274,-0.525123394,-4.06E-05,-0.000121361,,-1.32067533,-1.55832873,1.523551738,-1.606636524,-1.570799098,-8.28E-06
0.416,1.356405165,0.067954259,-0.257505198,-0.195345903,-1.51E-05,-4.51E-05,,2.97331588,0.18267274,-0.692218274,-0.525123394,-4.06E-05,-0.000121361,,-1.317974413,-1.558193552,1.523039496,-1.607025115,-1.570799128,-8.37E-06
0.418,1.362143037,0.068319605,-0.258889634,-0.196396149,-1.52E-05,-4.54E-05,,2.868936115,0.18267274,-0.692218274,-0.525123394,-4.06E-05,-0.000121361,,-1.315261602,-1.558057644,1.522524486,-1.607415807,-1.570799158,-8.46E-06
0.42,1.367657489,0.06868495,-0.260274071,-0.197446396,-1.53E-05,-4.56E-05,,2.757225968,0.18267274,-0.692218274,-0.525123394,-4.06E-05,-0.000121361,,-1.312537316,-1.557921004,1.522006706,-1.607808599,-1.570799189,-8.55E-06
0.422,1.37293386,0.069050296,-0.261658507,-0.198496643,-1.53E-05,-4.59E-05,,2.638185437,0.18267274,-0.692218274,-0.525123394,-4.06E-05,-0.000121361,,-1.309802001,-1.557783634,1.521486158,-1.608203492,-1.570799219,-8.65E-06
0.424,1.377957489,0.069415641,-0.263042944,-0.19954689,-1.54E-05,-4.61E-05,,2.511814523,0.18267274,-0.692218274,-0.525123394,-4.06E-05,-0.000121361,,-1.307056134,-1.557645534,1.520962841,-1.608600485,-1.57079925,-8.74E-06
0.426,1.382713716,0.069780987,-0.264427381,-0.200597136,-1.55E-05,-4.64E-05,,2.378113227,0.18267274,-0.692218274,-0.525123394,-4.06E-05,-0.000121361,,-1.304300219,-1.557506703,1.520436755,-1.608999579,-1.570799281,-8.83E-06
0.428,1.387187879,0.070146332,-0.265811817,-0.201647383,-1.56E-05,-4.66E-05,,2.237081548,0.18267274,-0.692218274,-0.525123394,-4.06E-05,-0.000121361,,-1.301534791,-1.557367141,1.519907901,-1.609400773,-1.570799312,-8.92E-06
0.43,1.391369325,0.070511678,-0.267196254,-0.20269763,-1.57E-05,-4.68E-05,,2.09072293,0.18267274,-0.692218274,-0.525123394,-4.06E-05,-0.000121361,,-1.298760415,-1.557226848,1.519376277,-1.609804068,-1.570799343,-9.02E-06
0.432,1.395257555,0.070877023,-0.26858069,-0.203747877,-1.58E-05,-4.71E-05,,1.944115272,0.18267274,-0.692218274,-0.525123394,-4.06E-05,-0.000121361,,-1.295977677,-1.557085825,1.518841884,-1.610209463,-1.570799374,-9.11E-06
0.434,1.39885257,0.071242368,-0.269965127,-0.204798124,-1.58E-05,-4.73E-05,,1.797507615,0.18267274,-0.692218274,-0.525123394,-4.06E-05,-0.000121361,,-1.293187162,-1.55694407,1.518304723,-1.610616959,-1.570799406,-9.20E-06
0.436,1.40215437,0.071607714,-0.271349563,-0.20584837,-1.59E-05,-4.76E-05,,1.650899958,0.18267274,-0.692218274,-0.525123394,-4.06E-05,-0.000121361,,-1.290389457,-1.556801586,1.517764793,-1.611026555,-1.570799437,-9.30E-06
0.438,1.405162955,0.071973059,-0.272734,-0.206898617,-1.60E-05,-4.78E-05,,1.504292301,0.18267274,-0.692218274,-0.525123394,-4.06E-05,-0.000121361,,-1.287585148,-1.55665837,1.517222094,-1.611438252,-1.570799469,-9.39E-06
0.44,1.407882331,0.072338405,-0.274118436,-0.207948864,-1.61E-05,-4.81E-05,,1.359688088,0.18267274,-0.692218274,-0.525123394,-4.06E-05,-0.000121361,,-1.284774822,-1.556514424,1.516676626,-1.611852049,-1.570799501,-9.49E-06
0.442,1.410326662,0.07270375,-0.275502873,-0.208999111,-1.62E-05,-4.83E-05,,1.222165219,0.18267274,-0.692218274,-0.525123394,-4.06E-05,-0.000121361,,-1.281959057,-1.556369747,1.516128389,-1.612267947,-1.570799533,-9.58E-06
0.444,1.412510607,0.073069096,-0.276887309,-0.210049358,-1.62E-05,-4.85E-05,,1.091972732,0.18267274,-0.692218274,-0.525123394,-4.06E-05,-0.000121361,,-1.279138404,-1.55622434,1.515577383,-1.612685945,-1.570799566,-9.68E-06
0.446,1.414448828,0.073434441,-0.278271746,-0.211099604,-1.63E-05,-4.88E-05,,0.969110628,0.18267274,-0.692218274,-0.525123394,-4.06E-05,-0.000121361,,-1.276313383,-1.556078202,1.515023608,-1.613106044,-1.570799598,-9.78E-06
0.448,1.416155986,0.073799787,-0.279656183,-0.212149851,-1.64E-05,-4.90E-05,,0.853578908,0.18267274,-0.692218274,-0.525123394,-4.06E-05,-0.000121361,,-1.273484485,-1.555931333,1.514467065,-1.613528243,-1.570799631,-9.88E-06
0.45,1.417646741,0.074165132,-0.281040619,-0.213200098,-1.65E-05,-4.93E-05,,0.74537757,0.18267274,-0.692218274,-0.525123394,-4.06E-05,-0.000121361,,-1.270652173,-1.555783733,1.513907753,-1.613952543,-1.570799664,-9.97E-06
0.452,1.418935754,0.074530478,-0.282425056,-0.214250345,-1.66E-05,-4.95E-05,,0.644506615,0.18267274,-0.692218274,-0.525123394,-4.06E-05,-0.000121361,,-1.26781688,-1.555635403,1.513345671,-1.614378943,-1.570799697,-1.01E-05
0.454,1.420037687,0.074895823,-0.283809492,-0.215300591,-1.66E-05,-4.98E-05,,0.550966043,0.18267274,-0.692218274,-0.525123394,-4.06E-05,-0.000121361,,-1.264979008,-1.555486342,1.512780821,-1.614807444,-1.57079973,-1.02E-05
0.456,1.420967198,0.075261169,-0.285193929,-0.216350838,-1.67E-05,-5.00E-05,,0.464755853,0.18267274,-0.692218274,-0.525123394,-4.06E-05,-0.000121361,,-1.262138933,-1.55533655,1.512213202,-1.615238045,-1.570799763,-1.03E-05
0.458,1.42173895,0.075626514,-0.286578365,-0.217401085,-1.68E-05,-5.02E-05,,0.385876047,0.18267274,-0.692218274,-0.525123394,-4.06E-05,-0.000121361,,-1.259296998,-1.555186028,1.511642814,-1.615670747,-1.570799796,-1.04E-05
0.46,1.422367604,0.07599186,-0.287962802,-0.218451332,-1.69E-05,-5.05E-05,,0.314326623,0.18267274,-0.692218274,-0.525123394,-4.06E-05,-0.000121361,,-1.25645352,-1.555034775,1.511069658,-1.616105549,-1.57079983,-1.05E-05
0.462,1.422867819,0.076357205,-0.289347238,-0.219501579,-1.70E-05,-5.07E-05,,0.250107582,0.18267274,-0.692218274,-0.525123394,-4.06E-05,-0.000121361,,-1.253608785,-1.554882791,1.510493732,-1.616542451,-1.570799864,-1.06E-05
0.464,1.423254257,0.076722551,-0.290731675,-0.220551825,-1.71E-05,-5.10E-05,,0.193218924,0.18267274,-0.692218274,-0.525123394,-4.06E-05,-0.000121361,,-1.25076305,-1.554730077,1.509915038,-1.616981455,-1.570799898,-1.07E-05
0.466,1.423541578,0.077087896,-0.292116112,-0.221602072,-1.71E-05,-5.12E-05,,0.143660649,0.18267274,-0.692218274,-0.525123394,-4.06E-05,-0.000121361,,-1.247916541,-1.554576632,1.509333574,-1.617422558,-1.570799932,-1.08E-05
0.468,1.423744443,0.077453242,-0.293500548,-0.222652319,-1.72E-05,-5.15E-05,,0.101432757,0.18267274,-0.692218274,-0.525123394,-4.06E-05,-0.000121361,,-1.245069458,-1.554422456,1.508749342,-1.617865762,-1.570799966,-1.09E-05
0.47,1.423877514,0.077818587,-0.294884985,-0.223702566,-1.73E-05,-5.17E-05,,0.066535248,0.18267274,-0.692218274,-0.525123394,-4.06E-05,-0.000121361,,-1.242221969,-1.55426755,1.508162341,-1.618311067,-1.570800001,-1.10E-05
0.472,1.42395545,0.078183933,-0.296269421,-0.224752813,-1.74E-05,-5.19E-05,,0.038968121,0.18267274,-0.692218274,-0.525123394,-4.06E-05,-0.000121361,,-1.239374214,-1.554111912,1.507572571,-1.618758472,-1.570800035,-1.11E-05
0.474,1.423992913,0.078549278,-0.297653858,-0.225803059,-1.75E-05,-5.22E-05,,0.018731378,0.18267274,-0.692218274,-0.525123394,-4.06E-05,-0.000121361,,-1.236526303,-1.553955544,1.506980032,-1.619207978,-1.57080007,-1.12E-05
0.476,1.424004563,0.078914624,-0.299038294,-0.226853306,-1.75E-05,-5.24E-05,,0.005825017,0.18267274,-0.692218274,-0.525123394,-4.06E-05,-0.000121361,,-1.233678317,-1.553798446,1.506384724,-1.619659584,-1.570800105,-1.13E-05
0.478,1.424005061,0.079279969,-0.300422731,-0.227903553,-1.76E-05,-5.27E-05,,0.000249039,0.18267274,-0.692218274,-0.525123394,-4.06E-05,-0.000121361,,-1.230830308,-1.553640617,1.505786648,-1.620113291,-1.57080014,-1.14E-05
0.48,1.424005061,0.079645314,-0.301807167,-0.2289538,-1.77E-05,-5.29E-05,,5.55E-11,0.18267274,-0.692218274,-0.525123394,-4.06E-05,-0.000121361,,-1.227982298,-1.553482057,1.505185802,-1.620569098,-1.570800175,-1.15E-05
0.482,1.424005061,0.08001066,-0.303191604,-0.230004047,-1.78E-05,-5.32E-05,,0,0.18267274,-0.692218274,-0.525123394,-4.06E-05,-0.000121361,,-1.225134288,-1.553322766,1.504582188,-1.621027005,-1.570800211,-1.16E-05
0.484,1.424005061,0.080376005,-0.30457604,-0.231054293,-1.79E-05,-5.34E-05,,0,0.18267274,-0.692218274,-0.525123394,-4.06E-05,-0.000121361,,-1.222286278,-1.553162745,1.503975805,-1.621487013,-1.570800246,-1.17E-05
0.486,1.424005061,0.080741351,-0.305960477,-0.23210454,-1.79E-05,-5.36E-05,,0,0.18267274,-0.692218274,-0.525123394,-4.06E-05,-0.000121361,,-1.219438268,-1.553001993,1.503366653,-1.621949122,-1.570800282,-1.18E-05
0.488,1.424005061,0.081106696,-0.307344914,-0.233154787,-1.80E-05,-5.39E-05,,-5.55E-11,0.18267274,-0.692218274,-0.525123394,-4.06E-05,-0.000121361,,-1.216590257,-1.55284051,1.502754732,-1.622413331,-1.570800318,-1.19E-05
0.49,1.424005061,0.081472042,-0.30872935,-0.234205034,-1.81E-05,-5.41E-05,,5.55E-11,0.18267274,-0.692218274,-0.525123394,-4.06E-05,-0.000121361,,-1.213742247,-1.552678297,1.502140042,-1.622879641,-1.570800354,-1.20E-05
0.492,1.424005061,0.081837387,-0.310113787,-0.23525528,-1.82E-05,-5.44E-05,,0,0.18267274,-0.692218274,-0.525123394,-4.06E-05,-0.000121361,,-1.210894237,-1.552515353,1.501522583,-1.623348051,-1.57080039,-1.21E-05
0.494,1.424005061,0.082202733,-0.311498223,-0.236305527,-1.83E-05,-5.46E-05,,0,0.18267274,-0.692218274,-0.525123394,-4.06E-05,-0.000121361,,-1.208046227,-1.552351678,1.500902356,-1.623818561,-1.570800426,-1.23E-05
0.496,1.424005061,0.082568078,-0.31288266,-0.237355774,-1.84E-05,-5.49E-05,,0,0.18267274,-0.692218274,-0.525123394,-4.06E-05,-0.000121361,,-1.205198217,-1.552187272,1.500279359,-1.624291172,-1.570800463,-1.24E-05
0.498,1.424005061,0.082933424,-0.314267096,-0.238406021,-1.84E-05,-5.51E-05,,0,0.18267274,-0.692218274,-0.525123394,-4.06E-05,-0.000121361,,-1.202350207,-1.552022136,1.499653594,-1.624765884,-1.5708005,-1.25E-05
0.5,1.424005061,0.083298769,-0.315651533,-0.239456268,-1.85E-05,-5.53E-05,,5.55E-11,0.18267274,-0.692218274,-0.525123394,-4.06E-05,-0.000121361,,-1.199502197,-1.551856269,1.49902506,-1.625242696,-1.570800537,-1.26E-05
0.502,1.424005061,0.083664115,-0.317035969,-0.240506514,-1.86E-05,-5.56E-05,,0,0.18267274,-0.692218274,-0.525123394,-4.06E-05,-0.000121361,,-1.196654187,-1.551689672,1.498393757,-1.625721608,-1.570800574,-1.27E-05
0.504,1.424005061,0.08402946,-0.318420406,-0.241556761,-1.87E-05,-5.58E-05,,-5.55E-11,0.18267274,-0.692218274,-0.525123394,-4.06E-05,-0.000121361,,-1.193806176,-1.551522344,1.497759685,-1.626202621,-1.570800611,-1.28E-05
0.506,1.424005061,0.084394806,-0.319804842,-0.242607008,-1.88E-05,-5.61E-05,,0,0.18267274,-0.692218274,-0.525123394,-4.06E-05,-0.000121361,,-1.190958166,-1.551354285,1.497122844,-1.626685735,-1.570800648,-1.29E-05
0.508,1.424005061,0.084760151,-0.321189279,-0.243657255,-1.88E-05,-5.63E-05,,0,0.18267274,-0.692218274,-0.525123394,-4.06E-05,-0.000121361,,-1.188110156,-1.551185495,1.496483234,-1.627170949,-1.570800686,-1.30E-05
0.51,1.424005061,0.085125497,-0.322573716,-0.244707502,-1.89E-05,-5.66E-05,,0,0.18267274,-0.692218274,-0.525123394,-4.06E-05,-0.000121361,,-1.185262146,-1.551015975,1.495840856,-1.627658263,-1.570800723,-1.31E-05
0.512,1.424005061,0.085490842,-0.323958152,-0.245757748,-1.90E-05,-5.68E-05,,-5.55E-11,0.18267274,-0.692218274,-0.525123394,-4.06E-05,-0.000121361,,-1.182414136,-1.550845724,1.495195708,-1.628147678,-1.570800761,-1.33E-05
0.514,1.424005061,0.085856188,-0.325342589,-0.246807995,-1.91E-05,-5.70E-05,,5.55E-11,0.18267274,-0.692218274,-0.525123394,-4.06E-05,-0.000121361,,-1.179566126,-1.550674742,1.494547792,-1.628639194,-1.570800799,-1.34E-05
0.516,1.424005061,0.086221533,-0.326727025,-0.247858242,-1.92E-05,-5.73E-05,,0,0.18267274,-0.692218274,-0.525123394,-4.06E-05,-0.000121361,,-1.176718116,-1.55050303,1.493897107,-1.62913281,-1.570800837,-1.35E-05
0.518,1.424005061,0.086586879,-0.328111462,-0.248908489,-1.92E-05,-5.75E-05,,0,0.18267274,-0.692218274,-0.525123394,-4.06E-05,-0.000121361,,-1.173870106,-1.550330587,1.493243653,-1.629628526,-1.570800876,-1.36E-05
0.52,1.424005061,0.086952224,-0.329495898,-0.249958735,-1.93E-05,-5.78E-05,,0,0.18267274,-0.692218274,-0.525123394,-4.06E-05,-0.000121361,,-1.171022096,-1.550157413,1.49258743,-1.630126343,-1.570800914,-1.37E-05
0.522,1.424005061,0.08731757,-0.330880335,-0.251008982,-1.94E-05,-5.80E-05,,-5.55E-11,0.18267274,-0.692218274,-0.525123394,-4.06E-05,-0.000121361,,-1.168174085,-1.549983508,1.491928438,-1.630626261,-1.570800953,-1.38E-05
0.524,1.424005061,0.087682915,-0.332264771,-0.252059229,-1.95E-05,-5.83E-05,,1.11E-10,0.18267274,-0.692218274,-0.525123394,-4.06E-05,-0.000121361,,-1.165326075,-1.549808873,1.491266677,-1.631128279,-1.570800992,-1.39E-05
0.526,1.424005061,0.088048261,-0.333649208,-0.253109476,-1.96E-05,-5.85E-05,,0,0.18267274,-0.692218274,-0.525123394,-4.06E-05,-0.000121361,,-1.162478065,-1.549633507,1.490602148,-1.631632397,-1.570801031,-1.41E-05
0.528,1.424005061,0.088413606,-0.335033644,-0.254159723,-1.97E-05,-5.87E-05,,-5.55E-11,0.18267274,-0.692218274,-0.525123394,-4.06E-05,-0.000121361,,-1.159630055,-1.549457411,1.489934849,-1.632138616,-1.57080107,-1.42E-05
0.53,1.424005061,0.088778951,-0.336418081,-0.255209969,-1.97E-05,-5.90E-05,,5.55E-11,0.18267274,-0.692218274,-0.525123394,-4.06E-05,-0.000121361,,-1.156782045,-1.549280584,1.489264782,-1.632646936,-1.570801109,-1.43E-05
0.532,1.424005061,0.089144297,-0.337802518,-0.256260216,-1.98E-05,-5.92E-05,,-5.55E-11,0.18267274,-0.692218274,-0.525123394,-4.06E-05,-0.000121361,,-1.153934035,-1.549103026,1.488591946,-1.633157356,-1.570801148,-1.44E-05
0.534,1.424005061,0.089509642,-0.339186954,-0.257310463,-1.99E-05,-5.95E-05,,5.55E-11,0.18267274,-0.692218274,-0.525123394,-4.06E-05,-0.000121361,,-1.151086025,-1.548924737,1.487916341,-1.633669876,-1.570801188,-1.45E-05
0.536,1.424005061,0.089874988,-0.340571391,-0.25836071,-2.00E-05,-5.97E-05,,0,0.18267274,-0.692218274,-0.525123394,-4.06E-05,-0.000121361,,-1.148238015,-1.548745718,1.487237967,-1.634184497,-1.570801228,-1.46E-05
0.538,1.424005061,0.090240333,-0.341955827,-0.259410957,-2.01E-05,-6.00E-05,,-1.11E-10,0.18267274,-0.692218274,-0.525123394,-4.06E-05,-0.000121361,,-1.145390004,-1.548565968,1.486556824,-1.634701218,-1.570801268,-1.48E-05
0.54,1.424005061,0.090605679,-0.343340264,-0.260461203,-2.01E-05,-6.02E-05,,5.55E-11,0.18267274,-0.692218274,-0.525123394,-4.06E-05,-0.000121361,,-1.142541994,-1.548385487,1.485872913,-1.63522004,-1.570801308,-1.49E-05
0.542,1.424005061,0.090971024,-0.3447247,-0.26151145,-2.02E-05,-6.04E-05,,0,0.18267274,-0.692218274,-0.525123394,-4.06E-05,-0.000121361,,-1.139693984,-1.548204276,1.485186232,-1.635740963,-1.570801348,-1.50E-05
0.544,1.424005061,0.09133637,-0.346109137,-0.262561697,-2.03E-05,-6.07E-05,,0,0.18267274,-0.692218274,-0.525123394,-4.06E-05,-0.000121361,,-1.136845974,-1.548022334,1.484496783,-1.636263986,-1.570801389,-1.51E-05
0.546,1.424005061,0.091701715,-0.347493573,-0.263611944,-2.04E-05,-6.09E-05,,0,0.18267274,-0.692218274,-0.525123394,-4.06E-05,-0.000121361,,-1.133997964,-1.547839661,1.483804564,-1.636789109,-1.570801429,-1.53E-05
0.548,1.424005061,0.092067061,-0.34887801,-0.264662191,-2.05E-05,-6.12E-05,,-5.55E-11,0.18267274,-0.692218274,-0.525123394,-4.06E-05,-0.000121361,,-1.131149954,-1.547656258,1.483109577,-1.637316333,-1.57080147,-1.54E-05
0.55,1.424005061,0.092432406,-0.350262446,-0.265712437,-2.05E-05,-6.14E-05,,5.55E-11,0.18267274,-0.692218274,-0.525123394,-4.06E-05,-0.000121361,,-1.128301944,-1.547472124,1.482411821,-1.637845657,-1.570801511,-1.55E-05
0.552,1.424005061,0.092797752,-0.351646883,-0.266762684,-2.06E-05,-6.17E-05,,0,0.18267274,-0.692218274,-0.525123394,-4.06E-05,-0.000121361,,-1.125453934,-1.547287259,1.481711296,-1.638377082,-1.570801552,-1.56E-05
0.554,1.424005061,0.093163097,-0.35303132,-0.267812931,-2.07E-05,-6.19E-05,,0,0.18267274,-0.692218274,-0.525123394,-4.06E-05,-0.000121361,,-1.122605923,-1.547101663,1.481008003,-1.638910608,-1.570801593,-1.57E-05
0.556,1.424005061,0.093528443,-0.354415756,-0.268863178,-2.08E-05,-6.21E-05,,0,0.18267274,-0.692218274,-0.525123394,-4.06E-05,-0.000121361,,-1.119757913,-1.546915337,1.48030194,-1.639446233,-1.570801635,-1.59E-05
0.558,1.424005061,0.093893788,-0.355800193,-0.269913424,-2.09E-05,-6.24E-05,,5.55E-11,0.18267274,-0.692218274,-0.525123394,-4.06E-05,-0.000121361,,-1.116909903,-1.54672828,1.479593108,-1.63998396,-1.570801676,-1.60E-05
0.56,1.424005061,0.094259134,-0.357184629,-0.270963671,-2.09E-05,-6.26E-05,,0,0.18267274,-0.692218274,-0.525123394,-4.06E-05,-0.000121361,,-1.114061893,-1.546540493,1.478881508,-1.640523787,-1.570801718,-1.61E-05
0.562,1.424005061,0.094624479,-0.358569066,-0.272013918,-2.10E-05,-6.29E-05,,-5.55E-11,0.18267274,-0.692218274,-0.525123394,-4.06E-05,-0.000121361,,-1.111213883,-1.546351974,1.478167139,-1.641065714,-1.57080176,-1.62E-05
0.564,1.424005061,0.094989825,-0.359953502,-0.273064165,-2.11E-05,-6.31E-05,,0,0.18267274,-0.692218274,-0.525123394,-4.06E-05,-0.000121361,,-1.108365873,-1.546162725,1.477450001,-1.641609742,-1.570801802,-1.64E-05
0.566,1.424005061,0.09535517,-0.361337939,-0.274114412,-2.12E-05,-6.34E-05,,0,0.18267274,-0.692218274,-0.525123394,-4.06E-05,-0.000121361,,-1.105517863,-1.545972746,1.476730094,-1.64215587,-1.570801844,-1.65E-05
0.568,1.424005061,0.095720516,-0.362722375,-0.275164658,-2.13E-05,-6.36E-05,,0,0.18267274,-0.692218274,-0.525123394,-4.06E-05,-0.000121361,,-1.102669853,-1.545782035,1.476007418,-1.642704099,-1.570801887,-1.66E-05
0.57,1.424005061,0.096085861,-0.364106812,-0.276214905,-2.14E-05,-6.38E-05,,-5.55E-11,0.18267274,-0.692218274,-0.525123394,-4.06E-05,-0.000121361,,-1.099821842,-1.545590594,1.475281973,-1.643254428,-1.570801929,-1.67E-05
0.572,1.424005061,0.096451207,-0.365491249,-0.277265152,-2.14E-05,-6.41E-05,,5.55E-11,0.18267274,-0.692218274,-0.525123394,-4.06E-05,-0.000121361,,-1.096973832,-1.545398423,1.474553759,-1.643806858,-1.570801972,-1.69E-05
0.574,1.424005061,0.096816552,-0.366875685,-0.278315399,-2.15E-05,-6.43E-05,,0,0.18267274,-0.692218274,-0.525123394,-4.06E-05,-0.000121361,,-1.094125822,-1.54520552,1.473822777,-1.644361388,-1.570802015,-1.70E-05
0.576,1.424005061,0.097181897,-0.368260122,-0.279365646,-2.16E-05,-6.46E-05,,0,0.18267274,-0.692218274,-0.525123394,-4.06E-05,-0.000121361,,-1.091277812,-1.545011887,1.473089025,-1.644918019,-1.570802058,-1.71E-05
0.578,1.424005061,0.097547243,-0.369644558,-0.280415892,-2.17E-05,-6.48E-05,,0,0.18267274,-0.692218274,-0.525123394,-4.06E-05,-0.000121361,,-1.088429802,-1.544817523,1.472352505,-1.64547675,-1.570802101,-1.73E-05
0.58,1.424005061,0.097912588,-0.371028995,-0.281466139,-2.18E-05,-6.50E-05,,-5.55E-11,0.18267274,-0.692218274,-0.525123394,-4.06E-05,-0.000121361,,-1.085581792,-1.544622429,1.471613216,-1.646037582,-1.570802144,-1.74E-05
0.582,1.424005061,0.098277934,-0.372413431,-0.282516386,-2.18E-05,-6.53E-05,,1.11E-10,0.18267274,-0.692218274,-0.525123394,-4.06E-05,-0.000121361,,-1.082733782,-1.544426604,1.470871158,-1.646600515,-1.570802188,-1.75E-05
0.584,1.424005061,0.098643279,-0.373797868,-0.283566633,-2.19E-05,-6.55E-05,,0,0.18267274,-0.692218274,-0.525123394,-4.06E-05,-0.000121361,,-1.079885772,-1.544230048,1.470126331,-1.647165547,-1.570802231,-1.76E-05
0.586,1.424005061,0.099008625,-0.375182304,-0.284616879,-2.20E-05,-6.58E-05,,-5.55E-11,0.18267274,-0.692218274,-0.525123394,-4.06E-05,-0.000121361,,-1.077037761,-1.544032761,1.469378736,-1.647732681,-1.570802275,-1.78E-05
0.588,1.424005061,0.09937397,-0.376566741,-0.285667126,-2.21E-05,-6.60E-05,,5.55E-11,0.18267274,-0.692218274,-0.525123394,-4.06E-05,-0.000121361,,-1.074189751,-1.543834744,1.468628371,-1.648301914,-1.570802319,-1.79E-05
0.59,1.424005061,0.099739316,-0.377951177,-0.286717373,-2.22E-05,-6.63E-05,,-5.55E-11,0.18267274,-0.692218274,-0.525123394,-4.06E-05,-0.000121361,,-1.071341741,-1.543635996,1.467875237,-1.648873249,-1.570802363,-1.80E-05
0.592,1.424005061,0.100104661,-0.379335614,-0.28776762,-2.22E-05,-6.65E-05,,5.55E-11,0.18267274,-0.692218274,-0.525123394,-4.06E-05,-0.000121361,,-1.068493731,-1.543436517,1.467119335,-1.649446683,-1.570802408,-1.82E-05
0.594,1.424005061,0.100470007,-0.380720051,-0.288817867,-2.23E-05,-6.67E-05,,0,0.18267274,-0.692218274,-0.525123394,-4.06E-05,-0.000121361,,-1.065645721,-1.543236308,1.466360664,-1.650022219,-1.570802452,-1.83E-05
0.596,1.424005061,0.100835352,-0.382104487,-0.289868113,-2.24E-05,-6.70E-05,,-1.11E-10,0.18267274,-0.692218274,-0.525123394,-4.06E-05,-0.000121361,,-1.062797711,-1.543035368,1.465599224,-1.650599854,-1.570802497,-1.84E-05
0.598,1.424005061,0.101200698,-0.383488924,-0.29091836,-2.25E-05,-6.72E-05,,5.55E-11,0.18267274,-0.692218274,-0.525123394,-4.06E-05,-0.000121361,,-1.059949701,-1.542833697,1.464835015,-1.651179591,-1.570802542,-1.86E-05
0.6,1.424005061,0.101566043,-0.38487336,-0.291968607,-2.26E-05,-6.75E-05,,0,0.18267274,-0.692218274,-0.525123394,-4.06E-05,-0.000121361,,-1.057101691,-1.542631296,1.464068037,-1.651761427,-1.570802587,-1.87E-05
0.602,1.424005061,0.101931389,-0.386257797,-0.293018854,-2.27E-05,-6.77E-05,,0,0.18267274,-0.692218274,-0.525123394,-4.06E-05,-0.000121361,,-1.054253681,-1.542428164,1.46329829,-1.652345364,-1.570802632,-1.88E-05
0.604,1.424005061,0.102296734,-0.387642233,-0.294069101,-2.27E-05,-6.80E-05,,0,0.18267274,-0.692218274,-0.525123394,-4.06E-05,-0.000121361,,-1.05140567,-1.542224301,1.462525775,-1.652931402,-1.570802677,-1.90E-05
0.606,1.424005061,0.10266208,-0.38902667,-0.295119347,-2.28E-05,-6.82E-05,,-5.55E-11,0.18267274,-0.692218274,-0.525123394,-4.06E-05,-0.000121361,,-1.04855766,-1.542019708,1.46175049,-1.65351954,-1.570802723,-1.91E-05
0.608,1.424005061,0.103027425,-0.390411106,-0.296169594,-2.29E-05,-6.84E-05,,5.55E-11,0.18267274,-0.692218274,-0.525123394,-4.06E-05,-0.000121361,,-1.04570965,-1.541814383,1.460972437,-1.654109779,-1.570802768,-1.93E-05
0.61,1.424005061,0.103392771,-0.391795543,-0.297219841,-2.30E-05,-6.87E-05,,0,0.18267274,-0.692218274,-0.525123394,-4.06E-05,-0.000121361,,-1.04286164,-1.541608329,1.460191615,-1.654702118,-1.570802814,-1.94E-05
0.612,1.424005061,0.103758116,-0.393179979,-0.298270088,-2.31E-05,-6.89E-05,,0,0.18267274,-0.692218274,-0.525123394,-4.06E-05,-0.000121361,,-1.04001363,-1.541401543,1.459408023,-1.655296558,-1.57080286,-1.95E-05
0.614,1.424005061,0.104123462,-0.394564416,-0.299320335,-2.31E-05,-6.92E-05,,0,0.18267274,-0.692218274,-0.525123394,-4.06E-05,-0.000121361,,-1.03716562,-1.541194027,1.458621664,-1.655893098,-1.570802906,-1.97E-05
0.616,1.424005061,0.104488807,-0.395948853,-0.300370581,-2.32E-05,-6.94E-05,,5.55E-11,0.18267274,-0.692218274,-0.525123394,-4.06E-05,-0.000121361,,-1.03431761,-1.54098578,1.457832535,-1.656491739,-1.570802953,-1.98E-05
0.618,1.424005061,0.104854153,-0.397333289,-0.301420828,-2.33E-05,-6.97E-05,,0,0.18267274,-0.692218274,-0.525123394,-4.06E-05,-0.000121361,,-1.0314696,-1.540776802,1.457040637,-1.65709248,-1.570802999,-1.99E-05
0.62,1.424005061,0.105219498,-0.398717726,-0.302471075,-2.34E-05,-6.99E-05,,-5.55E-11,0.18267274,-0.692218274,-0.525123394,-4.06E-05,-0.000121361,,-1.028621589,-1.540567094,1.45624597,-1.657695322,-1.570803046,-2.01E-05
0.622,1.424005061,0.105584844,-0.400102162,-0.303521322,-2.35E-05,-7.01E-05,,0,0.18267274,-0.692218274,-0.525123394,-4.06E-05,-0.000121361,,-1.025773579,-1.540356655,1.455448535,-1.658300264,-1.570803092,-2.02E-05
0.624,1.424005061,0.105950189,-0.401486599,-0.304571568,-2.35E-05,-7.04E-05,,0,0.18267274,-0.692218274,-0.525123394,-4.06E-05,-0.000121361,,-1.022925569,-1.540145485,1.454648331,-1.658907306,-1.570803139,-2.04E-05
0.626,1.424005061,0.106315534,-0.402871035,-0.305621815,-2.36E-05,-7.06E-05,,0,0.18267274,-0.692218274,-0.525123394,-4.06E-05,-0.000121361,,-1.020077559,-1.539933585,1.453845357,-1.65951645,-1.570803186,-2.05E-05
0.628,1.424005061,0.10668088,-0.404255472,-0.306672062,-2.37E-05,-7.09E-05,,-5.55E-11,0.18267274,-0.692218274,-0.525123394,-4.06E-05,-0.000121361,,-1.017229549,-1.539720954,1.453039615,-1.660127693,-1.570803234,-2.06E-05
0.63,1.424005061,0.107046225,-0.405639908,-0.307722309,-2.38E-05,-7.11E-05,,5.55E-11,0.18267274,-0.692218274,-0.525123394,-4.06E-05,-0.000121361,,-1.014381539,-1.539507592,1.452231104,-1.660741037,-1.570803281,-2.08E-05
0.632,1.424005061,0.107411571,-0.407024345,-0.308772556,-2.39E-05,-7.14E-05,,0,0.18267274,-0.692218274,-0.525123394,-4.06E-05,-0.000121361,,-1.011533529,-1.5392935,1.451419825,-1.661356482,-1.570803329,-2.09E-05
0.634,1.424005061,0.107776916,-0.408408781,-0.309822802,-2.40E-05,-7.16E-05,,0,0.18267274,-0.692218274,-0.525123394,-4.06E-05,-0.000121361,,-1.008685519,-1.539078677,1.450605776,-1.661974027,-1.570803376,-2.11E-05
0.636,1.424005061,0.108142262,-0.409793218,-0.310873049,-2.40E-05,-7.18E-05,,0,0.18267274,-0.692218274,-0.525123394,-4.06E-05,-0.000121361,,-1.005837508,-1.538863123,1.449788958,-1.662593673,-1.570803424,-2.12E-05
0.638,1.424005061,0.108507607,-0.411177655,-0.311923296,-2.41E-05,-7.21E-05,,-5.55E-11,0.18267274,-0.692218274,-0.525123394,-4.06E-05,-0.000121361,,-1.002989498,-1.538646838,1.448969372,-1.663215419,-1.570803472,-2.14E-05
0.64,1.424005061,0.108872953,-0.412562091,-0.312973543,-2.42E-05,-7.23E-05,,5.55E-11,0.18267274,-0.692218274,-0.525123394,-4.06E-05,-0.000121361,,-1.000141488,-1.538429823,1.448147017,-1.663839265,-1.570803521,-2.15E-05
0.642,1.424005061,0.109238298,-0.413946528,-0.31402379,-2.43E-05,-7.26E-05,,5.55E-11,0.18267274,-0.692218274,-0.525123394,-4.06E-05,-0.000121361,,-0.997293478,-1.538212077,1.447321892,-1.664465212,-1.570803569,-2.16E-05
0.644,1.424005061,0.109603644,-0.415330964,-0.315074036,-2.44E-05,-7.28E-05,,-2.78E-11,0.18267274,-0.692218274,-0.525123394,-4.06E-05,-0.000121361,,-0.994445468,-1.5379936,1.446493999,-1.66509326,-1.570803618,-2.18E-05
0.646,1.424005061,0.109968989,-0.416715401,-0.316124283,-2.44E-05,-7.31E-05,,0,0.18267274,-0.692218274,-0.525123394,-4.06E-05,-0.000121361,,-0.991597458,-1.537774393,1.445663337,-1.665723408,-1.570803666,-2.19E-05
0.648,1.424005061,0.110334335,-0.418099837,-0.31717453,-2.45E-05,-7.33E-05,,0,0.18267274,-0.692218274,-0.525123394,-4.06E-05,-0.000121361,,-0.988749448,-1.537554455,1.444829907,-1.666355657,-1.570803715,-2.21E-05
0.65,1.424005061,0.11069968,-0.419484274,-0.318224777,-2.46E-05,-7.35E-05,,0,0.18267274,-0.692218274,-0.525123394,-4.06E-05,-0.000121361,,-0.985901438,-1.537333787,1.443993707,-1.666990006,-1.570803764,-2.22E-05
0.652,1.424005061,0.111065026,-0.42086871,-0.319275023,-2.47E-05,-7.38E-05,,-2.78E-11,0.18267274,-0.692218274,-0.525123394,-4.06E-05,-0.000121361,,-0.983053427,-1.537112387,1.443154738,-1.667626455,-1.570803813,-2.24E-05
0.654,1.424005061,0.111430371,-0.422253147,-0.32032527,-2.48E-05,-7.40E-05,,0,0.18267274,-0.692218274,-0.525123394,-4.06E-05,-0.000121361,,-0.980205417,-1.536890257,1.442313001,-1.668265005,-1.570803863,-2.25E-05
0.656,1.424005061,0.111795717,-0.423637584,-0.321375517,-2.48E-05,-7.43E-05,,-2.78E-11,0.18267274,-0.692218274,-0.525123394,-4.06E-05,-0.000121361,,-0.977357407,-1.536667396,1.441468495,-1.668905656,-1.570803912,-2.27E-05
0.658,1.424005061,0.112161062,-0.42502202,-0.322425764,-2.49E-05,-7.45E-05,,2.78E-11,0.18267274,-0.692218274,-0.525123394,-4.06E-05,-0.000121361,,-0.974509397,-1.536443805,1.44062122,-1.669548407,-1.570803962,-2.28E-05
0.66,1.424005061,0.112526408,-0.426406457,-0.323476011,-2.50E-05,-7.48E-05,,-2.78E-11,0.18267274,-0.692218274,-0.525123394,-4.06E-05,-0.000121361,,-0.971661387,-1.536219483,1.439771176,-1.670193258,-1.570804012,-2.30E-05
0.662,1.424005061,0.112891753,-0.427790893,-0.324526257,-2.51E-05,-7.50E-05,,2.78E-11,0.18267274,-0.692218274,-0.525123394,-4.06E-05,-0.000121361,,-0.968813377,-1.53599443,1.438918363,-1.67084021,-1.570804062,-2.31E-05
0.664,1.424005061,0.113257099,-0.42917533,-0.325576504,-2.52E-05,-7.52E-05,,0,0.18267274,-0.692218274,-0.525123394,-4.06E-05,-0.000121361,,-0.965965367,-1.535768647,1.438062781,-1.671489263,-1.570804112,-2.33E-05
0.666,1.424005061,0.113622444,-0.430559766,-0.326626751,-2.53E-05,-7.55E-05,,-2.78E-11,0.18267274,-0.692218274,-0.525123394,-4.06E-05,-0.000121361,,-0.963117357,-1.535542132,1.43720443,-1.672140416,-1.570804162,-2.34E-05
0.668,1.424005061,0.11398779,-0.431944203,-0.327676998,-2.53E-05,-7.57E-05,,2.78E-11,0.18267274,-0.692218274,-0.525123394,-4.06E-05,-0.000121361,,-0.960269346,-1.535314887,1.436343311,-1.672793669,-1.570804213,-2.36E-05
0.67,1.424005061,0.114353135,-0.433328639,-0.328727245,-2.54E-05,-7.60E-05,,-2.78E-11,0.18267274,-0.692218274,-0.525123394,-4.06E-05,-0.000121361,,-0.957421336,-1.535086912,1.435479422,-1.673449023,-1.570804264,-2.37E-05
0.672,1.424005061,0.114718481,-0.434713076,-0.329777491,-2.55E-05,-7.62E-05,,8.33E-11,0.18267274,-0.692218274,-0.525123394,-4.06E-05,-0.000121361,,-0.954573326,-1.534858206,1.434612765,-1.674106478,-1.570804314,-2.39E-05
0.674,1.424005061,0.115083826,-0.436097512,-0.330827738,-2.56E-05,-7.65E-05,,-2.78E-11,0.18267274,-0.692218274,-0.525123394,-4.06E-05,-0.000121361,,-0.951725316,-1.534628769,1.433743339,-1.674766033,-1.570804365,-2.40E-05
0.676,1.424005061,0.115449171,-0.437481949,-0.331877985,-2.57E-05,-7.67E-05,,0,0.18267274,-0.692218274,-0.525123394,-4.06E-05,-0.000121361,,-0.948877306,-1.534398601,1.432871144,-1.675427688,-1.570804417,-2.42E-05
0.678,1.424005061,0.115814517,-0.438866386,-0.332928232,-2.57E-05,-7.69E-05,,0,0.18267274,-0.692218274,-0.525123394,-4.06E-05,-0.000121361,,-0.946029296,-1.534167703,1.43199618,-1.676091444,-1.570804468,-2.43E-05
0.68,1.424005061,0.116179862,-0.440250822,-0.333978479,-2.58E-05,-7.72E-05,,0,0.18267274,-0.692218274,-0.525123394,-4.06E-05,-0.000121361,,-0.943181286,-1.533936074,1.431118447,-1.676757301,-1.570804519,-2.45E-05
0.682,1.424005061,0.116545208,-0.441635259,-0.335028725,-2.59E-05,-7.74E-05,,-2.78E-11,0.18267274,-0.692218274,-0.525123394,-4.06E-05,-0.000121361,,-0.940333276,-1.533703714,1.430237945,-1.677425258,-1.570804571,-2.46E-05
0.684,1.424005061,0.116910553,-0.443019695,-0.336078972,-2.60E-05,-7.77E-05,,0,0.18267274,-0.692218274,-0.525123394,-4.06E-05,-0.000121361,,-0.937485266,-1.533470623,1.429354675,-1.678095315,-1.570804623,-2.48E-05
0.686,1.424005061,0.117275899,-0.444404132,-0.337129219,-2.61E-05,-7.79E-05,,-2.78E-11,0.18267274,-0.692218274,-0.525123394,-4.06E-05,-0.000121361,,-0.934637255,-1.533236802,1.428468636,-1.678767473,-1.570804675,-2.50E-05
0.688,1.424005061,0.117641244,-0.445788568,-0.338179466,-2.61E-05,-7.82E-05,,2.78E-11,0.18267274,-0.692218274,-0.525123394,-4.06E-05,-0.000121361,,-0.931789245,-1.533002251,1.427579827,-1.679441732,-1.570804727,-2.51E-05
0.69,1.424005061,0.11800659,-0.447173005,-0.339229712,-2.62E-05,-7.84E-05,,-2.78E-11,0.18267274,-0.692218274,-0.525123394,-4.06E-05,-0.000121361,,-0.928941235,-1.532766968,1.42668825,-1.680118091,-1.570804779,-2.53E-05
0.692,1.424005061,0.118371935,-0.448557441,-0.340279959,-2.63E-05,-7.86E-05,,2.78E-11,0.18267274,-0.692218274,-0.525123394,-4.06E-05,-0.000121361,,-0.926093225,-1.532530955,1.425793904,-1.68079655,-1.570804832,-2.54E-05
0.694,1.424005061,0.118737281,-0.449941878,-0.341330206,-2.64E-05,-7.89E-05,,0,0.18267274,-0.692218274,-0.525123394,-4.06E-05,-0.000121361,,-0.923245215,-1.532294211,1.424896789,-1.68147711,-1.570804884,-2.56E-05
0.696,1.424005061,0.119102626,-0.451326314,-0.342380453,-2.65E-05,-7.91E-05,,-2.78E-11,0.18267274,-0.692218274,-0.525123394,-4.06E-05,-0.000121361,,-0.920397205,-1.532056736,1.423996905,-1.68215977,-1.570804937,-2.57E-05
0.698,1.424005061,0.119467972,-0.452710751,-0.3434307,-2.66E-05,-7.94E-05,,2.78E-11,0.18267274,-0.692218274,-0.525123394,-4.06E-05,-0.000121361,,-0.917549195,-1.531818531,1.423094253,-1.682844531,-1.57080499,-2.59E-05
0.7,1.424005061,0.119833317,-0.454095188,-0.344480946,-2.66E-05,-7.96E-05,,2.78E-11,0.18267274,-0.692218274,-0.525123394,-4.06E-05,-0.000121361,,-0.914701185,-1.531579595,1.422188831,-1.683531393,-1.570805043,-2.61E-05
0.702,1.424005061,0.120198663,-0.455479624,-0.345531193,-2.67E-05,-7.99E-05,,0,0.18267274,-0.692218274,-0.525123394,-4.06E-05,-0.000121361,,-0.911853174,-1.531339929,1.421280641,-1.684220354,-1.570805096,-2.62E-05
0.704,1.424005061,0.120564008,-0.456864061,-0.34658144,-2.68E-05,-8.01E-05,,0,0.18267274,-0.692218274,-0.525123394,-4.06E-05,-0.000121361,,-0.909005164,-1.531099531,1.420369682,-1.684911417,-1.57080515,-2.64E-05
0.706,1.424005061,0.120929354,-0.458248497,-0.347631687,-2.69E-05,-8.03E-05,,2.78E-11,0.18267274,-0.692218274,-0.525123394,-4.06E-05,-0.000121361,,-0.906157154,-1.530858403,1.419455954,-1.68560458,-1.570805203,-2.65E-05
0.708,1.424005061,0.121294699,-0.459632934,-0.348681934,-2.70E-05,-8.06E-05,,-2.78E-11,0.18267274,-0.692218274,-0.525123394,-4.06E-05,-0.000121361,,-0.903309144,-1.530616545,1.418539457,-1.686299843,-1.570805257,-2.67E-05
0.71,1.424005061,0.121660045,-0.46101737,-0.34973218,-2.70E-05,-8.08E-05,,0,0.18267274,-0.692218274,-0.525123394,-4.06E-05,-0.000121361,,-0.900461134,-1.530373955,1.417620191,-1.686997207,-1.570805311,-2.69E-05
0.712,1.424005061,0.12202539,-0.462401807,-0.350782427,-2.71E-05,-8.11E-05,,-2.78E-11,0.18267274,-0.692218274,-0.525123394,-4.06E-05,-0.000121361,,-0.897613124,-1.530130635,1.416698156,-1.687696671,-1.570805365,-2.70E-05
0.714,1.424005061,0.122390736,-0.463786243,-0.351832674,-2.72E-05,-8.13E-05,,-2.78E-11,0.18267274,-0.692218274,-0.525123394,-4.06E-05,-0.000121361,,-0.894765114,-1.529886584,1.415773352,-1.688398236,-1.570805419,-2.72E-05
0.716,1.424005061,0.122756081,-0.46517068,-0.352882921,-2.73E-05,-8.16E-05,,2.78E-11,0.18267274,-0.692218274,-0.525123394,-4.06E-05,-0.000121361,,-0.891917104,-1.529641803,1.41484578,-1.689101902,-1.570805474,-2.73E-05
0.718,1.424005061,0.123121427,-0.466555116,-0.353933167,-2.74E-05,-8.18E-05,,-2.78E-11,0.18267274,-0.692218274,-0.525123394,-4.06E-05,-0.000121361,,-0.889069093,-1.529396291,1.413915439,-1.689807667,-1.570805528,-2.75E-05
0.72,1.424005061,0.123486772,-0.467939553,-0.354983414,-2.74E-05,-8.20E-05,,2.78E-11,0.18267274,-0.692218274,-0.525123394,-4.06E-05,-0.000121361,,-0.886221083,-1.529150048,1.412982328,-1.690515534,-1.570805583,-2.77E-05
0.722,1.424005061,0.123852117,-0.46932399,-0.356033661,-2.75E-05,-8.23E-05,,0,0.18267274,-0.692218274,-0.525123394,-4.06E-05,-0.000121361,,-0.883373073,-1.528903074,1.412046449,-1.691225501,-1.570805638,-2.78E-05
0.724,1.424005061,0.124217463,-0.470708426,-0.357083908,-2.76E-05,-8.25E-05,,-2.78E-11,0.18267274,-0.692218274,-0.525123394,-4.06E-05,-0.000121361,,-0.880525063,-1.52865537,1.411107801,-1.691937568,-1.570805693,-2.80E-05
0.726,1.424005061,0.124582808,-0.472092863,-0.358134155,-2.77E-05,-8.28E-05,,2.78E-11,0.18267274,-0.692218274,-0.525123394,-4.06E-05,-0.000121361,,-0.877677053,-1.528406935,1.410166384,-1.692651736,-1.570805748,-2.82E-05
0.728,1.424005061,0.124948154,-0.473477299,-0.359184401,-2.78E-05,-8.30E-05,,-2.78E-11,0.18267274,-0.692218274,-0.525123394,-4.06E-05,-0.000121361,,-0.874829043,-1.528157769,1.409222199,-1.693368004,-1.570805804,-2.83E-05
0.73,1.424005061,0.125313499,-0.474861736,-0.360234648,-2.79E-05,-8.33E-05,,8.33E-11,0.18267274,-0.692218274,-0.525123394,-4.06E-05,-0.000121361,,-0.871981033,-1.527907873,1.408275244,-1.694086373,-1.570805859,-2.85E-05
0.732,1.424005061,0.125678845,-0.476246172,-0.361284895,-2.79E-05,-8.35E-05,,-2.78E-11,0.18267274,-0.692218274,-0.525123394,-4.06E-05,-0.000121361,,-0.869133023,-1.527657246,1.407325521,-1.694806842,-1.570805915,-2.87E-05
0.734,1.424005061,0.12604419,-0.477630609,-0.362335142,-2.80E-05,-8.37E-05,,0,0.18267274,-0.692218274,-0.525123394,-4.06E-05,-0.000121361,,-0.866285012,-1.527405888,1.406373028,-1.695529412,-1.570805971,-2.88E-05
0.736,1.424005061,0.126409536,-0.479015045,-0.363385389,-2.81E-05,-8.40E-05,,0,0.18267274,-0.692218274,-0.525123394,-4.06E-05,-0.000121361,,-0.863437002,-1.5271538,1.405417767,-1.696254082,-1.570806027,-2.90E-05
0.738,1.424005061,0.126774881,-0.480399482,-0.364435635,-2.82E-05,-8.42E-05,,0,0.18267274,-0.692218274,-0.525123394,-4.06E-05,-0.000121361,,-0.860588992,-1.526900981,1.404459737,-1.696980853,-1.570806083,-2.92E-05
0.74,1.424005061,0.127140227,-0.481783919,-0.365485882,-2.83E-05,-8.45E-05,,-2.78E-11,0.18267274,-0.692218274,-0.525123394,-4.06E-05,-0.000121361,,-0.857740982,-1.526647431,1.403498938,-1.697709724,-1.570806139,-2.93E-05
0.742,1.424005061,0.127505572,-0.483168355,-0.366536129,-2.83E-05,-8.47E-05,,0,0.18267274,-0.692218274,-0.525123394,-4.06E-05,-0.000121361,,-0.854892972,-1.526393151,1.40253537,-1.698440696,-1.570806196,-2.95E-05
0.744,1.424005061,0.127870918,-0.484552792,-0.367586376,-2.84E-05,-8.50E-05,,-2.78E-11,0.18267274,-0.692218274,-0.525123394,-4.06E-05,-0.000121361,,-0.852044962,-1.52613814,1.401569033,-1.699173768,-1.570806252,-2.97E-05
0.746,1.424005061,0.128236263,-0.485937228,-0.368636623,-2.85E-05,-8.52E-05,,2.78E-11,0.18267274,-0.692218274,-0.525123394,-4.06E-05,-0.000121361,,-0.849196952,-1.525882398,1.400599928,-1.699908941,-1.570806309,-2.98E-05
0.748,1.424005061,0.128601609,-0.487321665,-0.369686869,-2.86E-05,-8.54E-05,,-2.78E-11,0.18267274,-0.692218274,-0.525123394,-4.06E-05,-0.000121361,,-0.846348942,-1.525625925,1.399628053,-1.700646214,-1.570806366,-3.00E-05
0.75,1.424005061,0.128966954,-0.488706101,-0.370737116,-2.87E-05,-8.57E-05,,2.78E-11,0.18267274,-0.692218274,-0.525123394,-4.06E-05,-0.000121361,,-0.843500931,-1.525368722,1.39865341,-1.701385588,-1.570806423,-3.02E-05
0.752,1.424005061,0.1293323,-0.490090538,-0.371787363,-2.87E-05,-8.59E-05,,0,0.18267274,-0.692218274,-0.525123394,-4.06E-05,-0.000121361,,-0.840652921,-1.525110788,1.397675998,-1.702127062,-1.570806481,-3.04E-05
0.754,1.424005061,0.129697645,-0.491474974,-0.37283761,-2.88E-05,-8.62E-05,,-2.78E-11,0.18267274,-0.692218274,-0.525123394,-4.06E-05,-0.000121361,,-0.837804911,-1.524852124,1.396695817,-1.702870637,-1.570806538,-3.05E-05
0.756,1.424005061,0.130062991,-0.492859411,-0.373887856,-2.89E-05,-8.64E-05,,2.78E-11,0.18267274,-0.692218274,-0.525123394,-4.06E-05,-0.000121361,,-0.834956901,-1.524592728,1.395712867,-1.703616312,-1.570806596,-3.07E-05
0.758,1.424005061,0.130428336,-0.494243847,-0.374938103,-2.90E-05,-8.67E-05,,2.78E-11,0.18267274,-0.692218274,-0.525123394,-4.06E-05,-0.000121361,,-0.832108891,-1.524332602,1.394727148,-1.704364088,-1.570806654,-3.09E-05
0.76,1.424005061,0.130793682,-0.495628284,-0.37598835,-2.91E-05,-8.69E-05,,0,0.18267274,-0.692218274,-0.525123394,-4.06E-05,-0.000121361,,-0.829260881,-1.524071746,1.39373866,-1.705113964,-1.570806712,-3.10E-05
0.762,1.424005061,0.131159027,-0.497012721,-0.377038597,-2.92E-05,-8.71E-05,,0,0.18267274,-0.692218274,-0.525123394,-4.06E-05,-0.000121361,,-0.826412871,-1.523810158,1.392747404,-1.705865941,-1.57080677,-3.12E-05
0.764,1.424005061,0.131524373,-0.498397157,-0.378088844,-2.92E-05,-8.74E-05,,2.78E-11,0.18267274,-0.692218274,-0.525123394,-4.06E-05,-0.000121361,,-0.823564861,-1.52354784,1.391753378,-1.706620018,-1.570806828,-3.14E-05
0.766,1.424005061,0.131889718,-0.499781594,-0.37913909,-2.93E-05,-8.76E-05,,-2.78E-11,0.18267274,-0.692218274,-0.525123394,-4.06E-05,-0.000121361,,-0.820716851,-1.523284791,1.390756584,-1.707376196,-1.570806887,-3.16E-05
0.768,1.424005061,0.132255064,-0.50116603,-0.380189337,-2.94E-05,-8.79E-05,,0,0.18267274,-0.692218274,-0.525123394,-4.06E-05,-0.000121361,,-0.81786884,-1.523021012,1.389757021,-1.708134474,-1.570806945,-3.17E-05
0.77,1.424005061,0.132620409,-0.502550467,-0.381239584,-2.95E-05,-8.81E-05,,-2.78E-11,0.18267274,-0.692218274,-0.525123394,-4.06E-05,-0.000121361,,-0.81502083,-1.522756502,1.388754689,-1.708894852,-1.570807004,-3.19E-05
0.772,1.424005061,0.132985754,-0.503934903,-0.382289831,-2.96E-05,-8.84E-05,,-2.78E-11,0.18267274,-0.692218274,-0.525123394,-4.06E-05,-0.000121361,,-0.81217282,-1.522491261,1.387749588,-1.709657332,-1.570807063,-3.21E-05
0.774,1.424005061,0.1333511,-0.50531934,-0.383340078,-2.96E-05,-8.86E-05,,2.78E-11,0.18267274,-0.692218274,-0.525123394,-4.06E-05,-0.000121361,,-0.80932481,-1.52222529,1.386741718,-1.710421911,-1.570807122,-3.23E-05
0.776,1.424005061,0.133716445,-0.506703776,-0.384390324,-2.97E-05,-8.88E-05,,-2.78E-11,0.18267274,-0.692218274,-0.525123394,-4.06E-05,-0.000121361,,-0.8064768,-1.521958587,1.385731079,-1.711188591,-1.570807181,-3.24E-05
0.778,1.424005061,0.134081791,-0.508088213,-0.385440571,-2.98E-05,-8.91E-05,,2.78E-11,0.18267274,-0.692218274,-0.525123394,-4.06E-05,-0.000121361,,-0.80362879,-1.521691154,1.384717672,-1.711957372,-1.570807241,-3.26E-05
0.78,1.424005061,0.134447136,-0.509472649,-0.386490818,-2.99E-05,-8.93E-05,,0,0.18267274,-0.692218274,-0.525123394,-4.06E-05,-0.000121361,,-0.80078078,-1.521422991,1.383701495,-1.712728253,-1.5708073,-3.28E-05
0.782,1.424005061,0.134812482,-0.510857086,-0.387541065,-3.00E-05,-8.96E-05,,-2.78E-11,0.18267274,-0.692218274,-0.525123394,-4.06E-05,-0.000121361,,-0.79793277,-1.521154097,1.38268255,-1.713501235,-1.57080736,-3.30E-05
0.784,1.424005061,0.135177827,-0.512241523,-0.388591311,-3.00E-05,-8.98E-05,,2.78E-11,0.18267274,-0.692218274,-0.525123394,-4.06E-05,-0.000121361,,-0.795084759,-1.520884472,1.381660836,-1.714276317,-1.57080742,-3.32E-05
0.786,1.424005061,0.135543173,-0.513625959,-0.389641558,-3.01E-05,-9.01E-05,,-2.78E-11,0.18267274,-0.692218274,-0.525123394,-4.06E-05,-0.000121361,,-0.792236749,-1.520614116,1.380636353,-1.7150535,-1.57080748,-3.33E-05
0.788,1.424005061,0.135908518,-0.515010396,-0.390691805,-3.02E-05,-9.03E-05,,8.33E-11,0.18267274,-0.692218274,-0.525123394,-4.06E-05,-0.000121361,,-0.789388739,-1.52034303,1.379609101,-1.715832783,-1.57080754,-3.35E-05
0.79,1.424005061,0.136273864,-0.516394832,-0.391742052,-3.03E-05,-9.05E-05,,-2.78E-11,0.18267274,-0.692218274,-0.525123394,-4.06E-05,-0.000121361,,-0.786540729,-1.520071213,1.37857908,-1.716614166,-1.570807601,-3.37E-05
0.792,1.424005061,0.136639209,-0.517779269,-0.392792299,-3.04E-05,-9.08E-05,,-2.78E-11,0.18267274,-0.692218274,-0.525123394,-4.06E-05,-0.000121361,,-0.783692719,-1.519798665,1.37754629,-1.71739765,-1.570807661,-3.39E-05
0.794,1.424005061,0.137004555,-0.519163705,-0.393842545,-3.04E-05,-9.10E-05,,0,0.18267274,-0.692218274,-0.525123394,-4.06E-05,-0.000121361,,-0.780844709,-1.519525386,1.376510732,-1.718183235,-1.570807722,-3.41E-05
0.796,1.424005061,0.1373699,-0.520548142,-0.394892792,-3.05E-05,-9.13E-05,,-2.78E-11,0.18267274,-0.692218274,-0.525123394,-4.06E-05,-0.000121361,,-0.777996699,-1.519251377,1.375472404,-1.71897092,-1.570807783,-3.42E-05
0.798,1.424005061,0.137735246,-0.521932578,-0.395943039,-3.06E-05,-9.15E-05,,2.78E-11,0.18267274,-0.692218274,-0.525123394,-4.06E-05,-0.000121361,,-0.775148689,-1.518976638,1.374431308,-1.719760706,-1.570807844,-3.44E-05
0.8,1.424005061,0.138100591,-0.523317015,-0.396993286,-3.07E-05,-9.17E-05,,2.78E-11,0.18267274,-0.692218274,-0.525123394,-4.06E-05,-0.000121361,,-0.772300678,-1.518701167,1.373387443,-1.720552592,-1.570807905,-3.46E-05
0.802,1.424005061,0.138465937,-0.524701451,-0.398043533,-3.08E-05,-9.20E-05,,0,0.18267274,-0.692218274,-0.525123394,-4.06E-05,-0.000121361,,-0.769452668,-1.518424966,1.372340809,-1.721346578,-1.570807967,-3.48E-05
0.804,1.424005061,0.138831282,-0.526085888,-0.399093779,-3.09E-05,-9.22E-05,,0,0.18267274,-0.692218274,-0.525123394,-4.06E-05,-0.000121361,,-0.766604658,-1.518148034,1.371291406,-1.722142665,-1.570808028,-3.50E-05
0.806,1.424005061,0.139196628,-0.527470325,-0.400144026,-3.09E-05,-9.25E-05,,-5.55E-11,0.18267274,-0.692218274,-0.525123394,-4.06E-05,-0.000121361,,-0.763756648,-1.517870371,1.370239234,-1.722940853,-1.57080809,-3.52E-05
0.808,1.424005061,0.139561973,-0.528854761,-0.401194273,-3.10E-05,-9.27E-05,,2.78E-11,0.18267274,-0.692218274,-0.525123394,-4.06E-05,-0.000121361,,-0.760908638,-1.517591978,1.369184294,-1.723741141,-1.570808152,-3.53E-05
0.81,1.424005061,0.139927319,-0.530239198,-0.40224452,-3.11E-05,-9.30E-05,,0,0.18267274,-0.692218274,-0.525123394,-4.06E-05,-0.000121361,,-0.758060628,-1.517312854,1.368126584,-1.72454353,-1.570808214,-3.55E-05
0.812,1.424005061,0.140292664,-0.531623634,-0.403294767,-3.12E-05,-9.32E-05,,2.78E-11,0.18267274,-0.692218274,-0.525123394,-4.06E-05,-0.000121361,,-0.755212618,-1.517033,1.367066106,-1.725348019,-1.570808276,-3.57E-05
0.814,1.424005061,0.14065801,-0.533008071,-0.404345013,-3.13E-05,-9.34E-05,,-2.78E-11,0.18267274,-0.692218274,-0.525123394,-4.06E-05,-0.000121361,,-0.752364608,-1.516752414,1.366002859,-1.726154608,-1.570808338,-3.59E-05
0.816,1.424005061,0.141023355,-0.534392507,-0.40539526,-3.13E-05,-9.37E-05,,2.78E-11,0.18267274,-0.692218274,-0.525123394,-4.06E-05,-0.000121361,,-0.749516597,-1.516471098,1.364936842,-1.726963298,-1.570808401,-3.61E-05
0.818,1.424005061,0.1413887,-0.535776944,-0.406445507,-3.14E-05,-9.39E-05,,-5.55E-11,0.18267274,-0.692218274,-0.525123394,-4.06E-05,-0.000121361,,-0.746668587,-1.516189052,1.363868057,-1.727774089,-1.570808464,-3.63E-05
0.82,1.424005061,0.141754046,-0.53716138,-0.407495754,-3.15E-05,-9.42E-05,,2.78E-11,0.18267274,-0.692218274,-0.525123394,-4.06E-05,-0.000121361,,-0.743820577,-1.515906274,1.362796503,-1.72858698,-1.570808527,-3.65E-05
0.822,1.424005061,0.142119391,-0.538545817,-0.408546,-3.16E-05,-9.44E-05,,0,0.18267274,-0.692218274,-0.525123394,-4.06E-05,-0.000121361,,-0.740972567,-1.515622766,1.361722181,-1.729401971,-1.57080859,-3.67E-05
0.824,1.424005061,0.142484737,-0.539930253,-0.409596247,-3.17E-05,-9.47E-05,,2.78E-11,0.18267274,-0.692218274,-0.525123394,-4.06E-05,-0.000121361,,-0.738124557,-1.515338527,1.360645089,-1.730219063,-1.570808653,-3.68E-05
0.826,1.424005061,0.142850082,-0.54131469,-0.410646494,-3.17E-05,-9.49E-05,,-2.78E-11,0.18267274,-0.692218274,-0.525123394,-4.06E-05,-0.000121361,,-0.735276547,-1.515053558,1.359565229,-1.731038256,-1.570808716,-3.70E-05
0.828,1.424005061,0.143215428,-0.542699127,-0.411696741,-3.18E-05,-9.51E-05,,0,0.18267274,-0.692218274,-0.525123394,-4.06E-05,-0.000121361,,-0.732428537,-1.514767858,1.358482599,-1.731859549,-1.57080878,-3.72E-05
0.83,1.424005061,0.143580773,-0.544083563,-0.412746988,-3.19E-05,-9.54E-05,,2.78E-11,0.18267274,-0.692218274,-0.525123394,-4.06E-05,-0.000121361,,-0.729580527,-1.514481427,1.357397201,-1.732682942,-1.570808843,-3.74E-05
0.832,1.424005061,0.143946119,-0.545468,-0.413797234,-3.20E-05,-9.56E-05,,-2.78E-11,0.18267274,-0.692218274,-0.525123394,-4.06E-05,-0.000121361,,-0.726732516,-1.514194265,1.356309034,-1.733508436,-1.570808907,-3.76E-05
0.834,1.424005061,0.144311464,-0.546852436,-0.414847481,-3.21E-05,-9.59E-05,,0,0.18267274,-0.692218274,-0.525123394,-4.06E-05,-0.000121361,,-0.723884506,-1.513906373,1.355218098,-1.734336031,-1.570808971,-3.78E-05
0.836,1.424005061,0.14467681,-0.548236873,-0.415897728,-3.22E-05,-9.61E-05,,-2.78E-11,0.18267274,-0.692218274,-0.525123394,-4.06E-05,-0.000121361,,-0.721036496,-1.51361775,1.354124393,-1.735165726,-1.570809035,-3.80E-05
0.838,1.424005061,0.145042155,-0.549621309,-0.416947975,-3.22E-05,-9.64E-05,,5.55E-11,0.18267274,-0.692218274,-0.525123394,-4.06E-05,-0.000121361,,-0.718188486,-1.513328396,1.353027919,-1.735997521,-1.570809099,-3.82E-05
0.84,1.424005061,0.145407501,-0.551005746,-0.417998222,-3.23E-05,-9.66E-05,,-2.78E-11,0.18267274,-0.692218274,-0.525123394,-4.06E-05,-0.000121361,,-0.715340476,-1.513038312,1.351928677,-1.736831417,-1.570809164,-3.84E-05
0.842,1.424005061,0.145772846,-0.552390182,-0.419048468,-3.24E-05,-9.68E-05,,2.78E-11,0.18267274,-0.692218274,-0.525123394,-4.06E-05,-0.000121361,,-0.712492466,-1.512747497,1.350826665,-1.737667413,-1.570809229,-3.86E-05
0.844,1.424005061,0.146138192,-0.553774619,-0.420098715,-3.25E-05,-9.71E-05,,-2.78E-11,0.18267274,-0.692218274,-0.525123394,-4.06E-05,-0.000121361,,-0.709644456,-1.512455951,1.349721885,-1.73850551,-1.570809293,-3.88E-05
0.846,1.424005061,0.146503537,-0.555159056,-0.421148962,-3.26E-05,-9.73E-05,,0,0.18267274,-0.692218274,-0.525123394,-4.06E-05,-0.000121361,,-0.706796446,-1.512163675,1.348614335,-1.739345708,-1.570809358,-3.90E-05
0.848,1.424005061,0.146868883,-0.556543492,-0.422199209,-3.26E-05,-9.76E-05,,2.78E-11,0.18267274,-0.692218274,-0.525123394,-4.06E-05,-0.000121361,,-0.703948436,-1.511870668,1.347504017,-1.740188006,-1.570809423,-3.91E-05
0.85,1.424005061,0.147234228,-0.557927929,-0.423249455,-3.27E-05,-9.78E-05,,-5.55E-11,0.18267274,-0.692218274,-0.525123394,-4.06E-05,-0.000121361,,-0.701100425,-1.51157693,1.34639093,-1.741032404,-1.570809489,-3.93E-05
0.852,1.424005061,0.147599574,-0.559312365,-0.424299702,-3.28E-05,-9.81E-05,,5.55E-11,0.18267274,-0.692218274,-0.525123394,-4.06E-05,-0.000121361,,-0.698252415,-1.511282462,1.345275075,-1.741878903,-1.570809554,-3.95E-05
0.854,1.424005061,0.147964919,-0.560696802,-0.425349949,-3.29E-05,-9.83E-05,,-2.78E-11,0.18267274,-0.692218274,-0.525123394,-4.06E-05,-0.000121361,,-0.695404405,-1.510987263,1.34415645,-1.742727503,-1.57080962,-3.97E-05
0.856,1.424005061,0.148330265,-0.562081238,-0.426400196,-3.30E-05,-9.85E-05,,2.78E-11,0.18267274,-0.692218274,-0.525123394,-4.06E-05,-0.000121361,,-0.692556395,-1.510691333,1.343035056,-1.743578202,-1.570809686,-3.99E-05
0.858,1.424005061,0.14869561,-0.563465675,-0.427450443,-3.30E-05,-9.88E-05,,-2.78E-11,0.18267274,-0.692218274,-0.525123394,-4.06E-05,-0.000121361,,-0.689708385,-1.510394672,1.341910894,-1.744431003,-1.570809752,-4.01E-05
0.86,1.424005061,0.149060956,-0.564850111,-0.428500689,-3.31E-05,-9.90E-05,,0,0.18267274,-0.692218274,-0.525123394,-4.06E-05,-0.000121361,,-0.686860375,-1.510097281,1.340783962,-1.745285904,-1.570809818,-4.03E-05
0.862,1.424005061,0.149426301,-0.566234548,-0.429550936,-3.32E-05,-9.93E-05,,2.78E-11,0.18267274,-0.692218274,-0.525123394,-4.06E-05,-0.000121361,,-0.684012365,-1.509799159,1.339654262,-1.746142905,-1.570809884,-4.05E-05
0.864,1.424005061,0.149791647,-0.567618984,-0.430601183,-3.33E-05,-9.95E-05,,-5.55E-11,0.18267274,-0.692218274,-0.525123394,-4.06E-05,-0.000121361,,-0.681164355,-1.509500307,1.338521793,-1.747002007,-1.57080995,-4.07E-05
0.866,1.424005061,0.150156992,-0.569003421,-0.43165143,-3.34E-05,-9.98E-05,,2.78E-11,0.18267274,-0.692218274,-0.525123394,-4.06E-05,-0.000121361,,-0.678316344,-1.509200723,1.337386555,-1.747863209,-1.570810017,-4.09E-05
0.868,1.424005061,0.150522337,-0.570387858,-0.432701677,-3.35E-05,-0.000100002,,0,0.18267274,-0.692218274,-0.525123394,-4.06E-05,-0.000121361,,-0.675468334,-1.508900409,1.336248548,-1.748726512,-1.570810084,-4.11E-05
0.87,1.424005061,0.150887683,-0.571772294,-0.433751923,-3.35E-05,-0.000100245,,2.78E-11,0.18267274,-0.692218274,-0.525123394,-4.06E-05,-0.000121361,,-0.672620324,-1.508599365,1.335107773,-1.749591916,-1.570810151,-4.13E-05
0.872,1.424005061,0.151253028,-0.573156731,-0.43480217,-3.36E-05,-0.000100487,,-2.78E-11,0.18267274,-0.692218274,-0.525123394,-4.06E-05,-0.000121361,,-0.669772314,-1.508297589,1.333964228,-1.750459419,-1.570810218,-4.15E-05
0.874,1.424005061,0.151618374,-0.574541167,-0.435852417,-3.37E-05,-0.00010073,,2.78E-11,0.18267274,-0.692218274,-0.525123394,-4.06E-05,-0.000121361,,-0.666924304,-1.507995083,1.332817914,-1.751329024,-1.570810285,-4.17E-05
0.876,1.424005061,0.151983719,-0.575925604,-0.436902664,-3.38E-05,-0.000100973,,-5.55E-11,0.18267274,-0.692218274,-0.525123394,-4.06E-05,-0.000121361,,-0.664076294,-1.507691846,1.331668832,-1.752200729,-1.570810352,-4.19E-05
0.878,1.424005061,0.152349065,-0.57731004,-0.437952911,-3.39E-05,-0.000101215,,2.78E-11,0.18267274,-0.692218274,-0.525123394,-4.06E-05,-0.000121361,,-0.661228284,-1.507387879,1.330516981,-1.753074534,-1.57081042,-4.21E-05
0.88,1.424005061,0.15271441,-0.578694477,-0.439003157,-3.39E-05,-0.000101458,,0,0.18267274,-0.692218274,-0.525123394,-4.06E-05,-0.000121361,,-0.658380274,-1.507083181,1.329362361,-1.75395044,-1.570810488,-4.23E-05
0.882,1.424005061,0.153079756,-0.580078913,-0.440053404,-3.40E-05,-0.000101701,,2.78E-11,0.18267274,-0.692218274,-0.525123394,-4.06E-05,-0.000121361,,-0.655532263,-1.506777752,1.328204972,-1.754828446,-1.570810555,-4.25E-05
0.884,1.424005061,0.153445101,-0.58146335,-0.441103651,-3.41E-05,-0.000101944,,-2.78E-11,0.18267274,-0.692218274,-0.525123394,-4.06E-05,-0.000121361,,-0.652684253,-1.506471593,1.327044814,-1.755708553,-1.570810623,-4.27E-05
0.886,1.424005061,0.153810447,-0.582847786,-0.442153898,-3.42E-05,-0.000102186,,0,0.18267274,-0.692218274,-0.525123394,-4.06E-05,-0.000121361,,-0.649836243,-1.506164702,1.325881887,-1.75659076,-1.570810692,-4.29E-05
0.888,1.424005061,0.154175792,-0.584232223,-0.443204144,-3.43E-05,-0.000102429,,2.78E-11,0.18267274,-0.692218274,-0.525123394,-4.06E-05,-0.000121361,,-0.646988233,-1.505857081,1.324716192,-1.757475068,-1.57081076,-4.31E-05
0.89,1.424005061,0.154541138,-0.58561666,-0.444254391,-3.43E-05,-0.000102672,,-2.78E-11,0.18267274,-0.692218274,-0.525123394,-4.06E-05,-0.000121361,,-0.644140223,-1.50554873,1.323547727,-1.758361476,-1.570810829,-4.33E-05
0.892,1.424005061,0.154906483,-0.587001096,-0.445304638,-3.44E-05,-0.000102915,,0,0.18267274,-0.692218274,-0.525123394,-4.06E-05,-0.000121361,,-0.641292213,-1.505239648,1.322376494,-1.759249985,-1.570810897,-4.36E-05
0.894,1.424005061,0.155271829,-0.588385533,-0.446354885,-3.45E-05,-0.000103157,,0,0.18267274,-0.692218274,-0.525123394,-4.06E-05,-0.000121361,,-0.638444203,-1.504929835,1.321202492,-1.760140594,-1.570810966,-4.38E-05
0.896,1.424005061,0.155637174,-0.589769969,-0.447405132,-3.46E-05,-0.0001034,,2.78E-11,0.18267274,-0.692218274,-0.525123394,-4.06E-05,-0.000121361,,-0.635596193,-1.504619291,1.320025721,-1.761033304,-1.570811035,-4.40E-05
0.898,1.424005061,0.15600252,-0.591154406,-0.448455378,-3.47E-05,-0.000103643,,-2.78E-11,0.18267274,-0.692218274,-0.525123394,-4.06E-05,-0.000121361,,-0.632748182,-1.504308017,1.318846181,-1.761928114,-1.570811104,-4.42E-05
0.9,1.424005061,0.156367865,-0.592538842,-0.449505625,-3.48E-05,-0.000103885,,0,0.18267274,-0.692218274,-0.525123394,-4.06E-05,-0.000121361,,-0.629900172,-1.503996012,1.317663872,-1.762825025,-1.570811174,-4.44E-05
0.902,1.424005061,0.156733211,-0.593923279,-0.450555872,-3.48E-05,-0.000104128,,2.78E-11,0.18267274,-0.692218274,-0.525123394,-4.06E-05,-0.000121361,,-0.627052162,-1.503683276,1.316478794,-1.763724036,-1.570811243,-4.46E-05
0.904,1.424005061,0.157098556,-0.595307715,-0.451606119,-3.49E-05,-0.000104371,,-2.78E-11,0.18267274,-0.692218274,-0.525123394,-4.06E-05,-0.000121361,,-0.624204152,-1.503369809,1.315290948,-1.764625148,-1.570811313,-4.48E-05
0.906,1.424005061,0.157463902,-0.596692152,-0.452656366,-3.50E-05,-0.000104614,,0,0.18267274,-0.692218274,-0.525123394,-4.06E-05,-0.000121361,,-0.621356142,-1.503055612,1.314100332,-1.76552836,-1.570811383,-4.50E-05
